<?xml version="1.0" encoding="UTF-8"?>
<map version="1.10" tiledversion="1.12.1" orientation="orthogonal" renderorder="right-down" width="256" height="256" tilewidth="8" tileheight="8" infinite="0" nextlayerid="2" nextobjectid="1">
 <tileset firstgid="1" source="../../../../../Users/Léo Diotallevi/Downloads/tile_list-1.png.tsx"/>
 <layer id="1" name="Calque de Tuiles 1" width="256" height="256">
  <data encoding="csv">
645,645,645,645,645,645,645,645,645,645,645,645,645,645,645,645,645,645,645,751,752,753,754,755,645,645,645,645,645,645,645,645,645,645,645,645,645,645,529,530,531,532,645,645,645,645,645,645,645,645,645,645,645,645,645,645,645,645,645,645,645,645,645,645,645,645,645,645,645,645,645,645,645,645,645,645,645,645,645,645,645,645,645,645,645,645,645,645,645,645,645,645,645,645,645,645,645,645,645,645,645,645,645,645,645,645,645,645,645,645,645,645,645,645,645,645,645,645,645,645,645,645,645,645,645,645,645,645,645,645,645,645,645,645,645,645,645,645,645,645,645,645,645,645,645,645,645,645,645,645,645,645,645,645,645,645,645,645,645,645,645,645,645,645,645,645,645,645,645,645,645,645,645,645,645,645,645,645,645,645,645,645,645,645,645,645,645,645,645,645,645,645,645,645,645,645,645,645,645,645,645,645,645,645,645,645,645,645,645,645,645,645,645,645,645,645,645,645,645,645,645,645,645,645,645,645,645,645,645,645,645,645,645,645,645,645,645,645,645,645,645,645,645,645,645,645,645,645,645,645,645,645,645,645,645,645,
645,645,645,645,645,645,645,645,645,645,645,645,645,645,645,645,645,645,645,645,645,645,645,645,645,645,645,645,645,645,645,645,645,645,751,752,753,754,561,562,563,564,645,645,645,645,645,645,645,645,645,645,751,751,752,753,754,755,645,645,645,645,645,645,645,645,645,645,645,645,645,645,645,645,645,645,645,645,645,645,645,645,645,645,645,645,645,645,645,645,645,645,645,645,645,645,645,645,645,645,645,645,645,645,645,645,645,645,645,645,645,645,645,645,645,645,645,645,645,645,645,645,645,645,645,645,645,645,645,645,645,645,645,645,645,645,645,645,645,645,645,645,645,645,645,645,645,645,645,645,645,645,645,645,645,645,645,645,645,645,645,645,645,645,645,645,645,645,645,645,645,645,645,645,645,645,645,645,645,645,645,645,645,645,645,645,645,645,645,645,645,645,645,645,645,645,645,645,645,645,645,645,645,645,645,645,645,645,645,645,645,645,645,645,533,534,535,645,645,645,645,645,645,645,645,645,645,657,658,659,645,645,645,645,645,645,645,645,645,645,645,645,645,645,645,645,645,645,645,645,645,645,645,645,645,645,
645,645,645,645,645,645,645,750,751,645,645,645,645,645,645,645,645,641,642,645,645,645,645,645,645,645,751,751,752,529,530,531,532,645,751,751,751,751,593,594,595,596,755,645,645,645,645,645,645,645,645,645,645,751,751,751,751,752,753,754,755,645,645,645,645,645,645,645,645,645,645,645,645,645,645,645,645,645,645,645,645,645,645,645,645,645,645,645,645,645,645,645,645,645,645,645,645,645,645,645,645,645,645,645,645,645,645,645,645,645,645,645,645,645,657,658,659,645,645,645,645,645,645,645,645,645,645,645,645,649,650,651,652,645,645,645,657,658,659,645,645,645,645,645,645,645,645,645,645,645,645,645,657,658,659,645,645,645,645,645,645,645,661,662,663,664,645,645,645,645,645,645,645,645,645,645,645,645,645,645,645,645,645,645,645,645,645,645,649,650,651,652,645,645,645,645,645,645,645,645,645,645,645,645,645,645,645,645,645,645,645,645,645,645,565,566,567,645,645,645,645,645,645,645,645,645,645,689,690,691,692,645,645,645,645,645,645,645,645,645,645,645,645,645,645,645,645,645,645,645,645,645,645,645,645,645,
645,645,645,645,645,645,645,645,645,645,645,645,645,645,751,752,753,754,755,675,676,645,645,645,645,645,645,751,751,561,562,563,564,645,645,645,645,645,625,626,627,628,645,751,752,753,754,755,645,645,645,645,645,645,645,645,751,751,751,751,752,753,754,755,645,645,645,645,645,645,645,645,645,645,645,645,645,645,645,645,645,645,645,645,645,645,645,645,645,645,405,406,407,408,645,645,645,645,645,645,645,645,645,645,645,645,645,645,645,645,645,645,645,645,689,690,691,692,645,645,645,645,645,645,645,645,645,645,645,681,682,683,684,645,645,645,689,690,691,692,645,645,645,645,645,645,645,645,645,645,645,645,689,690,691,692,645,645,645,645,645,645,693,694,695,696,645,645,645,645,645,645,645,645,645,645,645,645,645,645,645,645,645,645,645,645,645,645,681,682,683,684,645,645,645,645,645,645,645,645,645,677,678,679,645,645,645,645,645,645,645,645,645,645,597,598,599,645,645,645,645,645,645,645,645,645,645,721,722,723,724,645,645,645,645,645,645,645,645,645,645,645,645,645,645,645,645,645,645,645,645,645,645,645,645,645,
645,645,645,645,645,645,645,645,751,752,753,754,755,645,645,645,645,645,645,707,708,645,645,645,645,645,645,645,751,593,594,595,596,754,645,645,645,645,645,645,645,645,645,645,645,645,645,645,645,645,645,645,645,645,645,645,645,645,645,751,751,751,752,753,754,755,645,645,645,645,645,645,645,645,645,645,645,645,645,645,645,645,645,645,645,645,645,645,645,645,437,438,439,440,645,645,645,645,645,645,645,645,645,645,645,645,645,645,645,645,645,645,645,645,721,722,723,724,645,645,645,645,645,645,645,645,645,645,645,713,714,715,716,645,645,645,721,722,723,724,645,645,645,661,662,663,664,645,645,645,645,645,721,722,723,724,645,645,645,645,645,645,725,726,727,728,645,645,645,645,645,645,645,645,645,645,645,645,645,645,645,645,645,645,645,645,645,645,713,714,715,716,645,645,645,645,645,645,645,645,645,709,710,711,645,645,645,645,645,645,645,645,645,645,629,630,631,645,645,645,645,645,645,645,645,645,645,645,645,645,645,645,645,645,645,645,645,645,645,645,645,645,645,653,654,655,656,645,645,645,645,645,645,645,645,645,
657,658,659,645,645,645,645,645,751,751,752,753,754,755,645,645,645,645,645,645,645,645,645,751,752,753,754,677,678,625,626,627,628,753,754,755,645,645,645,645,645,645,645,645,645,645,645,645,645,657,658,659,645,645,645,645,645,645,645,645,645,645,645,645,645,645,645,645,645,645,645,645,645,645,645,645,645,645,645,645,645,645,645,645,645,645,645,645,645,645,469,470,471,472,645,645,645,645,645,645,645,645,645,645,645,645,645,645,645,645,645,645,645,645,645,645,645,645,645,645,645,645,645,645,645,645,645,645,645,745,746,747,748,645,645,645,645,645,645,645,645,645,645,693,694,695,696,645,645,645,645,645,645,645,645,645,645,645,645,645,645,645,757,758,759,760,645,645,645,645,645,645,645,645,645,645,645,645,645,645,645,645,645,645,645,645,645,645,745,746,747,748,645,645,645,645,645,645,645,645,645,645,645,645,645,645,645,645,645,645,645,645,645,645,645,645,645,645,645,645,645,645,645,645,645,645,645,645,645,645,645,645,645,645,645,533,534,535,645,645,645,645,645,685,686,687,688,645,645,645,645,645,645,645,645,645,
689,690,691,692,645,645,645,645,645,751,752,753,754,755,645,645,645,645,645,645,645,645,645,645,645,645,645,709,710,711,751,752,753,754,755,755,651,652,645,645,645,645,645,645,645,389,390,391,392,393,394,395,396,397,398,392,393,394,395,396,397,398,392,393,394,395,396,397,398,392,393,394,395,396,392,393,394,395,396,16,645,645,645,645,645,645,645,645,649,650,501,502,503,504,645,645,645,645,645,645,645,645,645,645,645,645,645,645,645,645,645,645,645,645,645,645,645,645,645,645,645,645,645,645,645,645,645,645,645,645,645,645,645,645,645,645,645,645,645,645,645,645,645,725,726,727,728,645,645,645,645,645,645,645,645,645,645,645,645,645,645,645,645,645,645,645,645,645,645,645,405,406,407,408,645,645,645,645,645,649,650,651,652,645,645,645,645,645,645,645,645,645,645,645,645,645,645,645,645,645,645,645,645,645,645,645,645,645,645,645,645,645,5,394,395,396,397,397,395,396,397,398,393,394,395,396,397,398,393,394,395,396,397,398,400,565,566,567,645,645,645,645,645,717,718,719,720,645,645,645,645,645,645,645,645,645,
721,722,723,724,645,645,645,645,645,751,751,752,753,754,755,645,645,645,645,645,645,645,645,645,645,645,645,645,645,751,752,753,754,755,755,645,683,684,645,645,645,645,645,645,645,421,422,423,424,425,426,427,428,429,430,424,425,426,427,428,429,430,424,425,426,427,428,429,430,424,425,426,427,428,429,430,49,50,51,164,645,645,645,645,645,645,645,645,681,682,683,684,645,645,645,645,645,645,645,645,645,645,645,645,645,645,645,645,645,645,645,645,645,645,645,645,645,645,645,645,645,645,645,645,645,645,645,645,645,645,645,645,645,645,645,645,645,645,645,645,645,645,645,757,758,759,760,645,645,645,645,645,645,645,645,645,645,645,645,645,645,645,645,645,645,645,645,645,645,645,437,438,439,440,645,645,645,645,645,681,682,683,684,645,645,645,645,645,645,645,645,645,645,645,645,645,645,645,645,645,645,645,645,645,645,645,645,645,645,645,645,645,161,50,51,52,425,426,427,428,429,430,425,426,427,428,429,430,425,426,427,428,429,430,432,597,598,599,645,645,645,645,645,645,645,645,645,645,645,645,645,645,645,645,645,645,
645,645,645,645,645,645,645,645,645,649,650,651,652,754,755,645,645,645,751,649,650,651,652,645,751,645,645,645,645,751,752,753,754,755,645,645,715,716,645,751,752,753,754,755,645,453,454,455,456,457,458,459,460,461,462,456,457,458,459,460,461,462,456,457,458,459,460,461,462,456,457,458,459,460,461,462,81,82,83,196,645,645,645,645,645,645,645,645,713,714,715,716,645,645,645,645,645,645,645,645,645,645,641,642,643,644,645,645,645,645,645,645,645,645,645,645,645,645,645,645,645,645,645,645,645,645,645,645,645,645,645,645,645,645,645,645,645,645,645,645,645,645,645,645,645,645,645,645,645,645,645,645,645,645,645,645,645,645,645,645,645,645,645,645,645,645,645,645,645,645,469,470,471,472,645,645,645,645,645,713,714,715,716,645,645,645,645,645,645,645,645,645,645,645,645,645,645,645,645,645,645,645,645,645,645,645,645,645,645,645,645,645,193,82,83,84,457,458,459,460,461,462,457,458,459,460,461,462,457,458,459,460,461,462,464,629,630,631,645,645,645,645,645,645,645,645,645,645,645,645,645,645,645,645,645,645,
645,645,645,645,645,645,645,645,645,681,682,683,684,755,755,645,645,645,645,681,682,683,684,645,645,645,645,645,645,645,645,645,645,645,645,746,747,748,645,645,645,645,645,645,645,485,486,487,488,489,490,491,492,493,494,488,489,490,491,492,493,494,488,489,490,491,492,493,494,488,489,490,491,492,493,494,113,114,115,228,644,645,645,645,645,645,645,645,745,746,747,748,645,645,645,645,645,645,645,645,645,645,673,674,675,676,645,645,645,645,645,645,645,645,645,645,645,645,645,645,645,645,645,645,645,645,645,645,645,645,645,645,645,645,645,645,645,645,645,645,645,645,645,645,645,645,645,645,645,645,645,645,645,645,645,645,645,645,645,645,645,645,677,678,679,645,645,645,645,645,501,502,503,504,645,645,645,645,645,745,746,747,748,645,645,645,645,645,645,645,645,645,645,645,645,645,645,645,645,645,645,645,645,645,645,645,645,645,645,645,645,645,193,114,115,116,489,490,491,492,493,494,489,490,491,492,493,494,489,490,491,492,493,494,496,645,645,645,645,645,645,645,645,645,645,645,645,645,645,645,645,645,645,645,645,645,
645,645,645,645,750,751,645,645,751,713,714,715,716,755,645,751,752,753,645,713,714,715,716,751,645,645,645,645,645,645,645,645,645,645,645,645,645,645,645,645,645,645,645,645,645,645,645,645,645,645,645,645,645,645,645,645,645,645,645,645,645,645,645,645,645,751,752,753,754,755,645,645,645,645,645,645,97,98,99,228,676,645,645,645,645,645,645,645,645,645,645,645,645,645,645,645,645,645,645,645,645,645,705,706,707,708,645,645,645,645,645,645,645,645,645,645,645,645,645,645,645,645,645,645,645,645,645,645,645,645,645,645,645,645,645,645,645,645,645,645,645,645,645,645,677,678,679,645,645,645,645,645,645,645,645,645,645,645,645,645,645,645,709,710,711,645,645,645,645,645,645,645,645,645,645,645,645,645,645,645,645,645,645,645,645,645,645,645,645,645,645,645,645,645,645,645,645,645,645,645,677,678,679,645,645,645,645,645,645,645,645,645,193,66,67,68,688,645,645,645,645,645,645,645,645,721,722,723,724,645,645,645,645,645,645,645,645,645,645,645,645,645,645,645,645,645,645,645,645,645,657,658,659,645,645,645,
645,645,645,645,645,645,645,751,752,745,746,747,748,645,645,751,751,751,751,745,746,747,748,645,645,645,751,752,753,754,755,645,645,645,645,645,645,645,751,645,645,645,645,645,661,662,663,664,645,645,645,645,645,645,645,645,645,645,645,645,645,645,645,645,645,751,752,753,754,755,645,645,645,645,645,645,129,130,131,132,708,645,645,645,645,645,645,645,645,645,645,645,645,645,645,645,645,645,645,645,645,645,645,645,645,645,645,645,645,645,645,645,645,645,645,645,645,645,645,645,645,645,645,645,645,657,658,659,645,645,645,645,657,658,659,645,645,645,645,645,645,645,645,645,709,710,711,645,645,645,645,645,645,645,645,645,645,645,645,645,645,645,645,645,645,645,645,645,645,645,645,645,645,645,645,645,645,645,645,645,645,645,645,645,645,645,645,645,645,645,645,645,645,645,645,645,645,645,645,645,709,710,711,645,645,645,645,645,645,645,645,645,193,98,99,100,720,645,645,645,645,645,645,645,645,645,645,645,645,645,645,645,645,645,645,645,645,645,645,645,645,645,645,645,645,645,645,645,645,645,689,690,691,692,645,645,
645,645,645,645,645,645,645,751,752,753,754,755,645,645,645,645,645,645,645,645,645,645,645,645,645,645,677,678,679,645,645,645,645,645,645,645,645,751,645,645,645,645,645,645,693,694,695,696,645,645,645,645,645,645,645,645,645,645,645,645,645,645,645,645,645,645,645,645,645,645,645,645,645,645,645,645,161,162,163,164,645,645,645,645,645,645,645,645,645,645,645,645,645,645,645,645,645,645,645,645,645,645,645,645,645,645,645,645,657,658,659,645,645,645,645,645,645,645,645,645,645,645,645,645,645,689,690,691,692,645,645,645,689,690,691,692,645,645,645,645,645,645,645,645,645,645,645,645,645,645,645,645,657,658,659,645,645,645,645,645,645,645,645,645,645,645,645,645,645,645,645,645,645,645,645,645,645,645,645,645,645,645,645,645,645,645,645,645,645,645,645,645,645,645,645,645,645,645,645,645,645,645,645,645,645,645,645,645,645,645,645,645,129,130,131,132,645,645,645,645,645,645,21,22,23,24,645,645,645,645,645,645,645,645,645,645,645,645,645,645,645,645,645,645,645,645,645,645,645,645,721,722,723,724,645,645,
645,645,645,645,645,649,650,651,652,754,751,752,753,754,755,645,645,645,645,645,751,752,753,754,755,645,709,710,711,753,754,755,751,751,752,753,754,755,645,645,645,645,645,645,725,726,727,728,645,645,645,645,645,645,645,645,645,645,645,645,645,645,745,746,747,645,645,645,645,645,645,645,645,645,645,645,193,194,195,196,645,645,645,645,645,645,645,645,645,645,645,645,645,645,645,645,645,645,645,645,645,645,645,645,645,645,645,645,689,690,691,692,645,645,649,650,651,652,645,645,645,645,645,645,645,721,722,723,724,645,645,645,721,722,723,724,645,645,645,645,645,645,645,645,645,645,645,645,645,645,645,645,689,690,691,692,645,645,645,645,645,645,645,645,645,645,645,645,645,645,645,645,645,645,645,645,645,645,645,645,677,678,679,645,645,645,645,645,645,645,645,645,645,645,645,645,645,645,645,645,645,645,645,645,645,645,645,645,645,645,645,645,161,162,163,164,645,645,645,645,645,645,53,54,55,56,645,645,645,645,645,645,645,645,645,645,645,645,645,645,645,645,645,645,645,645,645,645,645,645,645,645,645,645,645,645,
645,645,645,645,645,681,682,683,684,755,645,645,645,645,645,529,530,531,532,645,645,645,645,645,645,645,645,645,645,645,645,645,645,645,645,645,645,645,645,645,645,645,645,645,757,758,759,760,645,657,658,659,645,645,645,645,645,645,645,645,645,645,745,746,747,645,645,645,645,645,645,645,645,645,645,645,225,226,227,228,755,645,645,645,645,645,645,645,645,645,641,642,643,644,645,645,645,645,645,645,645,645,645,645,645,645,645,645,721,722,723,724,645,645,681,682,683,684,645,645,645,645,645,645,645,645,645,645,645,645,645,645,645,645,645,645,645,645,645,645,645,645,645,645,645,645,645,645,645,645,645,645,721,722,723,724,645,645,645,645,645,645,645,677,678,679,645,645,645,645,645,645,645,645,645,645,645,645,645,645,709,710,711,645,645,645,645,645,645,645,645,645,645,645,645,645,645,645,645,645,645,645,645,645,645,645,645,645,645,645,645,645,193,194,195,196,645,645,645,645,645,645,85,86,87,88,645,645,645,645,645,645,645,645,645,645,645,645,641,642,643,644,645,645,645,645,645,645,645,645,645,645,645,645,645,645,
645,645,645,751,752,713,714,715,716,755,645,645,645,645,645,561,562,563,564,645,645,645,645,645,645,645,645,645,645,645,645,645,645,645,645,645,645,645,645,645,645,645,645,645,645,645,645,645,645,689,690,691,692,645,645,645,645,645,645,645,645,645,645,645,645,645,645,645,645,751,752,753,754,755,645,645,257,258,259,260,645,645,645,645,645,645,645,645,645,645,673,674,675,676,645,645,645,645,645,645,645,645,645,645,645,645,645,645,645,645,645,645,645,645,713,714,715,716,645,645,645,645,645,645,645,645,645,645,645,645,645,645,645,645,645,645,645,529,530,531,532,645,645,645,645,645,645,645,645,645,645,645,645,645,645,645,645,645,645,645,645,645,645,709,710,711,645,645,645,645,645,645,661,662,663,664,645,645,645,645,645,645,645,645,645,645,645,645,645,645,645,645,645,645,645,645,645,645,645,645,645,645,645,645,645,645,645,645,645,645,645,645,225,226,227,228,645,645,645,645,645,645,117,118,119,120,645,645,645,645,645,645,645,645,645,645,645,645,673,674,675,676,645,645,645,645,645,645,645,645,645,645,645,645,645,645,
645,645,645,751,751,745,746,747,748,645,645,645,751,752,753,593,594,595,596,752,753,754,755,723,724,645,645,649,650,651,652,645,645,645,645,645,645,645,645,677,678,679,645,645,645,645,645,645,645,721,722,723,724,645,645,529,530,531,532,645,645,645,645,645,645,645,645,645,645,751,751,752,753,754,755,645,97,98,99,100,645,645,645,645,645,645,645,645,645,645,705,706,707,708,645,645,645,645,645,645,645,645,645,645,645,645,645,645,645,645,645,645,645,645,745,746,747,748,645,645,645,645,645,645,645,645,645,645,645,645,645,645,645,645,645,645,645,561,562,563,564,645,645,645,645,645,645,645,645,645,645,645,645,645,645,645,645,645,645,645,645,645,645,645,645,645,645,645,645,645,645,645,693,694,695,696,645,645,645,645,645,645,645,645,645,645,645,645,645,645,645,645,645,645,645,645,645,645,645,645,649,650,651,652,645,645,645,645,645,645,645,645,257,258,259,260,645,645,645,645,645,645,149,150,151,152,533,534,535,645,645,645,645,645,645,645,645,645,705,706,707,708,645,645,645,645,533,534,535,645,645,645,645,645,645,645,
645,645,645,645,645,645,645,645,645,645,645,645,645,645,645,625,626,627,628,752,753,754,755,645,645,645,645,681,682,683,684,645,645,405,406,407,408,753,754,755,710,711,645,645,645,645,645,645,645,645,645,645,645,645,645,561,562,563,564,645,645,645,645,645,645,645,645,645,645,645,751,752,753,754,755,645,129,130,131,132,645,645,645,645,645,645,645,645,645,645,645,645,645,645,645,645,645,645,645,645,645,645,645,645,645,645,645,645,645,645,645,645,645,645,645,645,645,645,645,645,645,645,645,645,645,645,645,645,645,645,645,645,645,645,645,645,645,593,594,595,596,645,645,645,645,645,657,658,659,645,645,645,645,649,650,651,652,645,645,645,645,645,645,645,645,645,645,645,645,645,645,645,725,726,727,728,645,645,645,645,645,645,645,645,645,645,645,645,645,645,645,645,645,645,645,645,677,678,679,645,681,682,683,684,645,645,645,645,645,645,645,645,289,290,291,292,645,645,645,645,645,645,181,182,183,184,565,566,567,645,645,645,645,645,645,645,645,645,645,645,645,645,645,645,645,645,565,566,567,645,645,645,645,645,645,645,
645,645,645,645,645,645,645,645,645,645,645,645,645,645,645,645,645,645,751,751,752,753,754,755,645,645,645,713,714,715,716,645,645,437,438,439,440,645,645,645,645,645,645,645,645,645,645,645,645,645,645,645,645,645,645,593,594,595,596,645,645,645,641,642,643,644,645,645,645,645,645,645,645,645,645,645,161,162,163,164,645,645,645,645,645,645,645,645,645,645,645,645,645,645,645,645,645,645,645,645,645,645,529,530,531,532,645,645,645,645,645,645,645,645,645,645,645,645,645,645,645,645,645,645,645,645,677,678,679,645,645,645,645,645,645,645,645,625,626,627,628,645,645,645,645,645,689,690,691,692,645,645,645,681,682,683,684,645,645,645,645,645,645,645,645,645,645,645,645,645,645,645,757,758,759,760,645,645,645,645,645,645,645,645,645,645,645,645,645,645,645,645,645,645,645,645,709,710,711,645,713,714,715,716,645,645,645,645,645,645,645,645,65,66,67,68,645,645,645,645,645,645,213,214,215,216,597,598,599,645,645,645,645,645,645,645,645,645,645,645,645,645,645,645,645,645,597,598,599,645,645,645,645,645,645,645,
645,645,645,645,645,645,645,645,645,645,645,645,645,645,645,645,751,752,753,754,755,753,754,755,645,645,645,745,746,747,748,645,645,469,470,471,472,645,645,645,645,645,645,645,645,645,645,645,645,645,645,645,645,645,645,625,626,627,628,645,645,645,673,674,675,676,645,645,645,645,645,645,645,645,645,645,193,194,195,196,645,645,645,645,645,645,645,645,645,645,645,641,642,643,644,645,645,645,645,645,645,645,561,562,563,564,645,645,645,645,645,645,645,645,645,645,645,645,645,645,645,645,645,645,645,645,709,710,711,645,645,645,645,645,645,645,645,645,645,645,645,645,645,645,645,645,721,722,723,724,645,645,645,713,714,715,716,645,645,645,645,645,645,645,645,645,645,645,645,645,645,645,645,645,645,645,645,645,645,645,645,645,645,645,645,645,645,645,645,645,645,645,645,645,645,645,645,645,645,645,745,746,747,748,645,645,645,645,645,645,645,645,97,98,99,100,645,645,645,645,645,645,245,246,247,248,629,630,631,645,645,645,645,645,645,645,645,645,645,645,645,645,645,645,645,645,629,630,631,645,645,645,645,645,645,645,
645,645,645,645,645,645,645,645,645,645,751,752,753,754,755,645,645,645,645,645,645,752,753,754,755,645,645,645,645,645,645,645,645,501,502,503,504,645,645,645,645,645,645,645,645,645,645,645,645,645,645,645,645,645,645,645,645,645,645,645,645,645,705,706,707,708,645,645,645,645,645,645,645,645,645,645,225,226,227,228,645,645,645,645,645,645,645,645,645,645,645,673,674,675,676,645,645,645,645,645,645,645,593,594,595,596,645,645,645,645,645,645,645,657,658,659,645,645,645,645,645,645,645,645,645,645,645,645,645,645,645,645,645,645,645,645,645,645,645,645,645,645,645,645,645,645,645,645,645,645,645,645,645,745,746,747,748,645,645,645,645,645,645,645,645,645,645,645,645,645,645,645,645,645,645,645,645,645,645,645,653,654,655,656,645,645,645,645,645,645,645,645,645,645,645,645,645,645,645,645,645,645,645,645,645,645,645,645,645,645,645,645,129,130,131,132,645,645,645,645,645,645,277,278,279,280,645,645,645,645,645,645,645,645,645,645,645,645,645,645,645,645,645,645,645,645,645,645,645,645,645,645,645,645,645,645,
645,645,645,645,645,645,645,645,645,645,645,645,645,645,645,645,645,645,645,645,645,752,753,754,529,530,531,532,645,645,645,645,645,645,645,645,645,645,645,645,645,645,645,745,746,747,645,645,751,752,753,754,755,755,755,645,645,645,645,645,645,645,645,645,645,645,645,645,645,645,645,645,645,645,645,645,257,258,259,260,645,645,645,645,645,645,645,645,645,645,645,705,706,707,708,645,645,645,645,645,645,645,625,626,627,628,645,645,645,645,645,645,645,689,690,691,692,645,645,645,645,645,645,645,645,645,645,645,645,645,645,645,645,645,645,645,645,645,645,645,645,645,645,645,645,645,645,645,645,645,645,645,645,645,645,645,645,645,645,645,645,645,645,645,645,645,645,645,645,645,645,645,645,645,645,645,645,645,645,645,685,686,687,688,645,645,645,645,645,645,645,645,645,645,645,645,645,645,645,645,645,645,645,645,645,645,645,645,645,645,645,645,161,162,163,164,651,652,645,645,645,645,309,310,311,312,645,645,645,645,645,645,645,645,645,645,645,645,645,645,645,645,645,645,645,645,645,645,645,645,645,645,645,645,645,645,
645,645,645,645,645,645,529,530,645,645,645,645,645,645,645,645,645,645,645,645,645,751,752,753,561,562,563,564,645,645,645,645,645,645,645,645,645,645,645,645,645,645,645,645,645,645,645,645,645,645,645,645,645,645,645,755,645,645,645,645,645,513,514,515,516,517,518,519,520,521,522,523,524,645,645,645,97,98,99,100,645,645,645,645,645,645,645,645,645,645,645,645,645,645,645,645,645,645,645,645,645,645,645,645,645,645,645,645,645,645,645,645,645,721,722,723,724,645,645,645,645,645,645,645,645,645,645,645,645,645,645,645,645,645,645,645,645,645,645,645,645,645,645,645,645,645,645,645,645,645,645,645,645,645,645,645,645,645,645,645,645,645,645,645,645,645,645,645,645,645,645,645,645,645,645,645,645,645,645,645,717,718,719,720,645,645,645,645,645,657,658,659,645,645,645,645,645,645,645,645,645,645,645,645,645,645,645,645,645,645,645,645,193,194,195,196,683,684,645,645,645,645,341,342,343,344,645,645,645,645,645,645,645,645,645,645,645,645,645,645,645,533,534,535,645,645,645,645,645,645,645,645,645,645,645,645,
645,645,645,645,645,645,561,562,563,645,645,645,645,645,645,645,645,645,645,645,645,645,645,645,593,594,595,596,753,754,755,645,529,530,531,532,645,645,645,645,645,645,645,645,645,645,645,645,645,645,645,645,645,645,645,645,645,645,645,645,645,545,546,547,548,549,550,551,552,553,554,555,556,645,645,645,129,130,131,132,645,645,645,645,645,645,645,645,645,645,645,645,645,645,645,645,645,645,645,645,645,645,645,645,645,645,645,645,645,645,645,645,645,645,645,645,645,645,645,645,645,645,645,645,645,645,645,645,645,645,645,645,645,645,645,645,645,645,645,645,645,645,645,645,645,645,645,645,645,645,645,645,645,645,645,645,645,645,645,645,645,645,645,645,645,645,645,645,645,645,645,645,645,645,645,645,645,645,645,645,645,645,645,645,645,645,645,645,645,689,690,691,692,645,645,645,645,645,645,645,645,645,645,645,645,645,645,645,645,645,645,645,225,226,227,228,715,716,645,645,645,645,373,374,375,376,645,645,645,645,645,645,653,654,655,656,645,645,645,645,645,565,566,567,645,645,645,645,645,645,645,645,645,645,645,645,
645,645,645,645,645,645,593,594,595,645,645,645,645,661,662,663,664,645,645,645,657,645,645,645,625,626,627,628,754,755,755,645,561,562,563,564,645,645,645,645,645,645,657,658,659,645,645,645,645,645,645,645,645,645,645,645,645,645,645,645,645,577,578,579,580,581,582,583,584,585,586,587,588,645,645,645,161,162,163,164,645,645,645,645,645,645,645,641,642,643,644,645,645,645,645,645,645,645,645,645,645,645,645,645,645,645,645,645,645,645,645,645,645,645,645,645,645,645,645,645,645,645,645,645,645,645,645,645,645,645,645,645,645,645,645,645,657,658,659,645,645,645,645,645,645,645,645,645,645,645,645,645,645,645,645,645,645,645,645,645,645,645,645,645,677,678,679,645,645,645,645,645,645,645,645,645,645,645,645,645,645,645,645,645,645,645,645,645,645,721,722,723,724,645,645,645,645,645,645,645,645,645,645,645,645,645,645,645,645,645,645,645,257,258,259,260,747,748,645,645,645,645,645,645,645,645,645,645,645,645,645,645,685,686,687,688,645,645,645,645,645,597,598,599,645,645,645,645,645,645,645,645,645,645,645,645,
645,645,645,645,645,645,625,626,645,645,645,645,645,693,694,695,696,645,645,645,689,690,691,692,645,751,752,753,754,755,755,645,593,594,595,645,645,645,645,645,645,645,689,690,691,692,645,645,645,645,645,645,645,745,746,747,645,645,645,645,645,609,610,611,612,613,614,615,616,617,618,619,620,645,645,645,193,194,195,196,645,529,530,531,532,645,645,673,674,675,676,645,645,645,645,645,645,645,645,645,661,662,663,664,645,645,645,645,645,645,645,645,645,645,645,645,645,645,645,645,645,645,645,645,645,645,645,645,657,658,659,645,645,645,645,645,689,690,691,692,645,645,645,661,662,663,664,645,645,645,645,645,645,645,645,645,645,645,645,645,645,645,645,645,709,710,711,645,645,645,645,645,645,645,645,645,645,645,645,645,645,645,645,645,645,645,645,645,645,645,645,645,645,645,645,645,645,645,645,645,645,645,649,650,651,652,645,645,645,645,645,645,289,290,291,292,645,645,533,534,535,645,645,645,645,645,645,645,645,645,645,645,717,718,719,720,645,645,645,645,645,629,630,631,645,645,645,641,642,643,644,645,645,645,645,645,
645,645,645,645,645,645,645,645,645,645,645,645,645,725,726,727,728,645,645,645,721,722,723,724,645,645,645,645,645,645,645,645,625,626,645,645,645,645,645,645,645,645,721,722,723,724,645,645,645,645,645,645,645,645,645,645,645,529,530,531,532,755,755,645,645,645,645,645,645,645,645,645,645,645,645,645,225,226,227,228,645,561,562,563,564,645,645,705,706,707,708,645,645,645,645,645,645,645,645,645,693,694,695,696,645,645,645,645,645,645,645,649,650,651,652,645,645,645,405,406,407,408,661,662,645,389,390,392,393,394,395,396,397,398,391,392,393,394,395,396,397,398,391,392,393,394,395,396,397,398,391,392,393,394,395,396,397,393,394,395,396,397,391,392,393,394,395,396,397,398,391,392,393,394,395,396,397,398,391,391,392,393,394,395,396,397,398,391,392,393,394,395,396,397,398,391,392,393,394,395,396,397,398,391,391,392,393,394,395,396,397,398,17,18,19,20,393,394,395,396,397,398,393,394,395,396,397,398,393,394,395,396,397,398,400,645,645,645,645,645,645,645,645,645,645,645,645,673,674,675,676,645,645,645,645,645,
645,645,645,645,645,645,645,645,645,645,645,645,645,757,758,759,760,645,645,645,645,645,645,645,645,645,645,645,645,645,645,645,645,645,645,645,645,645,645,645,645,645,645,645,645,645,645,645,645,649,650,651,652,645,645,645,645,561,562,563,564,755,645,645,645,645,657,658,659,645,645,645,645,645,645,645,257,258,259,260,645,593,594,595,596,645,645,645,645,645,645,645,645,645,645,645,645,645,645,645,725,726,727,728,645,645,645,645,645,645,645,681,682,683,684,645,645,645,437,438,439,440,693,694,645,421,422,424,425,426,427,428,429,430,423,424,425,426,427,428,429,430,423,424,425,426,427,428,429,430,423,424,425,426,427,428,429,430,49,50,51,52,423,424,425,426,427,428,429,430,423,424,425,426,427,428,429,430,423,423,424,425,426,427,428,429,430,423,424,425,426,427,428,429,430,423,424,425,426,427,428,429,430,423,423,424,425,426,427,428,429,430,49,50,51,52,425,426,427,428,429,430,425,426,427,428,429,430,425,426,427,428,429,430,432,645,645,645,645,645,645,645,645,645,645,645,645,705,706,707,708,645,645,645,645,645,
645,645,645,645,645,645,645,645,645,645,645,645,645,645,645,645,645,645,645,645,645,645,645,645,645,645,645,645,645,751,751,752,753,754,755,645,645,645,645,745,746,747,645,645,645,645,645,645,645,681,682,683,684,645,645,645,645,593,594,595,596,755,645,645,645,645,689,690,691,692,645,677,678,679,645,645,97,98,99,100,645,625,626,627,628,645,645,645,645,645,645,645,645,645,645,645,645,645,645,645,757,758,759,760,645,645,645,645,645,645,645,713,714,715,716,645,645,645,469,470,471,472,725,726,645,453,454,456,457,458,459,460,461,462,455,456,457,458,459,460,461,462,455,456,457,458,459,460,461,462,455,456,457,458,459,460,461,462,81,82,83,84,455,456,457,458,459,460,461,462,455,456,457,458,459,460,461,462,455,455,456,457,458,459,460,461,462,455,456,457,458,459,460,461,462,455,456,457,458,459,460,461,462,455,455,456,457,458,459,460,461,462,81,82,83,84,457,458,459,460,461,462,457,458,459,460,461,462,457,458,459,460,461,462,464,645,645,645,645,645,645,645,645,645,645,645,645,645,645,645,645,645,645,645,645,645,
645,645,645,645,645,645,645,645,645,645,645,645,645,645,645,645,645,645,645,645,645,645,645,645,641,642,643,644,645,645,751,751,752,753,754,755,645,645,645,645,645,645,645,645,645,645,645,645,645,713,714,715,716,645,645,645,645,625,626,627,628,755,645,645,645,645,721,722,723,724,645,709,710,711,645,645,129,130,131,132,645,645,645,645,645,645,645,645,645,645,645,645,645,645,645,645,645,645,645,645,645,645,645,645,645,645,645,645,645,645,645,745,746,747,748,645,657,658,501,502,503,504,757,758,645,485,486,488,489,490,491,492,493,494,487,488,489,490,491,492,493,494,487,488,489,490,491,492,493,494,487,488,489,490,491,492,493,494,113,114,115,116,487,488,489,490,491,492,493,494,487,488,489,490,491,492,493,494,487,487,488,489,490,491,492,493,494,487,488,489,490,491,492,493,494,487,488,489,490,491,492,493,494,487,487,488,489,490,491,492,493,494,113,114,115,116,489,490,491,492,493,494,489,490,491,492,493,494,489,490,491,492,493,494,496,645,645,645,645,645,645,645,645,645,645,645,645,645,645,645,645,533,534,535,645,645,
645,645,645,645,645,645,645,645,645,645,645,645,645,645,645,645,645,645,645,645,645,645,645,645,673,674,675,676,645,645,645,751,752,753,754,755,645,645,645,645,645,645,645,645,645,645,645,645,645,745,746,747,748,645,645,645,645,645,745,746,747,645,645,645,645,645,645,645,645,645,645,645,645,645,645,645,161,162,163,164,645,645,645,645,645,645,645,645,645,645,645,645,645,645,645,645,645,645,645,645,645,645,645,645,645,645,645,645,645,645,645,645,645,645,645,645,689,690,691,692,645,645,645,645,645,645,645,645,645,645,645,645,645,645,645,645,645,645,645,645,645,645,645,645,645,645,645,645,645,645,681,682,683,684,645,645,645,645,97,98,99,100,645,645,645,645,645,645,645,645,645,645,645,645,645,645,645,645,645,645,645,645,645,681,682,683,684,645,645,645,645,645,645,645,645,645,645,645,645,645,645,645,645,645,645,645,645,645,645,645,645,645,129,130,131,132,645,645,645,645,645,645,645,645,645,645,645,565,566,567,645,645,645,645,645,645,645,645,645,645,645,645,645,645,645,645,645,645,645,645,645,565,566,567,645,645,
645,645,645,645,645,645,645,645,645,645,645,645,645,645,645,645,645,645,645,645,645,645,645,645,705,706,707,708,645,645,645,645,645,645,645,645,645,645,645,645,645,645,645,645,645,645,645,645,645,645,645,645,645,645,645,645,645,645,645,645,645,645,645,645,645,645,645,645,645,645,645,645,645,645,645,645,193,194,195,196,645,645,645,645,645,645,645,645,645,645,645,645,645,645,645,645,645,653,654,655,656,645,645,645,645,645,645,645,645,645,645,645,645,645,645,645,721,722,723,724,645,645,645,645,645,645,645,529,530,531,532,645,645,645,645,645,645,645,645,645,645,645,645,645,645,645,645,645,645,645,713,714,715,716,645,645,645,645,129,130,131,132,645,645,645,645,645,645,645,645,645,645,645,645,645,645,645,645,645,645,645,645,645,713,714,715,716,645,645,645,645,645,645,645,645,657,658,659,645,645,645,645,645,645,645,645,645,645,645,645,645,645,161,162,163,164,645,645,645,645,645,645,645,645,645,645,645,597,598,599,645,645,645,645,645,645,645,645,533,534,535,645,645,645,645,645,645,645,645,645,645,597,598,599,645,645,
645,645,645,645,645,645,645,645,645,645,645,645,645,645,645,645,645,645,645,645,645,645,645,645,645,645,645,645,21,22,23,24,513,514,515,516,517,518,519,520,521,522,523,524,145,146,147,148,645,645,645,645,645,645,645,645,645,645,645,645,645,645,645,645,645,645,645,529,530,531,532,645,645,645,645,645,225,226,227,228,645,645,653,654,655,656,645,645,645,645,645,645,645,645,645,645,645,685,686,687,688,645,645,645,645,645,641,642,643,644,645,645,645,645,645,645,645,645,645,645,645,645,645,677,678,679,645,561,562,563,564,645,645,645,645,645,645,645,645,645,645,645,645,645,645,645,645,645,645,645,745,746,747,748,645,645,645,645,161,162,163,164,645,645,645,645,645,645,645,645,645,645,645,645,645,661,662,663,664,645,645,645,645,745,746,747,748,645,645,645,645,645,645,645,645,689,690,691,692,645,645,645,645,645,645,645,645,645,645,645,645,645,193,194,195,196,645,653,654,655,656,645,645,645,645,645,645,629,630,631,645,645,645,645,645,645,645,645,565,566,567,645,645,645,645,645,645,645,645,645,645,629,630,631,645,645,
645,645,645,645,645,645,645,645,645,645,645,645,645,645,677,678,679,645,645,645,645,645,645,645,645,645,645,645,53,54,55,56,545,546,547,548,549,550,551,552,553,554,555,556,177,178,179,180,645,645,645,645,645,645,645,645,645,645,645,645,645,645,645,645,645,645,645,561,562,563,564,645,645,645,645,645,257,258,259,260,645,645,685,686,687,688,645,645,645,645,645,645,645,645,645,645,645,717,718,719,720,645,645,645,645,645,673,674,675,676,645,645,645,645,645,645,645,645,645,645,645,645,645,709,710,711,645,593,594,595,596,645,645,645,645,645,645,645,645,645,645,645,645,645,645,645,645,645,645,645,645,645,645,645,645,645,645,645,193,194,195,196,645,645,645,645,645,645,645,645,645,645,645,645,645,693,694,695,696,645,645,645,645,645,645,645,645,645,645,645,645,645,645,645,645,721,722,723,724,645,645,645,645,645,645,645,533,534,535,645,645,645,225,226,227,228,645,685,686,687,688,645,645,645,645,645,645,645,645,645,645,645,645,645,645,645,645,645,597,598,599,645,645,645,645,645,645,645,645,645,645,645,645,645,645,645,
645,645,645,645,645,645,645,645,645,645,645,645,645,645,709,710,711,645,645,645,645,645,645,645,645,645,645,645,117,118,119,120,577,578,579,580,581,582,583,584,585,586,587,588,209,210,211,212,677,678,679,645,645,645,645,645,645,645,645,645,645,645,645,645,645,751,751,593,594,595,596,754,755,645,645,645,97,98,99,100,645,645,717,718,719,720,645,645,645,645,645,645,645,645,645,645,645,749,750,751,752,645,645,645,645,645,705,706,707,708,645,645,645,645,645,645,645,645,645,645,645,645,645,645,645,645,645,625,626,627,628,645,645,645,645,645,645,645,645,645,645,645,645,645,645,645,645,645,645,645,645,645,645,645,645,645,645,645,225,226,227,228,645,645,645,645,645,645,645,645,645,645,645,645,645,725,726,727,728,645,645,677,678,679,645,645,645,645,645,645,645,645,645,645,645,645,645,645,645,645,645,645,645,645,645,645,565,566,567,645,645,645,257,258,259,260,645,717,718,719,720,645,645,645,645,645,645,645,645,645,645,645,645,645,645,645,645,645,629,630,631,645,645,645,645,645,645,645,645,645,645,645,645,645,645,645,
645,645,645,645,645,645,645,645,645,645,645,645,645,645,645,645,645,645,645,645,645,645,645,645,645,645,645,645,149,150,151,152,609,610,611,612,613,614,615,616,617,618,619,620,241,242,243,244,709,710,711,645,645,645,645,645,645,750,751,645,645,645,645,645,645,645,645,625,626,627,628,645,645,645,645,645,129,130,131,132,645,645,749,750,751,752,645,645,645,645,645,645,645,645,645,645,645,645,645,645,645,645,645,645,645,645,645,645,645,645,645,645,645,645,645,645,645,645,645,645,645,645,645,645,645,645,645,645,645,645,645,645,645,645,645,645,645,645,645,645,645,677,678,679,645,645,645,645,645,645,645,645,645,645,645,645,645,645,257,258,259,260,645,645,645,645,645,645,645,645,645,645,645,645,645,757,758,759,760,645,645,709,710,711,645,645,645,645,645,645,645,645,645,645,645,645,645,645,645,645,645,645,645,645,645,645,597,598,599,645,645,645,129,130,131,132,645,645,645,645,645,645,645,645,645,645,645,645,645,645,645,645,645,645,645,645,645,645,645,645,645,645,645,645,645,645,645,645,645,645,645,645,645,645,645,645,
645,645,645,645,645,645,641,642,643,644,645,645,645,645,645,645,645,645,645,645,645,645,645,645,645,645,645,645,181,182,183,184,5,6,7,8,9,10,11,12,13,14,15,16,273,274,275,276,645,645,645,645,645,645,645,645,645,645,645,645,645,645,645,645,645,645,645,645,645,645,645,645,645,645,645,645,161,162,163,164,645,645,645,645,645,645,645,645,645,645,645,645,645,645,645,645,645,645,645,645,645,645,645,645,645,645,645,645,645,645,645,645,645,645,645,645,645,645,645,645,645,645,645,645,645,645,645,645,645,645,645,645,645,645,645,645,645,645,645,645,645,709,710,711,645,645,645,645,645,645,645,645,645,645,645,645,645,645,97,98,99,100,645,645,645,645,645,645,645,645,645,645,645,645,645,645,645,645,645,645,645,645,645,645,645,645,645,645,645,645,645,645,645,645,645,645,645,645,645,645,645,645,645,645,645,645,629,630,631,645,645,645,161,162,163,164,645,645,645,645,645,645,645,645,645,645,645,645,645,649,650,651,652,645,645,645,645,645,645,645,645,645,645,645,645,645,645,645,645,645,645,645,645,645,645,645,
645,645,645,645,645,645,673,674,675,676,645,645,645,645,645,645,645,645,645,645,645,645,645,645,645,645,645,645,117,118,119,120,37,38,39,40,41,42,43,44,45,46,47,48,305,306,307,308,645,645,645,645,645,645,645,645,645,645,645,645,645,645,645,645,645,645,645,645,645,645,645,645,645,645,645,645,193,194,195,196,645,645,645,645,645,645,645,645,645,645,645,645,645,645,645,645,645,645,645,645,645,645,645,645,645,645,645,645,645,661,662,663,664,645,645,645,645,645,645,645,645,645,645,645,645,645,645,645,645,645,645,645,645,645,645,645,645,645,645,645,645,645,645,645,645,645,645,645,645,645,645,653,654,655,656,645,645,645,129,130,131,132,645,645,645,645,645,645,645,645,645,645,645,645,645,645,645,645,645,645,645,645,645,645,645,645,645,645,645,645,645,645,645,645,645,645,645,645,645,645,645,645,645,645,645,645,645,645,645,645,645,645,193,194,195,196,645,645,645,645,645,645,645,645,645,645,645,645,645,681,682,683,684,645,645,645,645,645,645,645,645,641,642,643,644,645,645,645,645,645,645,645,645,645,645,645,
645,645,645,645,645,645,705,706,707,708,645,645,645,645,645,645,645,645,645,645,645,645,645,645,645,645,645,645,149,150,151,152,69,70,71,72,73,74,75,76,77,78,79,80,709,710,711,645,645,645,645,645,645,645,645,645,645,645,645,645,645,645,645,645,645,645,645,645,645,645,645,645,645,645,645,677,225,226,227,228,645,645,645,645,645,645,645,645,645,645,645,645,645,645,645,645,645,645,645,645,645,645,645,645,645,645,645,645,645,693,694,695,696,645,645,645,645,645,645,645,645,645,645,645,645,645,645,645,645,645,645,645,645,645,645,645,645,645,645,645,645,645,645,645,645,645,645,645,645,645,645,685,686,687,688,645,645,645,161,162,163,164,645,645,645,645,645,645,645,645,645,645,645,645,645,645,645,645,645,645,645,645,645,645,645,645,645,645,645,645,645,645,645,645,645,645,645,645,645,645,645,645,645,645,645,645,645,645,645,645,645,645,225,226,227,228,645,645,645,645,645,645,645,645,645,645,645,645,645,713,714,715,716,645,645,645,645,645,645,645,645,673,674,675,676,645,645,645,645,645,645,645,645,645,645,645,
645,645,645,645,645,645,645,645,645,645,645,645,645,645,645,645,645,645,645,645,645,645,645,645,645,645,645,645,181,182,183,184,101,102,103,104,105,106,107,108,109,110,111,112,645,645,645,645,645,645,645,645,645,645,645,677,678,679,645,645,645,645,645,645,645,677,678,679,645,645,645,645,645,645,645,709,257,258,259,68,645,645,645,645,645,645,645,645,645,645,645,645,645,645,645,645,645,645,645,645,645,645,645,645,645,645,645,645,645,725,726,727,728,645,645,645,645,641,642,643,644,645,645,645,661,645,645,645,645,645,645,645,645,645,645,645,645,645,645,645,645,645,645,645,645,645,645,645,645,645,645,717,718,719,720,645,645,645,193,194,195,196,645,645,645,645,645,529,530,531,532,645,645,645,645,645,645,645,645,645,645,645,645,645,645,645,645,645,645,645,645,645,653,654,655,656,645,645,645,645,645,645,645,645,645,645,645,645,645,645,645,645,257,258,259,260,534,535,645,645,645,645,645,645,645,645,645,645,645,745,746,747,748,645,645,645,645,645,645,645,645,705,706,707,708,645,645,645,645,645,645,645,645,645,645,645,
645,645,645,645,645,645,645,645,645,645,645,645,645,645,645,645,645,645,645,645,645,645,645,645,645,645,645,645,213,214,215,216,133,134,135,136,137,138,139,140,237,18,19,20,393,394,395,396,397,393,394,395,396,8,8,9,10,393,393,394,395,396,397,398,393,394,395,396,397,398,393,394,395,396,397,398,17,18,19,100,405,406,407,408,642,643,644,645,645,645,645,645,645,645,645,645,645,645,645,645,645,645,645,645,645,645,645,645,645,757,758,759,760,645,645,645,645,673,674,675,676,645,645,645,693,645,645,645,645,645,645,645,645,645,645,645,645,645,645,645,645,21,22,23,24,645,645,645,645,645,645,645,645,645,645,645,645,645,225,226,227,228,645,645,645,645,645,561,562,563,564,645,645,645,645,645,645,645,645,645,645,645,645,641,642,643,644,645,645,645,645,645,685,686,687,688,645,645,645,645,645,645,677,678,679,645,645,645,645,645,645,645,129,130,131,132,566,567,645,645,645,645,645,645,645,645,645,645,645,645,645,645,645,645,645,645,645,645,645,645,645,645,645,645,645,661,662,663,664,645,645,645,645,645,645,645,
645,645,645,645,645,645,645,645,645,645,645,645,645,645,645,645,645,645,645,645,645,641,642,643,644,645,645,645,245,246,247,248,165,166,167,168,169,170,171,172,49,50,51,52,425,426,427,428,429,425,426,427,428,49,50,51,52,425,425,426,427,428,429,430,425,426,427,428,429,430,425,426,427,428,429,430,49,50,51,132,437,438,439,440,674,675,676,645,645,645,645,645,645,645,645,645,645,645,645,645,645,645,645,653,654,655,656,645,645,645,645,645,645,645,645,645,645,705,706,707,708,645,645,645,725,645,645,645,645,645,645,645,645,645,645,645,677,678,679,645,645,53,54,55,56,645,645,645,645,645,645,645,645,645,645,645,645,645,257,258,259,260,645,645,645,645,645,593,594,595,596,645,645,645,533,534,535,645,645,645,645,645,645,673,674,675,676,645,645,645,645,645,717,718,649,650,651,652,645,645,645,645,709,710,711,645,645,645,645,645,645,645,161,162,163,164,598,599,645,645,645,645,645,645,645,645,645,645,645,645,645,645,645,645,645,645,533,534,535,645,645,645,645,645,645,693,694,695,696,645,645,645,645,645,645,645,
645,645,645,645,645,645,645,645,645,645,645,649,650,651,652,645,645,645,645,645,645,673,674,675,676,645,645,645,277,278,279,280,197,198,199,200,201,202,203,204,81,82,83,84,457,458,459,460,461,457,458,459,460,81,82,83,84,457,457,458,459,460,461,462,457,458,459,460,461,462,457,458,459,460,461,462,81,82,83,164,469,470,471,472,706,707,708,645,645,645,645,645,645,645,645,645,645,645,645,645,645,645,645,685,686,687,688,645,645,645,645,645,645,645,645,645,645,645,645,645,645,645,645,645,757,645,645,645,657,658,659,645,645,645,645,645,709,710,711,645,645,85,86,87,88,662,663,664,645,645,645,645,645,645,645,645,645,645,97,98,99,100,645,645,645,645,645,625,626,627,628,645,645,645,565,566,567,645,645,645,645,645,645,705,706,707,708,645,645,645,645,645,645,645,681,682,683,684,645,645,645,645,645,645,645,645,645,645,645,645,645,645,193,194,195,196,630,631,645,645,645,677,678,679,645,645,533,534,535,645,645,645,645,645,645,645,565,566,567,645,645,645,645,645,645,725,726,727,728,645,645,645,645,645,645,645,
645,645,645,645,645,645,645,645,645,645,645,681,682,683,684,645,645,645,645,645,645,705,706,707,708,645,645,645,309,310,311,312,229,230,231,232,233,234,235,236,237,114,115,116,489,490,491,492,493,489,490,491,492,113,114,115,116,489,489,490,491,492,493,494,489,490,491,492,493,494,489,490,491,492,493,494,490,491,492,368,501,502,503,504,645,645,645,645,645,645,645,645,645,645,645,645,645,645,645,645,645,645,645,717,718,719,720,645,645,645,645,645,645,645,645,645,645,645,645,645,645,645,645,645,645,645,645,645,689,690,691,692,645,645,645,645,645,645,645,645,645,117,118,119,120,694,695,696,645,645,645,645,645,645,645,645,645,645,129,130,131,132,645,645,645,645,645,645,645,645,645,645,645,645,597,598,599,645,645,645,645,645,645,645,645,645,645,645,645,645,645,645,645,645,713,714,715,716,645,645,645,645,645,645,645,645,645,645,645,645,645,645,225,226,227,228,645,645,645,645,645,709,710,711,645,645,565,566,567,645,645,645,645,645,645,645,597,598,599,645,645,645,645,645,645,757,758,759,760,645,645,645,645,645,645,645,
645,645,645,645,645,645,645,645,645,645,645,713,714,715,716,645,645,645,645,645,645,645,645,645,645,645,645,645,149,150,151,152,261,262,263,264,265,266,267,268,269,270,271,272,645,645,645,645,645,593,645,645,645,65,66,67,68,645,645,645,645,645,709,710,711,645,645,645,645,645,645,645,645,645,645,645,645,677,678,679,645,645,645,645,645,645,645,645,645,645,645,645,677,678,679,645,645,645,645,645,645,529,530,749,750,751,752,645,645,645,645,645,645,645,645,645,645,645,645,645,645,645,645,645,645,645,645,645,721,722,723,724,645,645,645,645,645,645,645,645,645,149,150,151,152,726,727,728,645,645,645,645,645,645,645,645,645,645,161,162,163,164,645,645,645,645,645,645,645,645,645,645,645,645,629,630,631,645,645,645,645,645,645,645,645,645,645,645,645,645,645,645,645,645,745,746,747,748,645,645,645,645,645,645,645,645,645,645,645,645,645,645,257,258,259,260,645,645,645,645,645,645,645,645,645,645,597,598,599,645,645,645,645,645,645,645,629,630,631,645,645,645,645,645,645,645,645,645,645,645,645,645,645,645,645,645,
645,645,645,645,645,645,645,645,645,645,645,745,746,747,748,645,645,645,645,645,645,645,645,645,645,645,645,645,181,182,183,184,293,294,295,296,297,298,299,300,301,302,303,304,645,645,645,645,645,625,626,645,645,97,98,99,100,645,645,645,645,645,645,645,645,645,645,645,645,645,645,645,645,645,645,645,645,709,710,711,645,645,645,645,645,645,645,645,645,645,645,645,709,710,711,645,645,645,645,645,645,561,562,563,564,645,645,645,645,645,645,645,645,645,645,645,645,645,645,645,645,645,645,645,645,645,645,645,645,645,645,645,645,645,645,645,645,645,645,645,645,181,182,183,184,758,759,760,645,677,678,679,645,645,645,645,645,645,193,194,195,196,679,645,645,645,645,645,645,645,645,645,645,645,645,645,645,645,645,645,645,645,645,645,645,645,645,645,645,645,645,645,645,645,645,645,645,645,645,645,645,645,645,645,645,645,645,645,645,645,645,645,129,130,131,132,645,645,645,645,645,645,645,645,645,645,629,630,631,645,645,645,645,645,645,645,645,645,645,645,645,645,645,645,645,645,645,645,645,645,645,645,645,645,645,645,
645,645,645,645,645,645,645,645,645,645,645,645,645,645,645,645,645,645,645,645,645,645,645,645,645,645,645,645,213,214,215,216,325,326,327,328,329,330,331,332,333,334,335,336,145,146,147,148,645,645,645,645,645,129,130,131,132,645,645,645,645,645,645,645,645,645,645,645,645,645,645,645,645,645,645,645,645,645,645,645,645,645,645,645,645,645,645,645,645,645,645,645,645,645,645,645,645,645,645,645,645,593,594,595,596,645,645,645,645,645,645,645,645,645,645,645,645,649,650,651,652,645,645,645,645,645,645,645,645,645,645,645,645,645,645,645,645,645,645,645,645,213,214,215,216,645,645,645,645,709,710,711,645,645,645,645,645,645,225,226,227,228,711,645,645,645,645,645,645,645,645,645,645,645,645,645,645,645,645,645,645,645,645,645,645,645,645,645,645,645,645,645,645,645,645,645,645,645,645,645,645,645,645,645,645,645,645,645,657,658,659,645,161,162,163,164,645,645,645,645,645,645,645,645,645,645,645,645,645,645,645,645,645,645,645,645,645,645,645,645,645,645,645,645,645,645,645,645,645,645,645,645,645,645,645,645,
645,645,645,645,645,645,645,645,645,645,645,645,645,645,645,645,645,645,645,645,645,645,645,645,645,645,645,645,245,246,247,248,357,358,359,360,361,362,363,364,365,366,367,368,177,178,179,180,645,645,645,645,645,97,98,99,100,645,645,645,645,645,645,645,657,658,659,645,645,645,645,645,645,645,645,645,645,645,645,645,645,645,645,645,645,645,645,645,645,645,645,645,645,645,645,645,645,645,645,645,645,625,626,627,628,645,645,645,645,645,645,645,645,645,645,645,645,681,682,683,684,645,645,645,645,645,645,645,645,645,645,645,645,645,645,645,645,645,645,645,645,245,246,247,248,645,645,645,645,645,645,645,645,645,645,645,645,645,257,258,259,260,645,645,645,645,645,645,645,645,645,645,645,645,645,645,645,645,645,645,645,645,645,645,533,534,535,645,645,645,645,645,645,645,645,645,645,645,645,645,645,645,645,645,645,645,645,645,689,690,691,692,193,194,195,196,531,532,645,645,645,645,645,645,645,645,533,534,535,645,645,645,645,649,650,651,652,645,645,645,533,534,535,645,645,645,645,645,657,658,659,645,645,645,645,645,
645,645,645,645,645,645,645,645,645,645,645,645,645,645,645,645,645,645,645,645,645,645,645,645,645,645,645,645,277,278,279,280,513,514,515,516,517,518,519,520,521,522,523,524,209,210,211,212,677,678,679,645,645,129,130,131,132,645,645,645,645,645,645,645,689,690,691,692,645,645,645,645,645,645,645,645,645,645,645,645,645,645,645,645,645,645,645,645,645,645,645,645,645,645,645,645,645,645,645,645,645,645,645,645,645,645,645,645,645,645,645,645,645,645,645,645,645,713,714,715,716,645,645,645,645,645,645,645,645,645,645,645,645,645,645,645,645,645,645,645,645,277,278,279,280,645,645,645,645,645,645,645,645,645,645,645,645,645,97,98,99,100,645,645,645,645,645,645,645,645,645,645,645,645,645,645,645,645,645,645,645,645,645,645,565,566,567,645,645,645,645,645,645,645,645,645,645,645,645,645,645,645,645,645,645,645,645,645,721,722,723,724,225,226,227,228,563,564,645,645,645,645,645,645,645,645,565,566,567,645,645,645,645,681,682,683,684,645,645,645,565,566,567,645,645,645,645,645,689,690,691,692,645,645,645,645,
645,645,645,645,645,645,645,645,645,645,645,645,645,645,645,645,645,645,645,645,645,645,645,645,645,645,645,645,309,310,311,312,545,546,547,548,549,550,551,552,553,554,555,556,241,242,243,244,709,710,711,645,645,161,162,163,164,645,645,645,645,645,645,645,721,722,723,724,645,645,677,678,679,645,645,645,645,645,645,645,645,529,530,531,532,645,645,645,645,645,645,645,645,645,645,645,645,645,645,645,645,645,645,645,645,645,645,645,645,645,645,645,645,645,645,645,645,745,746,747,748,645,645,645,645,645,645,645,645,645,645,645,645,645,645,645,645,645,645,645,645,309,310,311,312,645,645,645,645,645,645,645,645,645,645,645,645,645,129,130,131,132,645,645,645,645,645,645,645,645,645,645,645,645,645,645,645,645,645,645,645,645,645,645,597,598,599,645,645,645,645,645,645,645,645,645,645,533,534,535,645,645,645,645,645,645,645,645,645,645,645,645,257,258,259,260,595,596,645,645,645,645,645,645,645,645,597,598,599,645,645,645,645,713,714,715,716,645,645,645,597,598,599,645,645,645,645,645,721,722,723,724,645,645,645,645,
645,645,645,645,645,645,645,645,645,645,645,645,645,645,645,645,645,645,645,645,645,645,645,645,645,645,645,645,341,342,343,344,577,578,579,580,581,582,583,584,585,586,587,588,273,274,275,276,645,645,645,645,645,193,194,195,196,645,645,645,645,645,645,645,645,645,645,645,645,645,709,710,711,645,513,514,523,524,645,645,645,561,562,563,564,645,645,645,645,645,645,645,645,645,645,645,645,645,645,645,645,645,645,645,645,645,645,645,645,645,645,645,645,645,645,645,645,645,645,645,645,645,645,645,645,645,645,645,645,645,645,645,645,645,645,645,645,645,645,645,645,341,342,343,344,645,645,645,645,645,645,645,645,645,645,645,645,645,161,162,163,164,645,645,645,645,645,645,645,645,645,645,645,645,645,645,649,650,651,652,645,645,645,645,629,630,631,645,645,645,645,645,645,645,645,645,645,565,566,567,645,645,645,645,645,645,645,645,645,645,645,645,353,354,355,368,627,628,645,645,657,658,659,645,645,645,629,630,631,645,645,645,645,745,746,747,748,645,645,645,629,630,631,645,645,645,645,645,645,645,645,645,645,645,645,645,
645,645,645,645,645,645,645,645,645,645,645,645,645,641,642,643,644,645,645,645,645,645,645,645,645,645,645,645,373,374,375,376,609,610,611,612,613,614,615,616,617,618,619,620,305,306,307,308,645,645,645,677,678,225,226,227,228,645,645,645,645,645,645,645,645,645,645,645,645,645,645,645,645,645,545,546,555,556,645,645,645,593,594,595,596,645,645,645,645,645,641,642,643,644,645,645,645,645,645,653,654,655,656,645,645,645,645,645,645,645,645,645,645,645,645,645,645,645,645,645,645,645,645,645,645,645,645,645,645,645,645,645,645,645,529,530,531,532,645,645,645,373,374,375,376,645,645,645,645,645,645,645,645,645,645,645,645,645,193,194,195,196,645,645,645,645,645,645,645,645,645,645,645,645,645,645,681,682,683,684,645,645,645,645,645,645,645,645,645,645,645,645,645,645,645,645,645,597,598,599,645,645,645,645,645,645,645,645,645,645,645,645,645,645,645,645,645,645,645,645,689,690,691,692,645,645,645,645,645,645,645,645,645,645,645,645,645,645,645,645,645,645,645,645,645,645,645,645,645,645,645,645,645,645,645,645,
645,645,645,645,645,645,645,645,645,645,645,645,645,673,674,675,676,645,645,645,645,645,645,645,645,645,645,645,645,645,645,645,645,645,645,645,645,645,645,645,645,645,645,645,645,645,645,645,645,645,645,709,710,257,258,259,260,645,645,645,645,645,645,645,645,645,645,645,645,645,645,645,645,645,577,578,587,588,645,645,645,625,626,627,628,645,645,645,645,645,673,674,675,676,645,645,645,645,645,685,686,687,688,645,645,645,645,645,645,645,645,645,645,645,645,645,645,645,645,645,645,645,645,645,645,645,645,645,645,645,645,645,645,645,561,562,563,564,645,645,645,645,645,645,645,645,645,645,645,645,645,645,645,653,654,655,656,645,225,226,227,228,645,645,645,645,645,645,645,645,645,645,645,645,645,645,713,714,715,716,645,645,645,645,645,645,645,645,645,645,645,645,645,645,645,645,645,629,630,631,645,645,645,645,645,645,645,645,645,645,645,645,645,645,645,645,645,645,645,645,721,722,723,724,645,645,645,645,645,645,645,645,645,645,645,645,645,645,645,645,645,645,645,645,645,645,645,645,645,645,645,645,645,645,645,645,
645,645,645,645,645,645,645,645,645,645,645,645,645,705,706,707,708,645,645,645,645,645,645,645,645,645,645,645,645,645,645,645,645,645,645,645,645,645,645,645,645,645,645,645,645,645,645,645,645,645,645,645,645,129,130,131,132,645,645,645,645,645,645,645,645,645,645,645,645,645,645,645,645,645,609,610,619,620,645,645,645,645,645,645,645,645,645,645,645,645,705,706,707,708,645,645,645,645,645,717,718,719,720,645,645,645,645,645,645,645,645,645,645,645,645,645,645,645,645,645,657,658,659,645,645,645,645,645,645,645,645,645,645,645,593,594,595,596,645,645,645,645,645,645,645,645,645,645,661,662,663,664,645,685,686,687,688,645,257,258,259,260,663,664,645,645,645,645,645,645,645,533,534,535,645,645,745,746,747,748,645,645,645,645,645,645,645,645,645,645,645,645,645,645,645,645,645,645,645,645,645,645,533,534,535,645,645,645,645,645,645,645,645,645,645,645,645,645,645,645,645,645,645,645,645,645,645,645,645,645,645,645,645,645,645,645,645,645,645,645,645,645,645,645,645,645,645,645,645,645,645,645,645,645,645,645,
645,645,645,645,645,645,645,645,645,405,406,407,408,645,645,645,645,645,645,645,645,645,645,645,645,645,645,645,645,645,645,645,645,645,645,645,645,645,645,645,645,645,645,645,677,678,679,645,645,645,645,645,645,97,98,99,100,645,645,645,645,645,645,645,645,645,645,645,645,645,645,645,645,645,645,645,677,678,679,645,645,645,645,645,645,645,645,645,645,645,645,645,645,645,645,645,645,645,645,749,750,751,752,645,645,645,645,645,645,677,678,679,645,645,645,645,645,645,645,645,689,690,691,692,645,645,645,641,642,643,644,645,645,645,625,626,627,628,645,645,645,645,645,645,645,645,645,645,693,694,695,696,645,717,718,719,720,645,97,98,99,100,695,696,645,513,514,515,516,517,518,519,520,521,522,516,517,518,519,520,521,516,517,518,519,520,521,522,516,516,517,518,519,520,521,522,516,517,518,519,520,521,522,516,517,518,519,520,521,522,516,517,518,519,520,521,522,516,517,518,519,520,521,522,516,516,517,518,519,520,521,522,516,517,518,519,520,521,522,523,524,645,645,645,645,645,645,645,645,645,645,645,645,645,645,645,
645,645,645,641,642,643,644,645,645,437,438,439,440,645,645,645,645,645,645,645,645,645,645,645,645,645,645,645,645,645,645,645,645,645,645,645,645,645,645,645,645,645,645,645,709,710,711,645,645,645,645,645,645,129,130,131,132,645,645,645,645,645,645,645,645,645,645,645,645,645,645,645,645,645,645,645,709,710,711,645,645,645,645,645,645,645,645,645,645,645,645,645,645,645,645,645,645,645,645,645,645,645,645,645,645,645,645,645,645,709,710,711,645,645,645,645,645,645,645,645,721,722,723,724,645,645,645,673,674,675,676,645,645,645,645,645,645,645,645,645,645,645,645,645,645,645,645,645,725,726,727,728,645,645,645,645,645,645,129,130,131,132,727,728,645,545,546,547,548,549,550,551,552,553,554,548,549,550,551,552,553,548,549,550,551,552,553,554,548,548,549,550,551,552,553,554,548,549,550,551,552,553,554,548,549,550,551,552,553,554,548,549,550,551,552,553,554,548,549,550,551,552,553,554,548,548,549,550,551,552,553,554,548,549,550,551,552,553,554,555,556,645,645,645,645,641,642,643,644,645,645,645,645,645,645,645,
645,645,645,673,674,675,676,645,645,469,470,471,472,645,645,645,645,645,645,645,645,645,645,645,645,645,645,645,645,645,645,645,645,645,645,645,645,645,645,645,677,678,679,645,645,645,645,645,645,645,645,645,645,161,162,163,164,677,678,679,645,645,645,645,645,645,645,645,645,645,645,645,645,645,645,645,645,645,645,645,645,645,645,645,645,645,645,645,645,645,645,645,645,645,645,645,645,645,645,645,645,645,645,645,645,645,645,645,645,645,645,645,645,645,645,645,645,645,645,645,645,645,645,645,645,645,645,705,706,707,708,645,645,645,645,645,645,645,645,645,645,645,645,645,645,645,645,645,757,758,759,760,645,645,645,645,645,645,161,162,163,164,759,760,645,577,578,579,580,581,582,583,584,585,586,580,581,582,583,584,585,580,581,582,583,584,585,586,580,580,581,582,583,584,585,586,580,581,582,583,584,585,586,580,581,582,583,584,585,586,580,581,582,583,584,585,586,580,581,582,583,584,585,586,580,580,581,582,583,584,585,586,580,581,582,583,584,585,586,587,588,645,645,645,645,673,674,675,676,645,645,645,645,645,645,645,
645,645,645,705,706,707,708,645,645,501,502,503,504,645,645,645,645,645,645,645,645,645,645,645,645,645,645,645,645,645,645,645,645,645,645,645,645,645,645,645,709,710,711,645,645,645,645,645,645,645,645,645,645,193,194,195,196,709,710,711,645,645,645,645,645,645,645,645,645,645,645,645,645,645,645,645,645,645,645,645,645,645,645,645,645,645,645,645,645,645,645,645,645,645,645,645,645,645,645,645,645,645,645,645,645,645,645,645,645,645,645,645,645,645,645,645,645,645,645,645,645,645,645,645,645,645,645,645,645,645,645,645,645,645,645,645,645,645,645,645,645,645,645,645,645,645,645,645,645,645,645,645,645,645,645,645,645,645,193,194,195,196,645,645,645,609,610,611,612,613,614,615,616,617,618,612,613,614,615,616,617,612,613,614,615,616,617,618,612,612,613,614,615,616,617,618,612,613,614,615,616,617,618,612,613,614,615,616,617,618,612,613,614,615,616,617,618,612,613,614,615,616,617,618,612,612,613,614,615,616,617,618,612,613,614,615,616,617,618,619,620,645,645,645,645,705,706,707,708,645,645,645,645,645,645,645,
645,645,645,645,645,645,645,645,645,645,645,645,645,645,645,645,645,645,645,645,645,645,645,645,645,645,645,645,645,645,645,645,645,645,645,645,645,645,645,645,645,645,645,645,645,645,645,645,645,645,649,650,651,225,226,227,228,645,645,645,645,645,645,645,645,645,645,645,645,645,645,645,645,645,645,645,645,645,645,645,645,645,645,645,645,645,645,645,645,645,645,645,645,645,645,645,645,645,645,645,645,645,645,645,645,645,645,645,645,645,645,645,645,645,645,645,645,645,645,645,645,645,645,645,645,645,645,645,645,645,645,645,645,645,645,645,645,645,645,645,645,645,645,645,645,645,645,645,645,645,645,645,645,645,645,645,645,645,225,226,227,228,645,645,645,645,645,645,645,645,645,645,645,645,645,645,645,645,645,645,645,645,645,645,645,645,677,678,679,645,597,598,599,645,645,645,645,645,645,645,645,645,645,645,645,645,645,745,746,747,748,645,645,645,645,645,645,645,645,645,645,645,645,645,645,645,645,677,678,679,645,645,645,629,630,631,645,645,645,645,645,645,645,645,645,645,645,645,645,645,645,645,645,645,645,645,
645,645,645,645,645,645,645,645,645,645,645,645,645,529,530,531,532,645,645,645,645,645,645,645,645,645,645,645,645,645,645,645,645,645,645,645,645,645,645,645,645,645,645,645,645,645,645,645,645,645,681,682,683,257,258,259,260,645,645,645,645,645,645,645,645,645,645,645,529,530,531,532,645,645,645,645,645,645,645,645,645,645,645,677,678,679,645,645,653,654,655,656,645,645,645,645,645,645,645,645,645,645,645,645,645,645,645,645,645,645,645,645,645,645,645,645,645,529,530,531,532,645,645,645,645,645,645,645,645,645,645,645,645,645,645,645,645,645,645,645,645,645,645,645,645,645,645,645,645,645,645,645,645,645,645,645,645,645,257,258,259,260,645,645,645,645,645,649,650,651,652,645,645,645,645,645,645,645,645,657,658,659,645,645,645,645,709,710,711,645,629,630,631,645,645,645,645,645,645,645,645,645,645,645,645,645,645,645,645,645,645,645,645,645,645,645,645,645,645,645,645,645,645,645,645,645,645,709,710,711,645,645,645,645,645,645,645,645,645,645,645,645,645,645,645,645,645,645,645,645,645,645,645,645,645,645,
645,645,645,645,645,645,645,645,645,645,645,645,645,561,562,563,564,645,645,645,645,645,645,645,645,645,645,645,645,645,645,645,641,641,389,393,394,395,396,397,397,397,397,396,397,398,392,393,394,395,396,397,398,17,18,19,20,393,393,394,395,396,397,398,393,394,395,396,397,398,393,394,395,396,397,391,392,393,394,395,396,397,398,391,392,393,394,395,396,397,398,391,392,393,394,395,396,397,391,392,393,394,395,396,397,391,392,393,394,395,396,397,398,391,392,393,394,395,396,397,398,391,392,393,394,395,396,397,391,392,393,394,395,396,391,391,392,393,391,392,393,391,392,393,391,392,393,394,395,396,391,392,393,394,395,396,397,398,17,18,19,132,645,645,645,645,645,681,682,683,684,645,645,645,645,645,645,645,645,689,690,691,692,645,645,645,645,645,645,645,645,645,645,645,645,645,645,645,645,645,645,645,645,645,645,645,645,645,645,645,645,645,645,645,645,645,645,645,645,645,645,645,645,645,645,645,645,645,645,645,645,645,645,645,645,645,645,645,645,645,645,645,645,645,645,645,645,645,645,645,645,645,645,645,645,645,
645,645,645,645,645,645,645,645,645,645,645,645,645,593,594,595,596,645,645,645,645,645,645,645,645,645,645,645,645,645,645,645,673,673,421,49,50,51,52,424,425,426,427,428,429,430,424,425,426,427,428,429,430,49,50,51,52,425,425,426,427,428,429,430,425,426,427,428,429,430,49,50,51,52,423,423,424,425,426,427,428,429,430,423,424,425,426,427,428,429,430,423,424,425,426,427,428,429,423,424,425,426,427,428,429,423,424,425,426,427,428,429,430,423,424,425,426,427,428,429,430,423,424,425,426,427,428,429,423,424,425,426,427,428,423,423,424,425,423,424,425,423,424,425,423,424,425,426,427,428,423,424,425,426,427,428,429,430,49,50,51,164,645,645,645,645,645,713,714,715,716,645,645,533,534,535,645,645,645,721,722,723,724,645,645,645,645,645,645,645,645,645,645,645,645,645,645,645,645,641,642,643,644,645,645,645,645,645,645,645,645,645,645,645,645,645,645,645,645,645,645,645,645,645,645,645,645,661,662,663,664,645,645,645,645,645,645,645,645,645,645,645,645,645,645,645,645,645,657,658,659,645,645,645,645,645,
645,645,645,645,645,645,645,645,645,645,645,645,645,625,626,627,628,645,645,645,645,645,645,649,650,651,652,645,645,645,645,645,705,705,453,81,82,83,84,456,457,458,459,460,461,462,456,457,458,459,460,461,462,81,82,83,84,457,457,458,459,460,461,462,457,458,459,460,461,462,81,82,83,84,455,455,456,457,458,459,460,461,462,455,456,457,458,459,460,461,462,455,456,457,458,459,460,461,455,456,457,458,459,460,461,455,456,457,458,459,460,461,462,455,456,457,458,459,460,461,462,455,456,457,458,459,460,461,455,456,457,458,459,460,455,455,456,457,455,456,457,455,456,457,455,456,457,458,459,460,455,456,457,458,459,460,461,462,81,82,83,164,645,645,645,645,645,745,746,747,748,645,645,565,566,567,645,645,645,645,645,645,645,645,645,645,645,645,645,645,645,645,645,645,645,645,645,645,645,673,674,675,676,645,1,2,3,4,645,645,645,645,645,645,645,645,645,645,645,645,645,645,645,645,645,645,645,693,694,695,696,645,645,645,645,645,645,645,645,645,645,645,645,645,645,645,645,645,689,690,691,692,645,645,645,645,
645,645,645,645,645,645,645,645,645,645,645,645,645,645,645,645,645,645,645,645,645,645,645,681,682,683,684,645,645,645,645,645,645,645,485,489,490,491,492,492,489,490,491,492,493,494,488,489,490,491,492,493,494,113,114,115,116,489,489,490,491,492,493,494,489,490,491,492,493,494,113,114,115,116,487,487,488,489,490,491,492,493,494,487,488,489,490,491,492,493,494,487,488,489,490,491,492,493,487,488,489,490,491,492,493,487,488,489,490,491,492,493,494,487,488,489,490,491,492,493,494,487,488,489,490,491,492,493,487,488,489,490,491,492,487,487,488,489,487,488,489,487,488,489,487,488,489,490,491,492,487,488,489,490,491,492,493,494,113,114,115,164,645,645,645,645,645,645,645,645,645,645,645,597,598,599,645,645,645,645,645,645,645,645,645,645,645,645,645,645,645,645,645,645,645,645,645,645,645,705,706,707,708,645,65,66,67,68,645,661,662,663,664,645,645,645,645,645,645,645,645,645,645,645,645,645,645,725,726,727,728,645,645,645,645,645,645,645,645,645,645,645,645,645,645,645,645,645,721,722,723,724,645,645,645,645,
645,645,645,645,645,645,645,645,645,645,645,645,645,645,645,645,645,645,645,645,645,645,645,713,714,715,716,645,645,645,645,645,645,645,645,645,645,645,645,645,645,645,645,645,645,645,645,645,645,645,645,645,645,65,66,67,68,718,719,720,645,645,645,645,645,645,645,645,645,645,97,98,99,100,645,645,645,645,645,625,626,627,628,645,645,645,645,645,645,645,645,645,645,645,645,645,645,645,705,706,707,708,645,645,645,645,645,645,645,645,645,645,645,645,645,645,645,645,645,645,645,645,645,645,641,642,643,644,645,645,645,645,645,645,645,645,645,645,645,645,645,645,645,645,645,645,645,645,645,713,714,715,716,645,645,645,645,645,97,98,99,164,645,645,645,645,645,645,645,645,645,645,645,629,630,631,645,645,645,645,645,645,645,645,645,645,645,645,645,645,645,645,645,645,645,645,645,645,645,645,645,645,645,645,97,98,99,100,645,693,694,695,696,645,645,645,645,645,645,645,645,645,645,645,645,645,645,757,758,759,760,645,645,645,645,645,645,677,678,679,645,645,645,645,645,645,645,645,645,645,645,645,645,645,645,645,
645,645,645,645,645,645,645,645,645,645,645,645,645,645,645,645,645,645,645,645,645,645,645,745,746,747,748,645,645,645,645,645,645,645,645,645,645,645,645,645,645,645,645,645,645,645,645,645,645,645,645,645,645,97,98,99,100,750,751,752,645,645,21,22,23,24,645,645,645,645,97,98,99,100,645,645,645,645,645,645,645,645,645,645,645,645,645,645,645,645,645,645,645,645,645,645,645,645,645,645,645,645,645,645,645,645,645,645,645,645,645,645,645,645,645,645,645,645,645,645,645,645,645,645,673,674,675,676,645,645,645,645,645,645,645,645,645,645,645,645,645,645,645,657,658,659,645,645,645,745,746,747,748,645,645,645,645,661,129,130,131,132,645,533,534,535,645,645,645,645,645,645,645,645,645,645,645,645,645,645,645,645,645,645,645,645,645,645,645,645,645,645,645,645,533,534,535,645,645,645,645,645,645,645,129,130,131,132,645,725,726,727,728,645,645,645,645,645,653,654,655,656,645,645,645,645,645,645,645,645,645,645,645,645,645,645,645,709,710,711,645,645,645,645,645,645,645,645,645,645,645,645,645,645,645,645,
645,645,645,645,645,645,645,645,645,645,645,645,645,645,645,645,645,645,645,645,645,645,645,645,645,645,645,645,645,645,645,645,645,645,645,645,645,645,645,645,645,645,645,645,645,645,645,645,645,645,645,645,645,129,130,131,132,645,645,645,645,645,53,54,55,56,645,645,645,645,129,130,131,132,645,645,645,645,645,645,645,645,645,661,662,663,664,645,645,645,645,645,645,645,645,645,645,645,645,645,645,645,645,645,645,645,645,645,645,645,645,645,645,645,645,645,645,645,645,645,645,645,645,645,705,706,707,708,645,645,645,645,645,645,645,645,677,678,679,645,645,645,645,689,690,691,692,645,645,645,645,645,645,645,645,645,645,693,161,162,163,164,645,565,566,567,645,645,645,645,645,645,645,645,645,645,645,645,645,645,645,645,645,645,645,645,645,645,645,645,645,645,645,645,565,566,567,645,645,645,645,645,645,645,161,162,163,164,645,757,758,759,760,645,645,645,645,645,685,686,687,688,645,645,645,645,645,645,645,645,645,645,645,645,645,645,645,645,645,645,645,645,645,645,645,645,645,645,645,645,645,645,645,645,645,645,
645,645,645,645,645,645,645,645,645,645,645,645,645,645,645,645,645,645,645,645,645,645,645,645,645,645,645,645,25,645,645,645,645,645,645,645,645,645,529,530,531,532,645,645,645,645,645,645,645,645,645,645,645,161,162,163,164,645,645,645,645,645,85,86,87,88,645,645,645,645,161,162,163,164,645,645,645,645,645,645,645,645,645,693,694,695,696,645,645,645,645,645,645,677,678,679,645,645,645,645,645,645,645,645,645,645,645,645,645,645,645,645,645,645,645,657,658,659,645,645,645,645,645,645,645,645,645,645,645,645,645,645,645,645,645,645,709,710,711,645,645,645,645,721,722,723,724,645,645,645,645,645,645,645,645,645,645,725,193,194,195,196,645,597,598,599,645,645,645,645,645,645,645,645,645,645,645,645,645,645,645,645,645,645,645,645,645,645,645,645,645,645,645,645,597,598,599,645,645,645,645,645,533,534,193,194,195,196,645,645,645,645,645,645,645,645,645,645,717,718,719,720,645,645,645,645,645,645,645,645,645,645,645,645,645,645,645,645,645,645,645,645,645,645,645,645,645,645,645,645,645,645,645,645,645,645,
645,645,645,645,645,645,645,645,645,645,641,642,643,644,645,645,645,645,645,645,645,645,645,645,645,645,645,645,641,642,643,644,645,645,645,645,645,645,561,562,563,564,645,645,529,530,531,532,645,645,645,645,645,193,194,195,196,645,645,645,645,645,117,118,119,120,645,645,641,642,193,194,195,196,645,645,645,645,645,645,645,645,645,725,726,727,728,645,645,645,645,645,645,709,710,711,645,645,645,645,645,645,645,645,645,645,645,645,653,654,655,656,645,645,645,689,690,691,692,645,645,645,645,645,645,645,645,645,645,645,645,645,645,645,645,645,645,645,645,645,645,645,645,645,645,645,645,645,645,645,677,678,679,645,645,645,645,757,225,226,227,228,645,629,630,631,645,645,645,645,645,677,678,679,645,645,645,645,645,645,645,645,645,645,645,645,645,645,645,653,654,655,656,645,629,630,631,645,645,645,645,645,565,566,225,226,227,228,645,645,645,645,645,645,645,645,645,645,717,718,719,720,645,645,645,645,645,645,645,641,642,643,644,645,645,645,645,645,645,645,645,645,645,645,645,645,645,645,645,645,645,645,645,645,645,645,
645,645,645,645,645,645,645,645,645,645,673,674,675,676,645,645,645,645,645,645,645,645,645,645,645,645,645,645,673,674,675,676,645,645,645,645,645,645,593,594,595,596,645,645,561,562,563,564,645,645,645,645,645,225,226,227,228,645,645,645,645,645,149,150,151,152,645,645,673,674,225,226,227,228,645,645,645,645,645,645,645,645,645,757,758,759,760,645,645,645,645,645,645,645,645,645,645,645,645,645,645,645,645,645,645,645,645,645,685,686,687,688,645,645,645,721,722,723,724,645,645,645,645,645,645,645,645,645,645,645,645,645,645,645,645,533,534,535,645,645,645,645,645,645,645,645,645,645,645,645,709,710,711,645,645,645,645,645,257,258,259,260,645,645,645,645,645,645,645,645,645,709,710,711,645,645,645,645,645,645,645,645,645,645,645,645,645,645,645,685,686,687,688,645,645,645,645,645,645,645,645,645,597,598,65,66,67,68,645,645,645,645,645,645,645,645,645,645,645,645,645,645,645,645,645,645,645,645,645,673,674,675,676,645,645,645,645,645,645,645,645,645,645,645,645,645,645,645,645,645,645,645,645,645,645,645,
645,645,645,645,645,645,645,645,645,645,705,706,707,708,645,645,645,645,645,645,645,645,645,645,645,645,645,645,705,706,707,708,645,645,645,645,645,645,625,626,627,628,645,645,593,594,595,596,645,645,645,645,645,257,258,259,260,645,645,645,645,645,181,182,183,184,645,645,705,706,129,258,259,260,645,645,645,645,645,645,645,645,645,645,645,645,645,645,645,645,645,645,645,645,645,645,645,645,645,645,645,645,645,645,645,645,645,645,717,718,719,720,645,645,645,645,645,645,645,645,645,645,645,645,645,645,645,645,645,645,645,645,645,645,645,565,566,567,645,645,645,645,645,645,645,645,645,645,645,645,645,645,645,645,645,645,645,645,97,98,99,100,645,645,645,645,645,645,645,645,645,645,645,645,645,645,645,645,645,645,645,645,645,645,645,645,645,645,645,717,718,719,720,645,645,645,645,645,645,645,645,645,629,630,97,98,99,100,645,645,645,645,645,645,645,645,645,645,645,645,645,645,645,645,645,645,645,645,645,705,706,707,708,645,645,645,645,645,645,645,645,645,645,645,645,645,645,645,645,645,645,645,645,645,645,645,
645,645,645,645,645,645,645,645,645,645,645,645,645,645,645,645,645,645,645,645,645,645,645,645,645,645,645,645,645,645,645,645,645,645,645,645,645,645,645,645,645,645,645,645,625,626,627,628,645,645,645,645,645,65,66,67,68,645,645,645,645,645,213,214,215,216,645,645,645,645,129,18,19,20,393,394,395,396,4,645,645,645,645,645,645,645,645,645,645,645,645,645,645,645,645,645,645,645,645,645,645,645,645,645,645,645,645,645,749,750,751,752,645,645,645,645,645,645,645,645,645,645,645,645,645,645,645,645,645,645,645,645,645,645,645,597,598,599,645,645,645,645,645,645,645,645,645,645,645,645,645,645,645,645,645,645,645,645,129,130,131,132,645,645,645,645,645,645,645,645,645,645,645,645,645,641,642,643,644,645,645,645,645,533,534,535,645,645,645,645,645,645,645,645,645,645,645,645,645,645,645,645,645,645,129,130,131,132,645,645,645,645,645,645,645,645,645,645,645,645,645,645,645,645,645,645,645,645,645,645,645,645,645,645,645,645,645,645,645,645,645,645,645,645,645,645,645,645,645,645,533,534,535,645,645,645,
645,645,645,645,645,645,645,645,645,645,645,645,645,645,645,645,645,645,645,645,645,750,751,645,645,645,645,645,645,645,645,645,645,645,645,645,645,645,645,645,645,645,645,645,645,645,645,645,645,645,645,645,645,97,98,99,100,645,645,645,645,645,245,246,247,248,645,645,645,645,161,50,51,52,426,49,50,51,132,645,645,645,645,645,645,645,645,645,645,645,645,645,645,645,645,645,645,645,645,645,645,645,645,645,645,645,645,645,645,645,645,645,645,645,645,645,645,645,645,645,645,645,645,645,645,645,645,645,645,645,645,645,645,645,645,629,630,631,645,645,645,645,645,645,645,645,645,645,645,645,645,645,645,645,645,533,534,535,161,162,163,164,645,645,645,645,645,645,645,645,645,645,645,645,645,673,674,675,676,645,645,645,645,565,566,567,645,645,645,645,645,645,645,645,645,645,645,645,645,645,645,645,645,645,161,162,163,164,645,645,645,645,645,645,645,645,645,645,645,645,645,645,645,645,645,645,645,645,645,645,645,533,534,535,645,645,645,645,645,645,645,645,645,653,654,655,656,645,645,645,565,566,567,645,645,645,
645,645,645,645,645,645,645,645,645,645,645,645,645,645,645,645,645,645,645,645,645,645,645,645,645,645,645,645,645,645,645,645,645,645,645,645,645,645,750,751,645,645,645,645,645,645,645,645,645,645,645,645,645,129,130,131,132,645,649,650,651,652,277,278,279,280,645,645,645,645,193,82,83,84,458,81,82,83,164,645,645,645,645,645,645,645,645,645,645,645,645,645,645,645,645,645,645,645,645,645,645,645,645,645,645,645,645,645,645,645,645,645,645,645,645,645,645,641,642,643,644,645,645,645,645,645,645,645,645,645,645,645,645,645,645,645,645,645,641,642,643,644,645,645,645,645,645,645,645,645,645,645,645,645,645,565,566,567,193,194,195,196,645,645,645,645,641,642,643,644,645,645,645,645,645,705,706,707,708,645,645,645,645,597,598,599,645,645,645,645,645,645,645,645,645,645,645,645,677,678,679,645,645,645,193,194,195,196,645,645,645,645,645,645,533,534,535,645,645,645,645,645,645,645,645,645,645,645,645,645,645,565,566,567,645,645,645,645,645,645,645,645,645,685,686,687,688,645,645,645,597,598,599,645,645,645,
645,645,645,645,645,645,645,645,645,645,645,645,750,751,645,645,645,645,645,645,645,645,645,645,645,645,645,645,645,645,645,645,645,645,645,645,645,645,645,645,645,645,645,645,645,645,645,645,645,645,645,645,645,161,162,163,164,645,681,682,683,684,309,310,311,312,645,645,645,645,485,364,364,364,490,113,114,115,164,645,645,645,645,645,645,645,645,645,645,645,645,645,645,529,530,531,532,645,645,645,645,645,645,645,645,645,645,645,645,645,645,645,645,645,645,645,645,673,674,675,676,645,645,645,645,645,645,645,645,645,645,645,645,645,645,645,645,645,673,674,675,676,645,645,645,645,661,662,663,664,645,645,645,645,645,597,598,599,225,226,227,228,645,645,645,645,673,674,675,676,645,645,645,645,645,645,645,645,645,645,645,645,645,629,630,631,645,645,645,645,645,645,645,645,645,645,645,645,709,710,711,645,645,645,225,226,227,228,645,645,645,645,645,645,565,566,567,645,645,645,645,645,645,645,645,645,645,645,645,645,645,597,598,599,645,645,645,645,645,645,645,645,645,717,718,719,720,645,645,645,629,630,631,645,645,645,
645,645,645,645,645,645,645,645,645,645,645,645,645,645,645,645,645,529,530,531,532,645,645,645,645,645,645,645,645,645,645,645,645,645,645,645,645,750,751,645,645,645,645,645,645,645,645,645,645,645,645,645,645,193,194,195,196,645,713,714,715,716,341,342,343,344,645,645,645,645,645,645,645,645,645,261,66,67,164,645,653,654,655,656,645,645,645,645,645,645,645,645,645,561,562,563,564,645,645,645,645,645,645,645,645,645,645,645,645,645,645,645,645,645,645,645,645,705,706,707,708,645,677,678,679,645,645,645,645,645,645,645,645,645,645,645,645,645,705,706,707,708,645,645,645,645,693,694,695,696,645,645,645,645,645,629,630,631,257,258,259,260,656,645,645,645,705,706,707,708,645,645,645,645,645,645,645,645,645,645,645,645,645,645,645,645,645,645,645,645,645,645,645,645,645,645,645,645,645,645,645,645,645,645,65,66,67,68,645,645,645,645,645,645,597,598,599,645,645,533,534,535,645,645,645,645,645,645,645,645,645,629,630,631,645,645,645,645,645,645,645,645,645,645,645,645,645,645,645,645,645,645,645,645,645,645,
645,645,645,645,645,645,645,645,645,645,645,645,645,645,645,645,645,561,562,563,564,645,645,645,645,661,662,663,664,645,645,645,645,645,645,645,645,645,645,645,645,750,751,645,645,645,645,645,645,645,645,645,645,225,226,227,228,645,745,746,747,748,373,374,375,376,530,531,532,645,645,645,645,645,645,97,98,99,100,645,685,686,687,688,645,645,645,645,645,645,645,645,645,593,594,595,596,645,645,645,645,645,645,645,645,645,645,645,645,645,645,645,645,645,645,645,645,645,645,645,645,645,709,710,711,645,645,645,645,645,645,645,645,645,645,645,645,645,645,645,645,645,645,645,645,645,725,726,727,728,645,645,645,645,645,645,645,645,97,98,99,100,688,645,645,645,645,645,645,645,645,645,645,645,645,645,645,645,645,645,645,645,645,645,645,645,645,645,645,645,645,645,645,645,645,645,645,645,645,645,645,645,645,645,97,98,99,100,645,645,645,645,645,645,629,630,631,645,645,565,566,567,677,678,679,645,645,645,645,645,645,645,645,645,645,645,645,645,645,645,645,645,645,645,645,645,645,645,645,645,645,645,645,645,645,645,
645,645,645,661,662,663,664,645,645,645,645,645,645,645,645,645,645,593,594,595,596,645,645,645,645,693,694,695,696,645,645,645,645,645,645,645,645,645,645,645,750,751,645,750,751,645,645,645,645,645,645,645,645,257,258,259,260,645,645,645,645,645,645,645,645,561,562,563,564,645,645,645,645,645,645,129,130,131,132,645,717,718,719,720,645,645,645,645,645,645,645,645,645,625,626,627,628,645,645,645,645,645,645,645,645,645,645,645,645,645,645,645,645,645,645,645,645,645,645,645,645,645,645,645,645,645,645,645,645,645,529,530,531,532,645,645,645,645,645,645,645,645,645,533,534,535,757,758,759,760,645,645,645,645,645,645,645,645,129,130,131,132,720,645,645,645,645,645,645,645,645,645,645,645,645,645,645,645,645,645,645,645,645,645,645,645,645,645,645,645,645,645,533,534,535,645,645,645,645,645,645,645,645,645,129,130,131,132,645,645,645,645,645,645,645,645,645,645,645,597,598,599,709,710,711,645,645,645,645,645,645,645,645,645,645,645,645,645,645,645,645,645,645,645,645,645,645,645,645,645,645,645,645,645,645,645,
645,645,645,693,694,695,696,645,645,645,645,645,645,645,645,645,645,625,626,627,628,645,645,645,645,725,726,727,728,645,645,645,645,645,645,645,645,645,645,750,751,750,751,645,645,645,645,645,645,645,645,645,645,97,98,99,100,645,645,645,645,645,645,645,645,593,594,595,596,645,645,645,645,645,645,161,162,163,164,645,749,750,751,752,645,645,645,645,645,645,645,645,645,645,645,645,645,645,645,645,645,645,645,645,645,645,653,654,655,656,645,645,645,645,645,645,645,645,645,645,645,645,645,645,645,645,645,645,645,645,561,562,563,564,645,645,645,645,645,645,645,645,645,565,566,567,645,645,645,645,645,645,645,661,662,663,664,645,161,162,163,164,645,645,645,645,645,645,645,645,645,645,645,645,645,645,645,645,645,533,534,535,645,645,645,645,645,645,645,645,645,645,565,566,567,645,645,645,645,645,645,645,645,645,161,162,163,164,645,645,645,533,534,535,645,645,645,645,645,629,630,631,645,645,645,645,645,645,645,645,645,645,645,645,645,645,645,645,645,645,645,645,645,645,645,645,645,645,645,645,645,645,645,645,645,645,
645,645,645,725,726,727,728,645,645,645,645,645,645,645,645,645,645,645,645,645,645,645,645,645,645,757,758,759,760,645,645,645,645,645,645,645,645,645,645,645,645,645,645,645,645,645,645,645,645,645,645,645,645,129,130,131,132,645,645,645,645,645,645,645,645,625,626,627,628,645,645,645,645,645,645,193,194,195,196,645,645,645,645,645,645,645,645,645,645,645,645,645,645,645,645,645,645,645,645,645,645,645,645,645,645,645,685,686,687,688,645,645,645,645,645,645,645,645,645,645,645,645,645,645,645,645,645,645,645,645,593,594,595,596,645,645,645,645,645,645,645,645,645,597,598,599,645,645,645,645,645,645,645,693,694,695,696,645,193,194,195,196,645,645,645,645,533,534,535,645,645,645,645,645,645,645,645,645,645,565,566,567,645,645,645,645,645,657,658,659,645,645,597,598,599,645,645,645,645,645,645,645,645,645,193,194,195,196,645,645,645,565,566,567,645,645,645,645,645,645,645,645,645,645,645,645,645,645,645,645,645,645,645,645,645,645,645,533,534,535,645,645,645,645,645,645,645,645,645,645,645,645,645,645,645,645,
645,645,645,757,758,759,760,750,751,645,645,645,645,645,645,645,645,645,645,645,645,645,645,645,641,642,643,644,645,645,645,645,653,654,655,656,645,645,645,645,645,645,645,645,645,750,751,645,645,645,645,645,645,161,162,163,164,645,645,645,645,645,645,645,645,645,645,645,645,645,645,645,645,645,645,225,226,227,228,645,645,645,645,645,645,645,645,645,645,645,645,645,645,645,641,642,643,644,645,645,645,645,645,645,645,645,717,718,719,720,645,645,645,645,645,645,645,645,645,645,645,645,645,645,645,645,645,645,645,645,625,626,627,628,645,645,645,645,645,645,645,645,645,629,630,631,641,642,643,644,645,645,645,725,726,727,728,645,225,226,227,228,645,645,645,645,565,566,567,645,645,645,645,645,645,645,645,645,645,597,598,599,645,645,645,645,645,689,690,691,692,645,629,630,631,645,645,645,645,645,645,645,645,645,225,226,227,228,645,645,645,597,598,599,645,645,645,645,645,645,645,645,645,533,534,535,645,645,645,645,645,677,678,679,645,645,645,565,566,567,645,645,645,645,645,645,645,645,645,645,645,645,645,645,645,645,
645,645,645,645,645,645,645,645,645,645,645,645,645,645,645,645,645,645,645,645,645,645,645,645,673,674,675,676,645,645,645,645,685,686,687,688,645,645,645,645,645,645,645,645,645,653,654,655,656,645,645,645,645,193,194,195,196,645,645,645,645,645,645,645,645,645,645,645,645,645,645,645,645,645,645,257,258,259,260,645,645,645,645,645,645,645,645,645,645,645,645,645,645,645,673,674,675,676,645,645,645,645,645,645,645,645,749,750,751,752,645,645,645,645,645,645,645,645,645,645,645,645,533,534,535,645,645,645,645,645,645,645,645,645,645,645,645,645,645,645,645,657,658,659,645,645,673,674,675,676,645,645,645,757,758,759,760,645,65,66,67,68,645,645,645,645,597,598,599,645,645,645,645,641,642,643,644,645,645,629,630,631,645,645,645,645,645,721,722,723,724,645,645,645,645,645,645,645,645,645,645,645,645,645,65,66,67,68,645,645,645,629,630,631,645,645,645,645,645,645,645,645,645,565,566,567,645,645,645,645,645,709,710,711,645,645,645,597,598,599,645,645,645,645,645,645,645,645,657,658,659,645,645,645,645,645,
645,645,645,645,645,645,645,645,645,645,645,645,645,645,645,750,751,645,645,645,645,645,645,645,705,706,707,708,645,645,645,645,717,718,719,720,645,750,750,751,645,645,645,645,645,685,686,687,688,645,645,645,645,225,226,227,228,645,529,530,531,532,645,645,645,645,645,645,645,645,645,645,645,645,645,289,290,291,292,645,645,645,677,678,679,645,645,645,645,645,645,645,645,645,705,706,707,708,645,645,645,645,645,645,645,645,645,645,645,645,645,645,645,645,641,642,643,644,645,645,645,645,565,566,567,645,645,645,645,645,645,645,645,645,645,645,645,645,645,645,645,689,690,691,692,645,705,706,707,708,645,645,645,645,645,645,645,645,97,98,99,100,645,645,645,645,629,630,631,645,645,645,645,673,674,675,676,645,645,645,645,645,645,645,645,645,645,645,645,645,645,645,645,645,645,645,645,645,645,645,645,645,645,645,97,98,99,100,645,645,645,645,645,645,645,645,645,645,645,645,645,645,645,597,598,599,645,645,645,645,645,645,645,645,645,645,645,629,630,631,645,645,645,641,642,643,644,645,689,690,691,692,645,645,645,645,
645,645,645,645,645,645,645,645,645,645,645,645,645,645,645,645,645,645,645,645,645,645,645,645,645,645,645,645,645,645,645,645,749,750,751,752,645,750,751,645,645,645,645,645,645,717,718,719,720,645,645,645,645,257,258,259,260,645,561,562,563,564,645,645,645,645,645,529,530,531,532,645,645,661,662,65,66,67,68,645,645,645,709,710,711,645,645,645,645,645,645,645,645,645,645,645,645,645,645,645,645,645,645,645,645,645,645,645,645,645,645,645,645,645,673,674,675,676,645,645,645,645,597,598,599,645,645,645,645,645,645,645,645,645,645,645,645,645,645,645,645,721,722,723,724,645,645,645,645,645,645,645,645,645,645,645,645,645,129,130,131,132,677,678,679,645,645,645,645,645,645,645,645,705,706,707,708,645,645,645,645,645,645,645,645,645,645,645,645,645,645,645,645,645,645,645,645,645,645,645,645,645,645,645,129,130,131,132,645,645,645,645,645,645,645,645,645,645,645,645,645,645,645,629,630,631,645,645,645,645,645,645,645,645,645,645,645,645,645,645,645,645,645,673,674,675,676,645,721,722,723,724,645,645,645,645,
645,645,645,645,645,645,645,645,645,645,645,645,645,645,645,645,645,645,645,645,645,645,645,645,645,645,645,645,645,645,645,645,645,645,645,645,645,750,751,751,645,645,645,645,645,749,750,751,752,645,645,645,645,289,290,291,292,645,593,594,595,596,645,645,645,645,645,561,562,563,564,645,645,693,694,97,98,99,100,645,645,645,645,645,645,645,645,645,645,645,645,645,645,645,645,645,645,645,645,645,645,645,645,645,645,645,645,645,645,645,645,645,645,645,705,706,707,708,645,645,645,645,629,630,631,645,645,657,658,659,645,645,645,645,645,645,661,662,663,664,645,645,645,645,645,645,645,645,645,645,645,645,645,645,645,645,645,645,161,162,163,164,709,710,711,645,645,645,645,645,645,645,645,645,645,645,645,645,645,645,645,645,649,650,651,652,645,645,645,645,645,645,645,645,645,645,645,645,645,645,645,645,645,645,161,162,163,164,645,645,645,645,645,645,645,645,657,658,659,645,645,645,645,645,645,645,645,645,645,645,645,645,645,645,645,645,645,645,645,645,645,645,645,705,706,707,708,645,645,645,645,645,645,645,645,645,
645,645,645,645,645,645,645,645,645,645,645,645,645,645,645,645,645,645,645,645,645,645,645,645,645,645,645,645,645,645,645,645,645,645,645,645,645,645,750,751,645,645,645,645,645,645,645,645,645,645,645,641,642,97,98,99,100,645,625,626,627,628,645,645,645,645,645,593,594,595,596,645,645,725,726,129,130,131,132,645,645,645,645,645,645,645,645,645,645,661,662,663,664,645,645,645,645,645,645,645,645,645,677,678,679,645,645,645,645,645,533,534,535,645,645,645,645,645,645,645,645,645,645,645,645,645,645,689,690,691,692,645,645,645,645,645,693,694,695,696,645,645,645,645,645,533,534,535,645,645,645,645,649,650,651,652,645,645,65,66,67,68,645,645,645,645,645,645,645,645,645,645,645,645,645,645,645,645,645,645,645,645,681,682,683,684,645,645,645,645,645,645,645,641,642,643,644,645,645,645,645,645,645,645,193,194,195,196,645,645,645,645,645,645,645,645,689,690,691,692,645,645,645,645,645,645,645,645,645,645,645,645,645,645,645,645,645,645,645,645,645,645,645,645,645,645,645,645,645,645,645,645,645,645,645,645,
645,645,645,645,645,645,645,645,645,645,649,650,651,652,645,645,645,645,645,645,645,645,645,645,645,645,645,645,645,645,645,645,645,645,645,645,645,645,750,751,751,645,645,645,645,645,645,645,645,645,645,673,674,129,130,131,132,645,645,645,645,645,645,645,645,645,645,625,626,627,628,645,645,757,758,161,162,163,164,645,645,645,645,645,645,645,645,645,645,693,694,695,696,645,645,645,645,645,645,645,645,645,709,710,711,645,645,645,645,645,565,566,567,645,645,645,645,645,645,645,645,645,645,645,645,645,645,721,722,723,724,645,645,645,645,645,725,726,727,728,645,645,645,645,645,565,566,567,645,645,645,645,681,682,683,684,645,645,97,98,99,100,645,645,645,645,645,645,661,662,663,664,645,645,645,645,645,645,645,645,645,645,713,714,715,716,645,645,645,645,645,645,645,673,674,675,676,645,645,645,645,645,645,645,225,226,227,228,645,645,645,645,645,645,645,645,721,722,723,724,645,645,645,645,645,645,645,645,645,645,645,645,645,645,645,645,645,645,645,645,645,645,645,645,645,645,645,645,645,645,645,645,645,645,645,645,
645,645,645,645,645,645,645,645,645,645,681,682,683,684,645,645,645,645,645,645,645,645,645,645,645,645,645,645,645,645,645,645,645,645,645,645,645,645,645,750,751,645,645,645,645,645,645,645,645,645,645,705,706,161,162,163,164,645,645,645,645,645,645,645,645,645,645,645,645,645,645,645,645,645,645,193,194,195,196,645,645,645,645,645,645,645,645,645,645,725,726,727,728,645,645,645,645,645,645,645,645,645,645,645,645,645,645,645,645,645,597,598,599,645,645,645,645,645,645,645,645,645,645,645,645,645,645,645,405,406,407,408,645,645,645,645,757,758,759,760,645,645,645,645,645,597,598,599,645,645,645,645,713,714,715,716,645,645,129,130,131,132,645,645,645,645,645,645,693,694,695,696,645,645,645,645,645,645,645,645,645,645,745,746,747,748,645,645,645,645,645,645,645,705,706,707,708,645,645,645,645,645,645,645,65,66,67,68,645,645,645,645,645,645,645,645,645,645,645,645,645,645,645,645,645,645,645,645,645,657,658,659,645,645,645,645,645,645,645,645,645,645,645,645,645,645,645,645,645,645,645,645,645,645,645,645,
645,645,645,645,645,645,645,645,645,645,713,714,715,716,645,645,645,645,645,645,645,645,645,645,645,750,751,645,645,645,645,645,645,641,642,643,644,645,645,750,751,751,645,645,645,645,645,645,645,645,645,645,645,193,194,195,196,645,645,645,645,645,645,641,642,643,644,645,645,645,645,645,645,645,645,225,226,227,228,645,645,645,645,677,678,679,645,645,645,757,758,759,760,645,645,645,645,645,645,645,645,645,645,645,645,645,645,645,645,645,629,630,631,645,645,645,645,645,645,645,645,645,645,645,645,645,645,645,437,438,439,440,645,645,645,645,645,645,645,645,645,645,645,645,645,629,630,631,645,645,645,645,745,746,747,748,645,645,161,162,163,164,645,645,645,645,645,645,725,726,727,728,645,645,645,645,645,645,645,645,645,645,645,645,645,645,645,645,645,645,645,645,645,645,645,645,645,645,645,645,645,533,534,535,97,98,99,100,645,645,645,645,645,645,645,645,645,645,645,645,645,645,645,645,645,645,645,645,645,689,690,691,692,645,645,645,645,645,645,645,645,645,645,645,645,645,645,645,645,641,642,643,644,645,645,645,
645,645,645,645,645,645,645,645,645,645,745,746,747,748,645,645,645,645,645,645,645,645,645,645,645,645,645,645,645,645,645,645,645,673,674,675,676,645,645,645,750,751,645,645,645,750,751,645,645,645,645,645,645,225,226,227,228,645,645,645,645,645,645,673,674,675,676,645,645,645,645,645,645,645,645,257,258,259,260,645,645,645,645,709,710,711,645,645,645,645,645,645,645,645,645,645,645,645,645,645,645,645,645,645,645,645,645,645,645,645,645,645,645,645,645,645,645,645,645,645,645,645,645,645,645,645,645,645,469,470,471,472,645,645,645,645,645,645,645,645,645,645,645,645,645,645,645,645,645,645,645,645,645,645,645,645,645,645,193,194,195,196,645,645,645,645,645,645,757,758,759,760,645,645,645,645,533,534,535,645,645,645,645,645,645,645,645,645,645,645,645,645,645,645,645,645,645,645,645,645,645,565,566,567,129,130,131,132,645,645,645,645,645,645,645,645,645,645,645,645,645,645,645,645,645,645,645,645,645,721,722,723,724,645,645,645,645,645,645,645,645,645,645,645,645,645,645,645,645,673,674,675,676,645,645,645,
645,645,645,645,645,645,645,645,645,645,645,645,645,645,645,645,645,645,645,653,654,655,656,645,645,645,645,645,645,645,645,645,645,705,706,707,708,645,645,645,750,751,751,645,645,645,645,645,645,645,649,650,651,257,258,259,260,645,645,645,645,645,645,705,706,707,708,645,645,645,645,645,645,645,645,289,290,291,292,645,645,645,645,645,645,645,645,645,645,645,645,645,645,645,645,645,645,529,530,531,532,645,645,645,645,645,645,645,645,645,645,645,645,645,645,405,406,407,408,532,645,645,645,645,645,645,645,645,501,502,503,504,645,645,645,645,645,645,645,645,645,645,645,645,645,645,645,645,645,533,534,535,645,645,645,645,645,645,225,226,227,228,645,645,645,645,645,645,645,645,645,645,645,645,645,645,565,566,567,645,645,645,645,645,645,645,645,645,645,645,645,645,645,645,645,645,645,645,645,645,645,597,598,599,161,162,163,164,645,645,645,645,645,645,645,645,645,645,645,645,645,677,678,679,645,645,645,645,645,645,645,645,645,645,645,645,645,645,645,645,645,645,645,645,645,645,645,645,645,705,706,707,708,645,645,645,
645,645,645,645,645,645,645,645,645,645,645,645,645,645,645,645,645,645,645,685,686,687,688,645,645,645,645,645,645,645,645,645,645,645,645,645,645,645,645,645,645,750,751,645,645,645,645,645,645,645,681,682,683,289,290,291,292,645,645,645,645,645,645,645,645,645,645,645,645,645,645,645,645,645,645,65,66,67,68,645,645,645,645,645,645,645,645,645,645,645,645,645,645,645,645,645,645,561,562,563,564,645,645,645,645,645,645,645,533,534,535,645,645,645,645,437,438,439,440,564,645,645,645,645,645,645,645,645,645,645,645,645,645,645,645,645,645,645,645,645,645,645,641,642,643,644,645,645,645,565,566,567,645,645,645,645,645,645,65,66,67,68,657,658,659,645,645,645,645,645,645,645,645,645,645,645,597,598,599,645,645,645,645,645,645,645,645,645,645,645,645,645,645,645,645,645,645,645,645,645,645,629,630,631,193,194,195,196,645,645,645,645,641,642,643,644,645,645,645,645,645,709,710,711,645,645,645,645,645,645,645,645,645,645,645,645,645,645,645,645,645,645,645,645,645,645,645,645,645,645,645,645,645,645,645,645,
645,645,645,645,645,645,645,645,645,645,645,645,645,645,645,645,645,645,645,717,718,719,720,645,645,645,645,645,645,750,751,645,645,645,645,645,645,645,645,645,645,750,751,751,645,645,645,645,645,645,713,714,715,97,98,99,100,645,645,645,645,645,645,645,645,645,645,645,645,645,645,645,645,645,645,97,98,99,100,645,645,645,645,645,645,645,645,645,645,645,645,645,645,645,645,645,645,593,594,595,596,645,645,645,645,645,645,645,565,566,567,645,645,645,645,469,470,471,472,596,645,645,645,645,645,645,645,645,645,645,645,677,678,679,645,645,645,645,645,645,645,645,673,674,675,676,645,645,645,597,598,599,645,645,645,645,645,645,97,98,99,100,689,690,691,692,645,645,645,645,645,645,645,645,645,645,629,630,631,645,645,645,645,677,678,679,645,645,645,645,645,405,406,407,408,645,645,645,645,645,645,645,645,645,225,226,227,228,645,645,645,645,673,674,675,676,645,645,645,645,645,645,645,645,645,645,645,645,645,645,645,645,645,645,645,645,645,645,645,645,645,645,645,645,645,645,645,645,645,645,645,645,645,645,645,645,
645,645,645,645,645,645,645,645,645,645,645,645,645,645,645,645,645,645,645,749,750,751,752,645,645,645,645,645,645,645,645,645,645,645,645,645,645,645,645,645,645,645,645,645,645,645,645,645,645,645,745,746,747,129,130,131,132,645,645,645,645,513,514,515,516,517,518,519,520,521,522,523,524,645,645,129,130,131,132,645,645,645,645,645,533,534,535,645,645,645,645,645,645,645,645,645,645,625,626,627,628,645,645,645,677,678,679,645,597,598,599,645,645,645,645,501,502,503,504,628,645,645,645,645,645,645,645,645,645,645,645,709,710,711,645,645,645,645,645,645,645,645,705,706,707,708,645,645,645,629,630,631,645,645,645,645,645,645,129,130,131,132,721,722,723,724,645,645,645,645,645,645,645,645,645,645,645,645,645,645,645,645,645,709,710,711,645,645,645,645,645,437,438,439,440,645,645,645,645,645,645,645,645,645,65,66,67,68,645,645,645,645,705,706,707,708,645,645,645,645,645,645,645,645,645,645,645,645,645,645,645,645,645,645,645,649,650,651,652,645,645,645,645,645,645,645,645,645,645,645,645,645,645,645,645,645,
645,645,645,645,645,645,645,645,645,645,645,645,645,645,645,645,645,645,645,645,645,645,645,645,645,645,645,645,645,645,645,645,645,645,645,645,750,751,645,645,645,645,645,645,645,645,645,645,645,645,645,645,645,161,162,163,164,645,645,645,645,545,546,547,548,549,550,551,552,553,554,555,556,645,645,161,162,163,164,645,645,645,645,645,565,566,567,645,645,641,642,643,644,645,645,645,645,645,645,645,645,645,645,645,709,710,711,645,629,630,631,645,645,645,645,645,645,645,645,645,645,645,661,662,663,664,645,645,645,645,645,645,645,645,645,645,645,645,645,645,645,645,645,645,645,645,645,645,645,645,645,645,645,645,645,677,678,679,161,162,163,164,645,645,645,645,645,529,530,531,532,645,645,645,645,533,534,535,645,645,645,645,645,645,645,645,645,645,645,645,645,469,470,471,472,645,645,645,645,645,645,645,645,645,97,98,99,100,645,645,533,534,535,645,645,645,645,645,645,645,645,645,645,645,645,645,645,645,645,645,645,645,645,645,645,681,682,683,684,645,645,645,645,645,645,645,645,645,645,645,645,645,645,645,645,645,
645,645,645,645,645,645,645,645,645,645,645,645,645,645,645,645,645,645,645,645,645,645,645,645,645,645,645,645,645,645,645,645,645,645,645,645,645,645,645,645,645,645,645,645,645,645,645,750,751,645,645,645,645,193,194,195,196,645,645,645,645,577,578,579,580,581,582,583,584,585,586,587,588,645,645,193,194,195,196,645,645,645,645,645,597,598,599,645,645,673,674,675,676,645,645,645,645,645,645,645,645,645,645,645,645,645,645,645,645,645,645,645,645,645,645,1,2,3,4,645,645,645,693,694,695,696,645,645,645,645,645,645,645,645,645,645,645,645,645,645,645,645,645,645,645,645,645,645,645,645,645,645,645,645,645,709,710,711,193,194,195,196,645,645,645,645,645,561,562,563,564,645,645,645,645,565,566,567,645,645,645,645,645,645,645,645,645,645,645,645,645,501,502,503,504,645,645,645,645,645,645,649,650,651,129,130,131,132,645,645,565,566,567,645,645,645,645,645,645,645,645,645,645,645,645,645,645,533,534,535,645,645,645,645,645,713,714,715,716,645,645,645,645,645,645,645,645,645,645,645,645,645,645,645,645,645,
645,645,645,645,645,645,645,645,645,750,751,645,645,645,645,645,645,645,645,645,645,645,645,645,645,645,645,645,645,645,645,645,645,645,645,645,645,645,645,645,645,645,645,645,645,645,645,645,645,645,645,645,645,225,226,227,228,529,530,531,532,609,610,611,612,613,614,615,616,617,618,619,620,645,645,225,226,227,228,645,645,645,645,645,629,630,631,645,645,705,706,707,708,645,645,645,645,645,645,645,645,645,645,645,645,645,645,645,645,645,645,645,645,645,645,97,98,99,100,645,645,645,725,726,727,728,645,645,645,645,645,649,650,651,652,645,645,645,645,645,645,645,645,645,645,645,645,645,645,645,645,645,645,645,645,645,645,645,225,226,227,228,645,645,645,645,645,593,594,595,596,645,645,645,645,597,598,599,645,645,645,645,645,645,645,645,645,645,645,645,645,645,645,645,645,645,645,645,645,645,645,681,682,683,161,162,163,164,645,645,597,598,599,645,645,645,645,645,645,645,645,645,645,645,645,645,645,565,566,567,645,645,645,645,645,745,746,747,748,645,645,645,645,657,658,659,645,645,645,645,645,645,645,645,645,645,
645,645,645,645,645,645,645,645,645,645,645,645,645,645,645,645,645,645,645,645,645,645,645,645,645,645,645,645,645,645,645,645,645,645,645,645,645,645,649,650,651,652,645,645,645,645,645,645,645,645,645,645,645,129,258,259,260,561,562,563,564,645,645,645,645,677,678,679,645,645,645,645,645,645,645,257,258,259,132,645,645,645,645,645,645,645,645,645,645,645,645,645,645,645,645,645,645,645,645,645,645,645,645,645,645,645,645,645,645,645,657,658,659,645,645,129,130,131,132,645,645,645,757,758,759,760,645,645,645,645,645,681,682,683,684,645,645,645,645,645,645,645,645,661,662,663,664,645,645,645,645,645,645,645,645,645,645,645,65,66,67,68,645,645,645,645,645,625,626,627,628,645,645,645,645,629,630,631,645,645,645,645,645,645,645,645,645,645,645,645,645,641,642,643,644,645,645,645,645,645,645,713,714,715,193,194,195,196,645,645,629,630,631,645,645,645,645,645,645,645,645,645,645,645,645,645,645,597,598,599,645,645,645,645,645,645,645,645,645,645,645,645,645,689,690,691,692,645,645,645,645,645,645,645,645,645,
645,645,641,642,643,644,645,645,645,645,645,645,529,530,531,532,645,645,645,645,645,645,645,645,645,645,641,642,643,644,645,645,645,750,751,645,645,645,681,682,683,684,645,645,645,645,750,751,645,645,645,645,645,129,290,291,292,593,594,595,596,645,645,645,645,709,710,711,645,645,645,645,645,645,645,289,290,291,132,658,659,645,645,645,645,645,645,645,645,645,645,645,645,645,645,645,645,645,645,645,645,645,645,645,645,645,645,645,645,645,689,690,691,692,645,161,162,163,164,645,645,645,645,645,645,645,645,645,645,645,645,713,714,715,716,645,645,645,645,645,645,645,645,693,694,695,696,645,645,645,645,645,645,645,645,645,645,645,97,98,99,100,645,645,645,645,645,645,645,645,645,645,645,645,645,645,645,645,645,645,645,645,645,645,645,645,645,645,645,645,645,673,674,675,676,645,645,645,645,645,645,745,746,747,225,226,227,228,645,645,645,645,645,645,645,645,645,645,645,645,645,645,645,645,645,645,645,629,630,631,645,645,645,645,645,645,645,645,645,645,645,645,645,721,722,723,724,645,645,645,645,645,645,645,645,645,
645,645,673,674,675,676,645,645,645,645,645,645,561,562,563,564,645,645,645,645,645,645,645,645,645,645,673,674,675,676,645,645,645,645,645,645,645,645,713,714,715,716,645,645,645,645,645,645,645,645,645,645,645,129,18,19,20,392,393,394,395,396,397,392,393,394,395,396,397,391,392,393,394,395,396,17,18,19,132,690,691,692,645,645,645,645,645,645,645,645,645,645,645,645,645,645,645,645,645,645,645,645,645,645,645,645,645,645,645,645,721,722,723,724,645,193,194,195,196,645,645,645,645,645,645,645,645,645,645,645,645,745,746,747,748,645,645,645,645,645,645,645,645,725,726,727,728,645,645,645,645,645,645,645,645,645,645,645,129,130,131,132,645,645,645,645,645,645,645,645,645,645,645,645,645,645,645,645,645,645,645,645,645,533,534,535,645,645,645,645,645,705,706,707,708,645,645,645,645,645,645,645,645,645,225,226,227,228,645,645,645,645,645,645,645,645,645,645,645,645,645,645,645,645,645,645,645,645,645,645,645,645,645,645,645,645,645,645,645,645,645,645,645,645,645,645,645,645,645,645,645,645,645,645,645,645,
645,645,705,706,707,708,645,645,645,645,645,645,593,594,595,596,645,645,645,645,645,645,645,750,751,645,705,706,707,708,645,645,645,645,645,645,645,645,745,746,747,748,645,645,645,645,645,645,645,645,645,645,645,129,50,51,52,424,425,426,427,428,429,424,425,426,427,428,429,423,424,425,426,427,428,49,50,51,132,722,723,724,645,645,645,529,530,531,532,645,645,645,645,645,645,645,645,645,645,645,645,645,645,645,645,645,645,645,645,645,645,645,645,645,645,225,226,227,228,645,645,645,645,645,645,645,645,645,645,645,645,645,645,645,645,645,657,658,659,645,645,645,645,757,758,759,760,645,645,645,645,645,645,645,645,645,645,645,161,162,163,164,645,645,645,645,645,657,658,659,645,645,645,645,645,645,645,645,645,645,645,645,645,565,566,567,645,645,645,645,645,645,645,645,645,645,645,645,645,645,645,645,645,645,65,66,67,68,645,645,645,645,645,645,645,645,645,653,654,655,656,645,645,645,645,645,645,645,645,645,645,645,645,645,645,645,645,645,645,645,645,645,645,645,645,645,645,645,645,645,645,645,645,645,645,645,
645,645,645,645,645,645,645,645,645,645,645,645,625,626,627,628,645,645,645,405,406,407,408,645,645,645,645,645,645,645,645,645,645,645,645,645,645,645,645,645,645,645,645,645,645,645,645,645,645,645,645,645,645,161,82,83,84,456,457,458,459,460,461,456,457,458,459,460,461,455,456,457,458,459,460,81,82,83,164,645,645,645,645,645,645,561,562,563,564,645,645,645,645,645,645,645,645,645,645,645,645,645,645,645,645,645,645,645,645,645,645,645,645,645,645,257,258,259,260,645,645,645,657,658,659,645,677,678,679,645,645,645,645,645,645,645,689,690,691,692,645,645,645,645,645,645,645,645,645,677,678,679,645,645,645,645,645,645,193,194,195,196,645,645,645,645,645,689,690,691,692,645,645,645,645,645,645,645,645,645,645,645,645,597,598,599,645,645,645,645,645,645,645,645,645,645,645,645,645,645,645,645,645,645,97,98,99,100,645,645,645,645,645,645,645,645,645,685,686,687,688,645,645,645,645,645,645,645,65,66,67,68,645,645,645,645,645,645,645,645,645,645,645,645,645,645,645,645,645,645,645,645,645,645,645,645,
645,645,645,645,645,645,645,645,645,645,645,645,645,645,645,645,645,645,645,437,438,439,440,645,645,645,645,645,645,645,645,645,645,750,751,645,645,645,645,645,645,645,645,645,645,645,645,645,645,645,645,645,645,485,489,490,490,490,490,490,491,492,493,488,489,490,491,492,493,487,488,489,490,491,492,488,488,489,496,645,645,645,645,645,645,593,594,595,596,645,645,645,645,645,645,645,645,645,645,645,645,645,645,645,645,645,645,645,645,645,645,645,645,645,645,97,98,99,100,645,645,645,689,690,691,692,709,710,711,645,645,645,645,645,645,645,721,722,723,724,645,645,645,645,645,645,645,645,645,709,710,711,645,645,645,645,645,645,65,66,67,68,645,645,645,645,645,721,722,723,724,645,645,645,645,645,645,645,645,645,645,645,645,629,630,631,643,644,645,645,645,645,645,645,645,645,645,645,645,645,645,645,645,645,129,130,131,132,645,645,645,645,645,645,645,645,645,717,718,719,720,645,645,645,645,645,645,645,97,98,99,100,645,645,645,645,645,645,645,645,645,645,645,645,645,645,645,641,642,643,644,645,645,645,645,645,
645,645,645,645,645,645,645,645,645,645,645,645,645,645,645,645,645,645,645,469,470,471,472,645,645,645,645,645,645,645,645,645,645,645,645,645,645,657,658,659,645,645,645,645,645,645,645,645,645,645,645,645,641,642,643,644,645,645,645,657,658,659,645,645,645,645,645,645,645,649,650,651,652,645,645,645,645,645,533,534,535,645,645,645,645,625,626,627,628,645,645,645,645,645,645,645,645,645,645,645,645,645,645,645,645,645,645,645,645,645,645,645,645,645,645,129,130,131,132,645,645,645,721,722,723,724,645,645,645,645,645,533,534,535,645,645,645,645,645,645,645,645,645,645,645,645,645,645,645,645,645,645,645,645,645,645,645,645,97,98,99,100,645,645,645,645,645,645,645,645,645,645,645,645,645,645,645,645,645,645,645,645,645,645,673,674,675,676,645,645,645,645,645,645,645,645,645,645,645,645,645,645,645,645,161,162,163,164,645,645,645,645,645,645,645,645,645,749,750,751,533,534,535,645,645,645,645,645,129,130,131,132,677,678,679,645,645,645,645,645,645,645,645,645,645,645,645,673,674,675,676,645,645,645,645,645,
645,645,645,645,645,645,645,645,645,645,645,645,645,645,645,645,645,645,645,501,502,503,504,645,645,645,645,645,645,645,645,645,645,645,645,645,645,689,690,691,692,645,645,645,645,645,750,751,645,645,645,645,673,674,675,676,645,645,645,689,690,691,692,645,645,645,645,645,645,681,682,683,684,645,645,645,645,645,565,566,567,645,645,645,645,625,626,627,628,645,645,645,645,645,677,678,679,645,645,645,645,645,645,645,677,678,679,645,645,645,645,653,654,655,656,161,162,163,164,645,645,645,645,645,645,645,645,645,645,645,645,565,566,567,645,645,645,645,645,645,645,645,645,645,645,645,645,645,645,645,645,645,645,645,645,645,645,645,129,130,131,132,645,645,645,645,645,645,645,645,645,645,645,645,645,645,645,645,645,645,645,645,645,645,705,706,707,708,645,645,645,645,645,533,534,535,645,645,645,645,677,678,679,645,193,194,195,196,645,645,645,645,645,645,645,645,645,645,645,645,565,566,567,645,645,645,645,645,161,162,163,164,709,710,711,645,645,645,645,645,645,645,645,645,645,645,645,705,706,707,708,645,645,645,645,645,
645,645,645,645,645,645,645,645,645,645,645,645,645,645,645,645,645,645,645,645,645,645,645,645,645,645,645,645,645,645,645,645,645,645,645,645,645,721,722,723,724,645,645,645,645,645,645,645,645,645,645,645,705,706,707,708,645,645,645,721,722,723,724,645,645,645,645,645,645,713,714,715,716,645,645,645,645,645,597,598,599,645,645,645,645,645,645,645,645,645,645,645,645,645,709,710,711,645,645,645,645,645,645,645,709,710,711,645,645,645,645,685,686,687,688,193,194,195,196,645,645,645,645,645,645,645,645,645,645,645,645,597,598,599,645,645,645,645,645,645,645,645,645,645,645,645,533,534,535,645,645,645,645,645,645,645,645,645,161,162,163,164,645,645,645,645,677,678,679,645,645,645,645,645,645,653,654,655,656,645,645,645,645,645,645,645,645,645,645,645,645,645,645,565,566,567,645,645,645,645,709,710,711,645,225,226,227,228,645,641,642,643,644,645,645,645,645,645,645,645,597,598,599,645,645,645,645,645,193,194,195,196,645,645,645,645,645,645,645,645,645,645,645,645,645,645,645,645,645,645,645,645,645,645,645,645,
645,645,645,645,645,645,645,645,645,645,645,645,645,645,645,645,645,645,645,645,645,645,645,645,645,645,645,645,645,750,751,645,645,645,645,645,645,645,645,645,645,645,645,645,645,645,645,645,645,645,645,645,645,645,645,645,645,645,645,645,645,645,645,645,645,645,645,645,645,745,746,747,748,645,645,645,645,645,629,630,631,645,645,645,645,645,645,645,645,645,645,645,645,645,645,645,645,645,645,645,645,645,645,645,645,645,645,645,645,645,645,717,718,719,720,225,226,227,228,645,645,645,645,645,645,645,645,645,645,645,645,629,630,631,645,645,645,645,645,645,645,645,645,645,645,645,565,566,567,645,645,645,645,645,645,645,645,645,193,194,195,196,645,645,645,645,709,710,711,645,645,645,645,645,645,685,686,687,688,645,645,645,645,645,645,645,645,645,645,645,645,645,645,597,598,599,645,645,645,645,645,645,645,645,65,66,67,68,645,673,674,675,676,645,645,645,645,645,645,645,629,630,631,645,645,645,645,645,225,226,227,228,645,645,645,645,645,645,645,645,645,645,645,645,645,645,645,645,645,645,645,645,645,645,645,645,
645,645,645,645,645,645,645,645,645,645,645,645,645,645,645,645,645,645,645,645,645,645,645,645,645,645,645,645,645,645,645,645,645,645,645,645,645,645,645,645,645,645,645,645,645,645,645,645,645,645,645,645,645,645,645,645,645,645,645,645,645,645,645,645,645,645,645,645,645,645,645,645,645,645,645,645,645,645,645,645,645,677,678,679,645,645,645,645,645,645,645,645,645,645,645,645,645,645,645,645,645,645,645,645,645,645,645,645,645,645,645,749,750,751,752,257,258,259,260,645,677,678,679,645,645,645,645,645,645,645,645,645,645,645,645,645,645,645,645,677,678,679,645,645,645,645,597,598,599,645,645,645,645,645,645,533,534,535,225,226,227,228,645,645,645,645,645,645,645,645,645,645,645,645,645,717,718,719,720,645,645,645,645,645,645,645,645,645,645,645,645,645,645,629,630,631,645,645,645,645,645,645,645,645,97,98,99,100,645,705,706,707,708,645,645,645,645,645,645,645,645,645,645,645,645,645,645,645,65,66,67,68,645,645,645,645,645,533,534,535,645,645,645,645,645,645,645,645,645,645,645,645,645,645,645,645,
645,645,645,645,645,645,645,645,645,641,642,643,644,645,645,645,645,645,645,645,645,645,645,645,645,645,645,645,645,645,645,645,645,645,645,645,645,645,645,645,645,645,645,645,645,645,645,645,645,645,645,645,645,645,645,645,645,645,645,645,645,645,645,645,645,645,645,645,645,645,529,530,531,532,645,645,645,645,645,645,645,709,710,711,645,645,645,645,645,533,534,535,645,645,645,645,645,645,645,645,645,645,645,645,645,645,645,645,645,645,645,645,645,645,645,97,98,99,100,645,709,710,711,645,645,645,645,645,645,645,645,645,645,645,645,645,645,645,645,709,710,711,645,645,645,645,629,630,631,645,645,645,645,645,645,565,566,567,65,66,67,68,645,645,645,645,645,645,645,645,645,645,645,645,645,749,750,751,752,645,645,645,645,645,645,645,645,645,645,645,645,645,645,645,645,645,645,645,645,645,645,645,645,645,129,130,131,132,645,645,645,645,645,645,645,645,645,645,645,645,645,645,645,645,645,645,645,645,97,98,99,100,645,645,645,645,645,565,566,567,645,645,645,645,645,645,645,645,645,645,645,645,645,645,645,645,
645,645,645,645,645,645,645,645,645,673,674,675,676,645,645,645,645,645,645,645,645,645,653,654,655,656,645,645,645,645,645,645,645,645,645,645,645,645,645,645,645,645,645,645,645,645,645,645,645,645,645,645,645,645,645,645,645,645,645,645,645,645,645,645,645,645,645,645,645,645,561,562,563,564,645,645,645,645,645,645,645,645,645,645,645,645,645,645,645,565,566,567,645,645,645,645,645,645,645,645,645,645,645,645,645,645,645,645,645,645,645,645,645,645,645,129,130,131,132,645,645,645,645,645,645,645,645,645,645,645,645,645,645,645,645,645,645,645,645,645,645,645,645,645,645,645,645,645,645,645,645,645,645,645,645,597,598,599,97,98,99,100,645,645,645,645,645,645,645,645,645,645,533,534,535,645,645,645,645,645,645,645,645,645,645,645,645,645,645,645,645,645,645,645,645,645,645,645,645,645,645,645,645,645,161,162,163,164,645,645,645,645,645,645,645,645,645,645,645,645,645,645,645,645,645,645,645,645,129,130,131,132,645,645,645,645,645,597,598,599,645,645,645,645,645,645,645,645,533,534,535,645,645,645,645,645,
645,645,645,645,645,645,645,645,645,705,706,707,708,645,645,645,645,645,645,645,645,645,685,686,687,688,645,645,645,645,645,645,645,645,645,645,645,645,645,645,641,642,643,644,645,645,645,645,645,645,645,645,645,645,645,645,645,645,645,645,645,645,645,645,645,645,645,645,645,645,593,594,595,596,645,645,645,645,645,645,645,645,645,645,645,645,645,645,645,597,598,599,645,645,645,645,645,645,645,645,645,645,645,645,645,645,645,645,645,645,645,645,645,645,645,161,162,163,164,645,645,645,645,645,645,645,645,649,650,651,652,645,645,645,645,645,645,645,645,645,645,645,645,645,645,645,645,645,645,645,645,645,645,645,645,629,630,631,129,130,131,132,650,651,652,645,645,645,645,645,645,645,565,566,567,645,645,645,645,645,645,645,645,645,645,645,645,645,645,645,645,645,677,678,679,645,645,645,645,645,645,645,645,645,193,194,195,196,645,645,645,645,645,645,645,645,645,645,645,645,645,645,645,645,657,658,659,645,161,162,163,164,645,645,645,645,645,629,630,631,645,645,645,645,645,645,645,645,565,566,567,645,645,645,645,645,
645,645,645,645,645,645,645,645,645,645,645,645,645,645,645,645,645,645,645,645,645,645,717,718,719,720,645,645,645,645,645,645,645,645,645,645,645,645,645,645,673,674,675,676,645,645,645,645,645,645,645,645,529,530,531,532,645,645,645,645,645,645,645,645,645,645,645,645,645,645,625,626,627,628,645,645,645,645,645,645,645,645,645,645,645,645,645,645,645,629,630,631,645,645,645,645,645,645,645,645,661,662,663,664,645,645,645,645,645,645,645,645,645,661,662,193,194,195,196,645,645,645,645,645,645,645,645,681,682,683,684,645,645,645,645,645,645,645,645,645,645,645,645,645,645,645,645,645,645,645,645,645,645,645,645,645,645,645,161,162,163,164,682,683,684,645,645,645,645,645,645,645,597,598,599,645,645,645,645,645,533,534,535,645,645,645,645,645,645,645,645,645,709,710,711,645,533,534,535,645,645,645,645,645,225,226,227,228,645,645,645,645,645,645,645,645,645,645,645,645,645,645,645,645,689,690,691,692,193,194,195,196,645,645,645,645,645,645,645,645,645,645,645,645,645,645,645,645,597,598,599,645,645,645,645,645,
645,645,645,645,645,645,645,645,645,645,645,645,645,645,645,645,645,645,645,645,645,645,749,750,751,752,645,645,645,645,645,529,530,531,532,645,645,645,645,645,705,706,707,708,645,645,645,645,645,645,645,645,561,562,563,564,645,645,645,645,645,649,650,651,652,645,645,645,645,645,645,645,645,645,645,645,645,645,645,645,645,645,645,645,645,645,645,645,645,645,645,645,657,658,659,645,645,645,645,645,693,694,695,696,645,645,645,645,645,645,645,645,645,693,694,225,226,227,228,645,645,645,645,645,645,645,645,713,714,715,716,645,657,658,659,645,645,645,645,645,529,530,531,532,645,645,645,645,645,645,677,678,679,645,645,645,645,645,193,194,195,196,714,715,716,645,645,645,645,645,645,645,629,630,631,645,645,645,645,645,565,566,567,645,645,645,645,645,645,645,645,645,645,645,645,645,565,566,567,645,645,645,645,645,65,66,67,68,535,645,645,645,645,645,645,645,649,650,651,652,645,645,645,645,721,722,723,724,225,226,227,228,645,645,645,645,645,645,645,645,645,645,645,645,645,645,645,645,629,630,631,645,645,645,645,645,
645,645,645,645,645,645,645,645,645,645,645,645,645,645,645,645,645,645,645,645,645,645,645,645,645,645,645,645,645,645,645,561,562,563,564,645,645,645,645,645,645,645,645,645,645,645,645,645,645,645,645,645,593,594,595,596,645,645,645,645,645,681,682,683,684,645,645,645,645,645,645,645,645,645,645,645,645,645,645,645,645,645,645,645,645,645,645,645,645,645,645,645,689,690,691,692,645,645,645,645,725,726,727,728,645,657,658,659,645,645,645,645,645,725,726,257,258,259,260,533,534,535,645,645,645,645,645,745,746,747,748,645,689,690,691,692,645,645,645,645,561,562,563,564,645,645,645,645,645,645,709,710,711,645,645,645,645,645,225,226,227,228,746,747,748,645,645,645,645,645,645,645,645,645,645,645,645,645,645,645,597,598,599,645,645,645,645,645,645,645,645,645,645,645,645,645,597,598,599,645,645,645,645,645,97,98,99,100,567,645,645,645,645,645,645,645,681,682,683,684,645,645,645,645,645,645,645,645,65,66,67,68,645,645,645,645,645,645,645,645,645,641,642,643,644,645,645,645,645,645,645,645,645,645,645,645,
645,645,645,645,645,645,645,645,645,645,645,645,645,645,645,645,645,645,645,645,645,645,645,645,645,645,645,645,645,645,645,593,594,595,596,645,645,645,645,645,645,645,645,645,645,645,645,645,645,645,645,645,625,626,627,628,645,645,645,645,645,713,714,715,716,645,645,645,645,645,645,645,645,645,645,645,661,662,663,664,645,645,645,645,645,645,657,658,659,645,645,645,721,722,723,724,645,645,645,645,757,758,759,760,645,689,690,691,692,645,645,645,645,757,758,97,98,99,100,565,566,567,645,645,645,645,645,645,645,645,645,645,721,722,723,724,645,645,645,645,593,594,595,596,645,645,645,645,645,645,645,645,645,645,645,645,645,645,65,66,67,68,645,645,645,645,645,645,645,645,645,645,645,645,645,645,645,645,645,645,629,630,631,645,645,677,678,679,645,645,645,645,645,645,645,645,629,630,631,645,645,645,645,645,129,130,131,132,599,645,645,645,645,645,645,645,713,714,715,716,645,645,645,645,645,645,645,645,97,98,99,100,645,645,645,645,645,645,645,645,645,673,674,675,676,645,645,645,645,645,645,645,645,645,645,645,
645,645,645,645,645,645,645,529,530,531,532,645,645,645,645,645,645,645,645,645,645,645,645,645,645,645,645,645,645,645,645,625,626,627,628,645,645,645,645,645,645,645,645,645,645,645,645,645,645,645,645,645,645,645,645,645,645,645,645,645,645,745,746,747,748,645,645,645,645,645,645,645,645,645,645,645,693,694,695,696,645,645,645,645,645,645,689,690,691,692,645,645,645,645,645,645,645,645,645,645,645,645,645,645,645,721,722,723,724,645,645,645,645,645,645,129,130,131,132,597,598,599,645,645,645,645,645,645,645,645,645,645,645,645,645,645,645,645,645,645,625,626,627,628,645,645,645,645,645,645,645,645,645,645,645,645,645,645,97,98,99,100,645,645,645,645,645,645,645,645,645,645,645,677,678,679,645,645,645,645,645,645,645,645,645,709,710,711,645,645,645,645,645,645,645,645,645,645,645,645,645,645,645,645,161,162,163,164,631,645,645,645,645,645,645,645,745,746,747,748,645,645,645,645,645,645,645,645,129,130,131,132,645,645,645,645,645,645,645,645,645,705,706,707,708,645,645,645,645,645,645,645,645,645,645,645,
645,645,645,645,645,645,645,561,562,563,564,645,645,645,645,645,645,645,645,645,645,645,645,645,645,645,645,645,645,645,645,645,645,645,645,645,645,645,645,645,645,645,645,645,645,645,645,645,645,645,645,645,645,645,645,645,645,645,645,645,645,645,645,645,645,645,645,645,645,645,645,645,645,645,645,645,725,726,727,728,645,645,645,645,645,645,721,722,723,724,645,645,645,645,645,645,645,653,654,655,656,645,645,645,645,645,645,645,645,645,645,645,645,645,645,161,162,163,164,629,630,631,645,645,645,645,645,645,645,645,645,645,645,645,645,645,645,645,645,645,645,645,645,645,645,645,645,645,645,645,645,645,645,645,645,645,645,645,129,130,131,132,533,534,535,645,645,645,645,645,645,645,645,709,710,711,645,645,645,645,645,645,645,645,645,645,645,645,645,645,645,645,645,645,645,645,645,645,645,645,645,645,645,645,193,194,195,196,645,645,645,645,645,645,645,645,645,645,645,645,645,645,645,645,645,645,645,645,161,162,163,164,645,677,678,679,645,645,645,645,645,645,645,645,645,645,645,645,645,645,645,645,645,645,645,645,
645,645,645,645,645,645,645,593,594,595,596,645,645,645,645,645,645,645,645,645,645,645,645,645,645,645,645,645,645,645,645,645,645,645,645,645,645,645,645,645,645,645,645,645,645,645,645,645,645,645,645,645,645,645,645,645,645,645,645,645,645,645,645,645,645,645,645,645,645,645,645,645,645,645,645,645,757,758,759,760,645,645,645,645,645,645,645,645,645,645,645,645,645,645,645,645,645,685,686,687,688,645,645,645,645,645,645,645,645,645,529,530,531,532,645,193,194,195,196,645,645,645,645,645,645,645,645,645,645,645,645,645,645,645,645,645,645,645,645,645,645,645,645,645,533,534,535,645,645,645,645,645,645,645,645,645,645,645,161,162,163,164,565,566,567,645,405,406,407,408,645,645,645,645,645,645,645,645,645,645,645,645,645,645,645,645,645,645,645,645,645,645,645,645,645,645,645,645,661,662,663,664,645,645,225,226,227,228,645,645,645,645,645,645,645,645,645,645,661,662,663,664,645,645,645,645,645,645,193,194,195,196,645,709,710,711,645,645,645,645,645,645,645,645,645,645,645,645,645,645,645,645,645,645,645,645,
645,645,645,645,645,645,645,625,626,627,628,645,645,645,645,645,645,645,645,645,645,645,645,645,645,645,645,645,645,645,645,645,645,645,645,645,645,645,645,645,645,645,529,530,531,532,645,645,645,645,645,645,645,645,645,645,645,645,645,645,645,645,645,645,645,533,534,535,645,645,645,657,658,659,645,645,645,645,645,645,645,645,645,645,645,645,645,645,645,645,645,645,645,645,645,645,645,717,718,719,720,645,645,645,645,645,645,645,645,645,561,562,563,564,645,225,226,227,228,645,645,645,645,645,645,645,645,645,533,534,535,645,645,645,645,645,645,645,645,645,645,645,645,645,565,566,567,645,645,645,645,645,645,645,645,645,645,645,193,194,195,196,597,598,599,645,437,438,439,440,645,645,645,645,645,645,645,645,645,645,645,645,645,645,645,645,645,645,645,645,661,662,663,664,645,645,645,645,693,694,695,696,645,645,65,66,67,68,645,645,645,645,645,645,645,645,645,645,693,694,695,696,645,645,645,645,645,645,225,226,227,228,645,645,645,645,645,645,645,645,645,645,645,645,645,645,645,645,645,645,645,645,645,645,645,645,
645,645,645,645,645,645,645,645,645,645,645,645,645,645,645,645,645,645,657,658,659,645,645,645,645,645,645,645,645,645,645,645,645,645,645,645,645,645,645,645,645,645,561,562,563,564,645,645,645,645,645,645,645,645,645,641,642,643,644,645,645,645,645,645,645,565,566,567,645,645,645,689,690,691,692,645,645,645,645,645,645,645,653,654,655,656,645,645,645,645,645,645,649,650,651,652,645,749,750,751,752,645,645,645,645,645,645,645,645,645,593,594,595,596,645,257,258,259,260,645,645,677,678,679,645,645,645,645,565,566,567,645,645,645,645,645,645,645,645,645,645,645,645,645,597,598,599,645,645,645,645,645,645,645,645,645,645,645,225,226,227,228,629,630,631,645,469,583,471,472,645,645,645,645,645,645,645,645,645,645,645,645,645,645,645,645,645,645,645,645,693,694,695,696,645,645,645,645,725,726,727,728,645,645,97,98,99,100,642,643,644,645,645,645,645,645,645,645,725,726,727,728,645,645,645,645,645,645,65,66,67,68,645,645,645,645,645,645,645,645,645,645,645,645,645,645,645,645,645,645,645,645,645,645,645,645,
645,645,645,645,645,645,645,645,645,645,645,645,645,645,645,645,645,645,689,389,393,394,395,396,397,398,393,394,395,396,397,398,394,395,396,397,398,393,394,395,396,397,398,398,394,395,396,397,398,393,394,395,396,393,393,394,395,396,16,645,645,645,645,645,645,597,598,599,645,645,645,721,722,723,724,645,645,645,645,645,645,645,685,686,687,688,645,645,645,645,645,645,681,682,683,684,645,645,645,645,645,645,645,645,645,645,645,645,645,645,625,626,627,628,645,97,98,99,100,645,645,709,710,711,645,645,645,645,597,598,599,645,645,529,530,531,532,645,645,645,645,645,645,645,629,630,631,645,645,645,645,641,642,643,644,645,645,645,65,66,67,68,645,645,645,645,501,502,503,504,645,645,645,645,645,645,645,645,645,645,645,645,645,645,645,645,645,645,645,645,725,726,727,728,645,645,645,645,757,758,759,760,645,645,129,130,131,132,674,675,676,645,645,645,645,645,645,645,757,758,759,760,645,645,645,645,645,645,97,98,99,100,663,664,645,645,645,645,645,645,645,645,645,645,645,645,645,645,645,645,645,645,645,645,645,645,
645,645,645,645,645,645,645,645,645,645,645,645,645,645,645,645,645,645,721,421,425,426,427,428,429,430,425,426,427,428,429,430,426,427,428,429,430,425,426,427,428,429,430,430,426,427,428,429,430,425,426,427,428,429,430,49,50,51,196,645,645,645,645,645,645,629,630,631,645,645,645,645,645,645,645,645,645,645,645,645,645,645,717,718,719,720,645,645,645,645,645,645,713,714,715,716,645,645,645,645,645,645,645,645,645,645,645,645,645,645,645,645,645,645,645,129,130,131,132,645,645,645,645,645,645,645,645,645,629,630,631,645,645,561,562,563,564,645,645,645,645,645,645,645,645,645,645,645,645,645,645,673,674,675,676,645,645,645,97,98,99,100,645,645,645,645,645,645,645,645,645,645,645,645,645,645,645,645,645,645,645,645,645,645,645,645,645,645,645,645,757,758,759,760,645,645,645,645,645,645,645,533,534,535,161,162,163,164,706,707,708,645,645,645,645,645,645,645,645,645,645,645,645,645,645,645,645,645,129,130,131,132,695,696,645,645,645,645,645,645,645,645,645,645,645,645,645,645,645,645,645,645,645,645,645,645,
645,645,645,645,645,645,645,645,645,645,645,645,645,645,645,645,645,645,645,453,457,458,459,460,461,462,457,458,459,460,461,462,458,459,460,461,462,457,458,459,460,461,462,462,458,459,460,461,462,457,458,459,460,461,462,81,82,83,228,645,645,645,645,645,645,645,645,645,645,645,645,645,645,645,645,645,645,645,645,645,645,645,749,750,751,752,645,645,645,645,645,645,745,746,747,748,645,645,645,645,645,645,645,645,645,645,645,645,645,645,645,645,645,645,645,161,162,163,164,645,645,645,645,645,645,645,645,645,645,645,645,645,645,593,594,595,596,645,645,645,645,645,645,645,645,645,645,645,645,645,645,705,706,707,708,645,645,645,129,130,131,132,645,645,645,645,645,645,645,645,645,645,645,645,645,645,645,645,645,645,645,645,645,645,645,645,645,649,650,651,652,645,645,645,645,645,645,645,645,645,645,565,566,567,193,194,195,196,645,645,645,645,645,645,645,645,645,645,645,645,645,645,645,645,645,645,645,645,161,162,163,164,727,728,645,645,645,645,645,645,645,645,645,645,645,645,645,645,645,645,645,645,645,645,645,645,
645,645,645,645,645,645,645,645,645,645,645,645,645,645,645,645,645,645,645,485,489,490,491,492,493,494,489,490,491,492,493,494,490,491,492,493,494,489,490,491,492,493,494,494,490,491,492,493,494,489,490,491,492,493,494,113,114,115,228,645,645,645,645,645,645,645,645,645,641,642,643,644,645,645,645,645,645,645,645,645,645,645,645,645,645,645,645,645,645,645,645,645,645,645,645,645,645,645,645,645,645,645,645,645,645,645,751,751,752,753,754,755,645,645,645,193,194,195,196,645,645,645,645,645,645,645,645,645,645,645,645,645,645,625,626,627,628,645,645,645,645,645,645,645,653,654,655,656,645,645,645,645,645,645,645,645,645,645,161,162,163,164,653,654,655,656,645,645,645,645,645,645,529,530,531,532,645,645,645,645,645,645,645,645,645,645,645,681,682,683,684,645,645,645,645,645,645,645,645,645,645,597,598,599,225,226,227,228,645,645,645,645,645,645,645,645,645,645,645,645,645,645,645,645,645,645,645,645,193,194,195,196,759,760,645,645,645,645,645,645,645,645,645,645,645,645,649,650,651,652,645,645,645,645,645,645,
645,645,645,645,645,645,645,645,645,645,645,645,645,645,645,645,645,645,645,645,645,645,645,645,641,642,643,644,645,645,645,645,645,645,721,722,723,724,645,645,645,645,645,645,645,645,645,645,645,645,645,21,22,23,24,65,66,67,228,645,645,645,645,645,645,645,645,645,673,674,675,676,645,645,645,645,645,645,645,645,645,645,645,645,645,645,645,645,645,645,645,645,645,645,645,645,661,662,663,664,645,645,645,645,645,645,645,751,751,751,752,753,754,755,645,225,226,227,228,645,645,645,645,645,645,645,645,645,645,645,645,645,645,645,645,645,645,645,645,645,645,645,645,645,685,686,687,688,645,645,645,645,645,533,534,535,645,645,193,194,195,196,685,686,687,688,645,645,645,645,645,645,561,562,563,564,645,645,645,645,645,645,645,645,645,645,645,713,714,715,716,645,645,645,645,645,645,645,645,645,645,629,630,631,65,66,67,68,645,645,645,645,645,645,645,645,645,645,645,645,645,645,645,645,645,645,645,645,225,226,227,228,645,645,645,645,645,645,645,645,645,645,645,645,645,645,681,682,683,684,645,645,645,645,645,645,
645,645,645,645,645,645,645,645,645,645,645,645,645,645,645,645,645,645,645,645,645,645,645,645,673,674,675,676,645,645,645,645,645,645,645,645,645,645,645,645,645,645,645,645,641,642,643,644,645,645,645,53,54,55,56,97,98,99,228,645,645,645,645,645,645,645,645,645,705,706,707,708,645,645,645,645,533,534,535,645,645,645,645,645,405,406,407,408,645,645,645,645,645,645,645,645,693,694,695,696,645,645,645,645,645,645,645,645,645,751,751,752,753,754,755,257,258,259,260,645,645,645,645,649,650,651,652,645,645,645,645,645,645,645,645,645,645,645,645,645,645,645,645,645,717,718,719,720,645,645,645,645,645,565,566,567,645,645,225,226,227,228,717,718,719,720,645,645,645,645,645,645,593,594,595,596,645,645,645,645,533,534,535,645,645,645,645,745,746,747,748,645,645,645,645,645,645,645,645,645,645,645,645,645,97,98,99,100,645,645,645,645,645,645,645,645,645,645,645,645,641,642,643,644,645,645,645,645,65,66,67,68,645,645,645,645,645,645,645,645,645,645,645,645,645,645,713,714,715,716,645,645,645,645,645,645,
645,645,645,645,645,645,645,645,645,645,645,645,645,645,645,645,645,645,645,645,645,645,645,645,705,706,707,708,645,645,645,645,645,645,645,645,645,645,645,645,645,645,645,645,673,674,675,676,645,645,645,85,86,87,88,129,130,131,132,645,645,645,645,657,658,659,645,645,645,645,645,645,645,645,645,645,565,566,567,645,645,645,645,645,437,438,439,440,752,753,754,755,755,755,755,755,755,726,727,728,645,645,677,678,679,645,645,645,645,645,645,645,645,645,645,97,98,99,100,645,645,645,645,681,682,683,684,645,645,645,645,645,645,533,534,535,645,645,645,645,645,645,645,645,749,750,751,752,645,645,645,645,645,597,598,599,645,645,65,66,67,68,749,750,751,752,645,645,645,645,645,645,625,626,627,628,645,645,645,645,565,566,567,645,645,645,645,645,645,645,645,645,645,645,645,645,657,658,659,645,645,645,645,645,129,130,131,132,645,645,641,642,643,644,645,645,645,645,645,645,673,674,675,676,645,645,645,645,97,98,99,100,645,645,645,645,645,645,645,645,645,645,645,645,645,645,745,746,747,748,645,645,645,645,645,645,
645,645,645,645,645,645,645,641,645,645,645,645,645,645,645,645,645,645,645,645,645,645,645,645,645,645,645,645,645,645,645,645,645,645,645,645,645,645,645,645,645,645,645,645,705,706,707,708,645,645,645,85,86,87,88,161,162,163,164,645,645,645,645,689,690,691,692,645,645,645,645,645,645,645,645,645,597,598,599,645,645,645,645,645,469,470,471,472,754,755,755,755,645,645,645,645,645,758,759,760,645,645,709,710,711,645,645,645,645,645,645,645,645,645,645,129,130,131,132,645,645,645,645,713,714,715,716,645,645,645,645,645,645,565,566,567,645,645,645,645,645,645,645,645,645,645,645,645,645,645,645,645,645,629,630,631,645,645,97,98,99,100,645,645,645,645,645,645,645,645,645,645,645,645,645,645,645,645,645,645,597,598,599,645,645,645,645,645,645,645,645,645,645,645,645,645,689,690,691,692,645,645,645,645,161,162,163,164,645,645,673,674,675,676,645,645,645,645,645,645,705,706,707,708,645,645,645,645,129,130,131,132,645,645,645,645,645,645,645,645,645,645,645,645,645,645,645,645,645,645,645,645,645,645,645,645,
645,645,645,645,645,645,645,673,674,675,676,645,645,645,645,645,645,645,645,645,645,645,645,645,645,645,645,645,645,645,645,645,645,653,654,655,656,645,645,645,645,645,645,645,645,645,645,645,645,645,645,117,118,119,120,193,194,195,196,645,645,645,645,721,722,723,724,645,645,645,645,645,645,645,645,645,629,630,631,645,645,645,645,645,501,502,503,504,645,645,645,645,645,645,645,645,645,645,645,645,645,645,645,645,645,645,645,533,534,535,645,645,645,751,752,161,162,163,164,645,645,645,645,745,746,747,748,645,645,645,645,645,645,597,598,599,645,645,645,645,645,645,645,645,645,645,645,645,645,645,645,645,645,645,645,645,645,645,129,130,131,132,645,645,645,645,645,645,645,645,645,645,645,645,645,645,645,645,645,645,629,630,631,645,645,645,645,645,645,645,645,645,645,645,645,645,721,722,723,724,645,645,645,645,193,194,195,196,645,645,705,706,707,708,645,645,645,645,645,645,645,645,645,645,645,645,645,645,161,162,163,164,645,657,658,659,645,645,645,645,645,645,645,645,645,645,645,645,645,645,645,645,645,645,645,645,
645,645,645,645,645,645,645,705,706,707,708,645,645,645,645,645,645,645,645,645,645,645,645,645,645,645,645,645,645,645,645,645,645,685,686,687,688,645,645,645,645,645,645,645,645,645,645,645,645,645,645,149,150,151,152,225,226,227,228,645,645,645,645,645,645,645,645,645,645,645,645,529,530,531,532,645,645,645,641,642,643,644,645,645,645,645,645,645,645,645,645,645,645,645,645,645,645,645,645,645,645,751,752,753,754,755,645,565,566,567,645,645,645,751,752,193,194,195,196,751,751,752,753,754,755,645,645,645,645,645,645,645,645,629,630,631,645,645,645,645,645,645,645,645,645,645,645,645,645,645,645,645,645,645,645,645,645,645,161,162,163,164,645,645,645,645,645,645,645,645,645,645,645,645,645,645,645,645,645,645,645,645,645,645,645,645,645,645,645,645,645,645,645,645,645,645,645,645,645,645,645,645,645,653,225,226,227,228,645,645,645,645,645,645,645,645,645,645,645,645,645,645,645,645,645,645,645,645,193,194,195,196,645,689,690,691,692,645,645,645,645,645,645,645,645,645,645,645,645,645,645,645,645,645,645,645,
645,645,645,645,645,645,645,645,645,645,645,645,645,645,645,645,645,645,645,645,645,645,653,654,655,656,645,645,645,645,645,645,645,717,718,719,720,645,645,645,645,645,645,645,645,645,645,645,645,645,645,181,182,183,184,257,258,259,260,645,645,645,645,645,645,645,645,645,645,645,645,561,562,563,564,645,645,645,673,674,675,676,645,645,645,689,690,691,692,645,645,645,529,530,531,532,645,645,645,645,751,752,753,754,755,755,645,597,598,599,645,645,645,645,645,225,226,227,228,645,751,751,751,751,751,752,753,754,755,755,755,645,645,645,645,645,645,645,645,645,645,645,645,645,645,645,645,645,645,645,645,645,645,645,645,645,645,645,193,194,195,196,645,645,645,645,645,645,645,645,645,645,645,645,645,645,645,645,645,645,645,645,645,645,645,645,645,645,645,645,645,645,645,645,645,645,645,645,645,645,645,645,645,685,65,66,67,68,645,645,645,645,645,645,645,645,645,645,645,645,645,645,645,645,649,650,651,645,133,226,227,176,645,721,722,723,724,645,645,645,645,645,645,645,645,645,645,645,645,645,645,645,645,645,645,645,
645,645,645,645,645,645,645,645,645,645,645,645,645,645,645,645,645,645,645,645,645,645,685,686,687,688,645,645,645,645,645,645,645,749,750,751,752,645,645,645,645,645,645,645,645,645,645,645,645,645,645,213,214,215,216,65,66,67,68,645,645,645,645,645,645,645,645,645,645,645,645,593,594,595,596,645,645,645,705,706,707,708,645,645,645,721,722,723,724,645,645,645,561,562,563,564,645,645,751,752,753,754,755,755,755,645,645,629,630,631,645,645,645,645,645,257,258,259,260,645,751,752,753,754,755,751,752,753,754,755,645,645,645,645,645,645,657,658,659,645,645,645,645,645,645,645,645,645,645,645,645,645,645,645,645,645,645,645,225,226,227,164,645,645,645,645,645,645,645,645,645,645,645,645,645,645,645,645,645,645,645,645,645,645,645,645,645,645,645,645,645,645,645,645,645,645,645,645,645,645,645,645,645,717,97,98,99,100,645,645,645,645,645,645,645,645,645,645,645,645,645,645,645,645,681,682,683,645,133,18,19,208,645,645,645,645,645,645,645,645,645,645,645,645,645,645,645,645,645,645,645,645,645,645,645,645,
645,645,645,645,645,645,645,645,645,645,645,645,645,645,645,645,645,645,645,645,645,645,717,718,719,720,645,645,645,645,645,645,645,645,645,645,645,645,645,645,645,645,645,645,645,645,645,645,645,645,645,245,246,247,248,97,98,99,100,645,645,645,645,645,645,645,645,645,645,645,645,625,626,627,628,645,645,645,645,645,645,645,645,645,645,645,645,645,645,645,645,645,593,594,595,596,645,645,751,752,753,754,755,645,645,645,645,645,751,751,752,753,754,755,645,33,18,19,20,10,11,12,396,397,394,395,396,397,393,394,395,396,397,394,395,396,397,394,395,396,397,395,396,397,394,395,396,397,393,394,395,396,397,393,394,395,396,397,17,18,19,196,645,645,645,645,645,645,645,645,645,645,645,645,645,645,645,645,645,645,645,645,645,645,645,645,645,645,645,645,645,661,662,663,664,645,645,645,645,645,645,645,645,749,129,130,131,132,645,645,645,645,645,645,645,645,645,645,645,645,645,645,645,645,713,714,715,645,165,50,51,208,645,645,645,645,645,645,645,645,645,645,645,645,645,645,645,645,645,645,645,645,645,645,645,645,
645,645,645,645,645,645,645,645,645,645,645,645,645,645,645,645,645,645,645,645,645,645,749,750,751,752,645,645,645,645,645,645,645,645,645,645,645,645,645,645,645,645,645,645,645,645,645,645,645,645,645,277,278,279,280,129,130,131,132,645,645,645,645,645,645,645,645,533,534,535,645,645,645,645,645,645,645,645,645,645,645,645,645,645,645,645,645,645,645,645,645,645,625,626,627,628,645,645,645,645,645,645,645,645,645,650,651,652,645,751,751,752,753,754,755,33,50,51,49,50,51,52,428,429,426,427,428,429,425,426,427,428,429,426,427,428,429,426,427,428,429,427,428,429,426,427,428,429,425,426,427,428,429,425,426,427,428,429,49,50,51,228,645,645,645,645,645,645,645,645,645,645,645,645,661,662,663,664,645,645,645,645,645,645,645,645,645,645,645,645,645,693,694,695,696,645,645,645,645,645,645,645,645,645,161,162,163,164,645,645,645,645,645,645,645,645,645,645,645,645,645,645,645,645,745,746,747,748,165,82,83,208,645,645,645,645,645,645,645,645,645,645,645,645,645,645,645,645,645,645,645,645,645,645,645,645,
645,645,645,645,645,645,645,645,645,645,645,645,645,645,645,645,645,645,645,645,645,645,645,645,645,645,645,645,645,645,645,645,645,645,645,645,645,645,645,645,645,645,645,645,645,645,645,645,645,645,645,85,86,87,88,161,162,163,164,645,645,677,678,679,645,645,645,565,566,567,645,645,645,645,645,645,645,645,645,751,752,753,754,755,755,645,645,645,645,645,645,645,645,645,645,645,645,645,645,645,645,645,645,645,681,682,683,684,645,645,645,645,645,645,645,65,82,83,81,82,83,84,460,461,458,459,460,461,457,458,459,460,461,458,459,460,461,458,459,460,461,459,460,461,458,459,460,461,457,458,459,460,461,457,458,459,460,461,81,82,83,228,645,645,645,645,645,641,642,643,644,645,645,645,693,694,695,696,645,645,645,645,645,649,650,651,652,645,645,645,645,725,726,727,728,645,645,645,645,645,645,645,645,645,193,194,195,196,645,645,645,645,645,645,645,645,645,645,645,645,645,645,645,645,645,645,645,645,133,114,115,208,645,645,645,645,645,645,645,645,645,645,645,645,645,645,645,645,645,645,645,645,645,645,645,645,
645,645,645,645,645,645,645,645,645,645,645,645,645,645,645,645,645,645,529,530,531,532,645,645,645,645,645,645,645,645,645,645,645,645,645,645,645,645,645,645,645,645,529,530,531,532,645,645,645,645,657,117,118,119,120,193,194,195,196,645,645,709,710,711,645,645,645,597,598,599,645,645,645,645,645,645,645,645,751,752,753,754,755,755,645,535,645,645,645,645,645,645,645,645,645,645,645,533,534,535,645,645,645,645,713,714,715,716,645,645,645,645,645,645,645,97,114,115,170,114,115,72,73,74,116,491,492,493,489,490,491,492,493,490,491,492,493,490,491,492,493,491,492,493,490,491,492,493,489,490,491,492,493,489,490,491,492,493,113,114,115,228,645,645,645,645,645,673,674,675,676,645,645,645,725,726,727,728,645,645,645,645,645,681,682,683,684,645,645,645,645,757,758,759,760,658,659,645,645,645,645,645,645,645,225,226,227,228,645,645,645,645,645,645,645,645,645,657,658,659,645,645,645,645,645,645,645,645,165,18,19,20,9,9,10,16,645,645,645,645,645,645,645,653,654,655,656,645,645,645,645,645,645,645,645,645,
645,645,645,645,645,645,645,645,645,645,645,645,645,645,645,645,645,645,561,562,563,564,645,645,645,645,645,645,645,645,645,645,645,645,645,645,645,645,645,645,645,645,561,562,563,564,645,645,645,645,689,149,150,151,152,225,226,227,228,645,645,645,645,645,645,645,645,629,630,631,645,645,645,645,645,645,645,751,752,753,754,755,755,645,645,567,645,645,645,645,645,645,645,645,645,645,645,565,566,567,645,645,645,645,745,746,747,748,645,645,645,645,645,645,645,129,72,72,72,73,74,104,105,106,100,645,645,645,533,534,535,645,645,673,674,675,676,645,645,645,645,645,645,645,645,645,645,645,645,645,645,645,645,645,645,645,645,705,97,98,99,228,645,645,645,645,645,705,706,707,708,645,645,645,757,758,759,760,645,645,645,645,645,713,714,715,716,645,645,645,645,645,645,645,689,690,691,692,645,645,645,645,645,645,65,66,67,68,645,645,645,645,645,645,645,645,645,689,690,691,692,645,645,645,645,645,645,645,165,50,51,52,49,50,51,208,645,645,645,645,645,645,645,685,686,687,688,645,645,645,645,645,645,645,645,645,
645,645,645,645,645,645,645,645,645,645,645,645,645,645,645,529,530,645,593,594,595,596,645,645,645,645,645,645,645,645,645,645,645,645,645,645,645,645,645,645,645,645,593,594,595,596,645,645,645,645,721,181,182,183,184,257,258,259,260,645,645,645,645,645,645,645,645,645,645,645,645,645,645,645,645,645,751,752,753,754,755,755,645,645,598,599,645,645,645,645,645,645,645,645,645,645,645,597,598,599,645,645,645,645,645,645,645,645,645,533,534,535,645,645,645,65,104,104,104,105,106,136,137,138,132,645,645,645,565,566,567,645,645,705,706,707,708,645,645,645,645,645,645,645,645,645,645,645,645,645,645,645,645,645,645,645,645,645,129,130,131,228,645,645,645,645,645,645,645,645,645,645,645,645,757,758,759,760,645,645,645,645,645,745,746,747,748,645,645,645,645,645,645,645,721,722,723,724,645,645,645,645,645,653,97,98,99,100,645,645,645,645,645,645,533,534,535,721,722,723,724,645,645,645,645,645,645,645,165,82,83,84,81,82,83,208,645,645,645,645,645,645,645,717,718,719,720,645,645,645,645,645,645,645,645,645,
645,645,645,645,645,645,645,645,645,645,645,645,645,645,645,561,562,563,625,626,627,628,645,645,645,645,645,645,645,645,645,645,645,645,645,653,654,655,656,645,645,645,625,626,627,628,645,645,645,645,645,213,214,215,216,65,66,67,68,645,645,645,645,645,645,645,645,645,645,645,645,653,654,655,656,645,751,752,753,754,755,645,645,629,630,631,645,645,645,645,649,650,651,652,645,645,645,629,630,631,645,645,645,645,645,645,645,645,645,565,566,567,645,645,645,97,136,136,136,137,138,72,73,74,164,645,645,645,597,598,599,645,645,645,645,645,645,645,645,645,645,645,645,645,645,645,645,645,645,645,645,645,645,645,645,645,645,645,161,162,163,164,645,645,645,645,645,645,645,645,645,645,645,645,645,645,645,645,645,645,645,645,645,645,645,645,645,645,645,645,645,645,645,645,645,645,645,645,645,645,645,645,645,645,129,130,131,132,645,645,645,645,645,645,565,566,567,645,645,645,645,645,645,645,645,645,645,645,357,362,363,363,113,114,115,208,645,645,645,645,645,645,645,645,645,645,645,533,534,535,645,645,645,645,645,645,
645,645,645,645,645,645,649,650,651,652,645,645,645,645,645,593,594,595,596,645,645,645,645,645,645,645,641,642,643,644,645,645,645,645,645,685,686,687,688,645,645,645,645,645,645,645,645,645,645,645,645,245,246,247,248,97,98,99,100,645,645,645,645,645,645,645,645,645,645,645,645,685,686,687,688,645,645,645,645,645,645,645,678,679,645,645,645,645,645,645,681,682,683,684,645,645,645,645,645,645,645,645,645,645,645,645,645,645,645,597,598,599,645,645,645,129,168,168,168,169,170,72,73,74,196,645,645,645,629,630,631,645,645,645,645,645,645,645,645,645,645,645,645,645,645,645,645,645,645,645,645,645,645,645,645,645,645,645,193,194,195,196,645,645,645,645,645,645,645,645,645,645,645,645,645,645,645,645,645,645,645,645,645,645,645,645,645,405,406,407,408,645,645,645,645,645,645,645,645,645,645,645,645,645,161,162,163,164,645,645,645,645,645,645,597,598,599,645,645,645,645,645,645,645,645,645,645,645,405,406,407,408,133,18,19,20,9,9,10,16,645,645,645,645,645,645,645,565,566,567,645,645,645,645,645,645,
645,645,645,645,645,645,681,682,683,684,645,645,645,645,645,625,626,627,628,645,645,645,645,645,645,645,673,674,675,676,645,645,645,645,645,717,718,719,720,645,645,645,645,645,645,645,645,645,645,645,645,277,278,279,280,129,130,131,132,645,645,645,645,645,645,645,645,645,645,645,645,717,718,719,720,645,645,645,645,645,645,709,710,711,645,645,645,645,645,645,713,714,715,716,645,645,645,645,645,645,645,645,645,645,645,645,645,645,645,629,630,631,645,645,645,65,200,200,200,201,202,72,73,74,228,645,645,645,645,645,645,645,645,645,645,645,645,645,645,645,645,645,645,645,645,645,645,645,645,645,645,645,645,645,645,645,645,645,225,226,227,228,645,645,645,645,645,645,645,645,645,645,645,645,645,645,645,533,534,535,645,645,645,645,645,645,645,437,438,439,440,645,645,645,645,645,645,645,645,645,645,645,645,645,193,194,195,196,645,645,645,645,645,645,629,630,631,645,645,645,645,645,645,645,645,645,645,645,437,438,439,440,133,50,51,52,49,50,51,208,645,645,645,645,645,645,645,597,598,599,645,645,645,645,645,645,
645,645,645,645,645,645,713,714,715,716,645,645,645,645,645,645,645,645,645,645,645,645,645,645,645,645,705,706,707,708,645,645,645,645,645,749,750,751,752,645,645,645,645,645,645,645,645,645,645,645,645,309,310,311,312,129,162,163,164,645,645,645,645,645,645,645,645,645,645,645,645,749,750,751,752,645,645,645,533,534,535,645,645,645,645,645,645,645,645,645,745,746,747,748,645,645,645,645,677,678,679,645,645,645,645,645,645,645,645,645,645,645,645,645,645,97,232,232,232,233,234,104,105,106,260,645,645,645,645,645,645,645,645,661,662,663,664,645,645,645,645,645,645,645,645,645,645,645,645,645,645,645,645,645,645,661,662,663,257,258,259,260,645,645,645,645,645,529,530,531,532,645,645,645,645,645,645,565,566,567,645,645,645,645,645,645,645,469,470,471,472,645,645,645,645,645,645,645,645,645,645,645,645,645,225,226,227,228,645,645,645,645,645,645,645,645,645,645,645,645,645,645,645,645,645,645,645,645,469,470,471,472,357,113,83,84,81,82,83,208,645,645,645,645,645,645,645,629,630,631,645,645,645,645,645,645,
645,645,645,645,645,645,745,746,747,748,645,645,645,645,645,645,645,645,645,645,645,645,645,645,645,645,645,645,645,645,645,645,645,645,645,645,645,645,645,645,645,645,645,645,645,645,645,645,645,645,645,85,86,87,88,129,194,195,196,651,652,645,645,645,645,645,645,645,645,645,645,645,645,645,645,645,645,645,565,566,567,645,645,645,645,645,645,645,533,534,535,645,645,645,645,645,645,645,709,710,711,645,645,645,645,661,662,663,664,645,645,645,529,530,531,129,72,72,72,73,74,136,137,138,68,645,645,645,645,645,645,645,645,693,694,695,696,645,645,645,645,645,645,645,645,653,654,655,656,645,645,645,645,645,645,693,694,695,97,98,99,100,645,645,645,645,645,561,562,563,564,645,645,645,645,645,645,597,598,599,645,645,645,645,645,645,645,501,502,503,504,645,645,645,645,645,645,645,645,645,645,645,645,645,65,66,67,68,645,645,645,645,645,645,645,645,645,645,645,645,645,645,645,645,645,645,645,645,501,502,503,504,645,645,363,363,113,114,115,208,643,644,645,645,645,645,645,645,645,645,645,645,645,645,645,645,
645,645,645,645,645,645,645,645,645,645,645,645,645,645,645,645,645,645,645,645,645,645,645,645,645,645,645,645,645,645,645,645,645,645,645,645,645,645,645,645,645,645,645,645,645,645,645,645,645,645,645,117,118,119,120,129,226,227,228,683,684,645,645,645,661,662,663,664,645,645,645,645,677,678,679,645,645,645,597,598,599,645,645,645,645,645,645,645,565,566,567,645,645,645,645,645,645,645,645,645,645,645,645,645,645,693,694,695,696,645,645,645,561,562,563,161,104,104,104,105,106,168,169,170,100,645,645,645,645,645,645,645,645,725,726,727,728,645,645,645,645,645,645,645,645,685,686,687,688,645,645,645,645,645,645,725,726,727,129,130,131,132,645,645,645,645,645,593,594,595,596,645,645,645,645,645,645,629,630,631,645,645,645,645,645,645,645,645,645,645,645,645,645,645,645,645,645,645,645,645,645,645,645,645,97,98,99,100,645,645,645,645,645,649,650,651,652,645,645,645,645,645,645,645,645,645,645,645,645,645,645,645,405,406,407,408,133,18,19,20,9,9,10,16,645,645,645,645,645,645,645,645,645,645,645,645,
645,645,645,645,645,645,645,645,645,645,645,645,645,645,645,645,645,645,645,645,645,645,645,645,645,645,645,645,645,645,645,645,645,645,645,645,645,645,645,645,645,645,645,645,645,645,645,645,645,645,645,149,150,151,152,129,258,259,260,715,716,645,645,645,693,694,695,696,645,645,645,645,709,710,711,645,645,645,629,630,631,645,645,645,645,645,645,645,597,598,599,645,645,645,645,645,645,645,645,645,645,645,645,645,645,725,726,727,728,645,645,645,593,594,595,193,136,136,136,137,138,72,73,74,132,645,657,658,659,645,645,645,645,757,758,759,760,645,657,658,659,645,645,645,645,717,718,719,720,645,645,645,645,645,645,757,758,759,161,162,163,164,533,534,535,645,645,625,626,627,628,645,645,645,645,645,645,645,645,645,645,645,645,645,645,645,645,645,645,645,645,677,678,679,645,645,645,645,645,645,645,645,645,645,129,130,131,132,645,645,645,645,645,681,682,683,684,645,645,645,645,645,645,645,533,534,535,645,645,645,645,645,437,438,439,440,133,50,51,52,49,50,51,208,645,645,645,645,645,645,645,645,645,645,645,645,
645,645,645,645,645,645,645,645,645,645,645,645,645,645,645,645,645,645,645,645,645,645,645,645,645,645,645,645,645,645,645,645,645,645,645,645,645,645,645,645,645,645,645,645,645,645,645,645,645,645,645,181,182,183,184,129,18,19,20,392,393,394,395,396,397,392,393,394,395,396,397,393,394,395,396,397,392,393,394,395,396,397,394,395,396,397,394,395,396,397,392,393,394,395,396,397,393,394,395,396,397,393,394,395,396,397,392,393,394,395,396,393,394,395,396,17,168,168,168,169,170,104,105,106,164,645,689,690,691,692,645,645,645,645,645,645,645,645,689,690,691,692,645,645,645,749,750,751,752,645,645,645,645,645,645,645,645,645,193,194,195,196,565,566,567,645,645,645,645,645,645,645,645,645,645,645,645,645,645,645,645,677,678,679,645,645,645,645,645,645,645,709,710,711,645,645,645,645,645,645,645,645,645,645,161,162,163,164,645,645,645,645,645,713,714,715,716,645,645,645,645,645,645,645,565,566,567,645,645,645,645,645,469,470,471,472,165,82,83,84,81,82,83,208,645,645,645,645,645,645,645,645,645,645,645,645,
645,645,645,645,645,645,645,645,645,645,645,645,645,645,645,645,645,529,530,531,532,645,645,645,645,645,645,645,645,645,645,645,645,645,645,645,645,645,645,645,645,645,645,645,645,645,645,645,645,645,645,213,214,215,216,129,50,51,52,424,425,426,427,428,429,424,425,426,427,428,429,425,426,427,428,429,424,425,426,427,428,429,426,427,428,429,426,427,428,429,424,425,426,427,428,429,425,426,427,428,429,425,426,427,428,429,424,425,426,427,428,429,49,50,51,52,72,72,72,73,74,136,137,138,196,645,721,722,723,724,645,645,645,645,645,645,645,645,721,722,723,724,645,645,645,645,645,645,645,645,645,645,645,645,645,645,645,645,225,226,227,228,597,598,599,645,645,645,645,645,645,645,645,645,645,645,645,645,645,645,645,709,710,711,645,645,645,645,645,645,645,645,645,645,645,645,645,645,645,661,662,663,664,645,193,194,195,196,645,645,645,645,645,745,746,747,748,645,645,645,645,645,645,645,597,598,599,645,641,642,643,644,501,502,503,504,357,362,363,363,113,114,115,208,645,645,645,645,657,658,659,645,645,645,645,645,
645,645,645,645,641,642,643,644,645,645,645,645,645,645,645,645,645,561,562,563,564,645,645,645,645,645,645,645,645,645,529,530,531,532,645,645,645,645,645,645,645,645,645,645,645,645,645,645,645,645,645,245,246,247,248,129,82,83,84,456,457,458,459,460,461,456,457,458,459,460,461,457,458,459,460,461,456,457,458,459,460,461,458,459,460,461,458,459,460,461,456,457,458,459,460,461,457,458,459,460,461,457,458,459,460,461,456,457,458,459,460,461,81,82,83,84,104,104,104,105,106,168,169,170,68,645,645,645,645,645,645,645,645,645,645,645,645,645,645,645,645,645,645,645,645,645,645,645,645,645,645,645,645,653,654,655,656,645,257,258,259,260,629,630,631,645,645,645,645,645,645,645,645,645,645,645,645,645,645,645,645,645,645,645,645,645,645,645,645,645,645,645,645,645,645,645,645,645,645,693,694,695,696,645,225,226,227,228,645,645,645,645,645,645,645,645,645,645,645,645,645,645,645,645,629,630,631,645,673,674,675,676,645,645,645,645,405,406,407,408,133,18,19,208,645,645,645,645,689,690,691,692,645,645,645,645,
645,645,645,645,673,674,675,676,645,645,645,645,645,645,645,645,645,593,594,595,596,645,645,645,645,645,645,645,645,645,561,562,563,564,645,645,645,645,645,645,645,645,645,645,645,645,645,645,645,645,645,277,278,279,280,161,114,115,116,488,489,490,491,492,493,488,489,490,491,492,493,489,490,491,492,493,488,489,490,491,492,493,490,491,492,493,490,491,492,493,488,489,490,491,492,493,489,490,491,492,493,489,490,491,492,493,488,489,490,491,492,493,488,488,489,113,136,136,136,137,138,200,201,202,100,645,645,645,645,645,645,645,645,529,530,531,532,645,645,21,22,23,24,645,645,645,645,645,645,645,645,645,645,685,686,687,688,645,97,98,99,100,645,645,645,645,645,645,645,645,645,645,645,645,645,645,645,645,645,645,645,645,645,645,645,645,645,645,645,645,645,645,645,645,645,645,645,645,645,725,726,727,728,645,65,66,67,68,645,645,645,645,645,645,645,645,645,645,645,645,645,645,645,645,645,645,645,645,705,706,707,708,645,645,645,645,437,438,439,440,133,50,51,208,645,645,645,645,721,722,723,724,645,645,645,645,
645,645,645,645,705,706,707,708,645,645,645,645,645,645,645,645,645,625,626,627,628,645,645,645,645,645,645,645,645,645,593,594,595,596,645,657,658,659,645,645,645,645,645,645,645,645,645,653,654,655,656,85,86,87,88,193,66,67,68,645,645,645,645,645,645,645,645,645,645,645,645,645,645,645,645,645,645,645,645,625,626,645,645,645,645,673,674,675,676,645,645,645,645,645,645,645,645,645,645,645,645,645,645,645,645,709,710,711,645,645,645,645,645,657,658,65,168,168,168,169,170,232,233,234,132,645,645,645,645,645,645,645,645,561,562,563,564,645,645,53,54,55,56,645,645,645,645,645,645,645,645,645,645,717,718,719,720,645,129,130,131,132,645,645,645,645,645,645,645,645,645,645,645,645,645,645,645,645,645,645,645,645,645,645,645,645,645,645,645,645,645,645,645,645,645,645,645,645,645,757,758,759,760,645,97,98,99,100,658,659,645,645,645,645,645,645,645,645,645,645,645,533,534,535,645,645,645,645,645,645,645,645,645,645,645,645,469,470,471,472,133,82,83,208,645,645,645,645,645,645,645,645,645,645,645,645,
645,645,645,645,645,645,645,645,645,645,645,645,645,645,645,645,645,645,645,645,645,645,645,645,645,645,645,645,645,645,625,626,627,628,645,689,690,691,692,645,645,645,645,645,645,645,645,685,686,687,688,117,118,119,120,97,98,99,100,645,645,645,645,645,657,658,659,645,645,645,645,645,645,645,645,645,645,645,645,645,645,645,645,645,645,705,706,707,708,645,645,645,645,645,645,645,645,645,645,645,645,645,645,645,645,645,645,645,645,645,645,645,645,689,690,65,200,200,200,201,202,72,73,74,164,645,645,645,645,645,645,645,645,593,594,595,596,645,645,85,86,87,88,645,533,534,535,645,645,645,645,645,645,749,750,751,752,645,161,162,163,164,645,645,645,645,645,645,645,645,645,645,645,645,645,645,645,645,645,645,645,645,645,645,645,645,645,645,645,645,645,645,645,645,645,645,645,645,645,645,645,645,645,645,129,130,131,132,690,691,692,645,645,645,645,645,645,645,645,645,645,565,566,567,645,645,645,645,645,645,645,645,645,645,645,645,501,502,503,504,165,114,115,208,645,645,645,645,645,645,645,645,645,645,645,645,
645,645,645,645,645,645,645,645,645,645,645,529,530,531,532,645,645,645,645,645,645,645,645,645,645,645,645,645,645,645,645,645,645,645,645,721,722,723,724,645,645,645,645,645,645,645,645,717,718,719,720,149,150,151,152,129,130,131,132,645,645,645,645,645,689,690,691,692,645,645,645,653,654,655,656,645,645,645,645,645,645,645,645,645,645,645,645,645,645,645,645,645,645,645,645,645,645,645,645,645,645,645,645,645,645,645,645,645,645,645,645,645,645,721,722,97,232,232,232,233,234,72,73,74,196,645,645,645,645,645,645,645,645,625,626,627,628,645,645,117,118,119,120,645,565,566,567,645,645,645,645,645,645,645,645,645,645,645,193,194,195,196,645,645,645,645,645,645,645,645,645,645,645,645,645,645,645,645,645,645,645,645,645,645,645,645,645,645,645,645,645,645,645,645,645,645,645,645,645,645,645,645,645,645,161,162,163,164,722,723,724,645,645,645,645,645,645,645,645,645,645,597,598,599,645,645,645,645,645,645,645,645,405,406,407,408,5,10,11,11,17,18,19,208,645,645,645,645,645,645,645,645,645,645,645,645,
645,645,645,645,645,645,645,645,645,645,645,561,562,563,564,645,645,645,645,645,645,645,641,642,643,644,645,645,645,645,645,645,645,645,645,645,645,645,645,645,645,645,645,645,645,645,645,749,750,751,752,181,182,183,184,161,162,163,164,645,645,645,645,645,721,722,723,724,645,645,645,685,686,687,688,645,645,645,661,662,663,664,645,645,645,645,645,645,645,645,645,645,645,645,645,645,645,661,662,663,664,645,645,645,645,645,645,645,645,645,645,645,645,645,645,129,72,72,72,73,74,72,73,74,228,645,645,645,645,645,645,645,645,645,645,645,645,645,645,149,150,151,152,645,597,598,599,645,645,645,645,645,645,645,645,645,645,645,129,226,227,228,645,645,645,645,645,645,645,645,645,645,645,645,645,645,645,645,645,645,661,662,663,664,645,645,645,645,645,645,645,645,645,645,645,649,650,651,652,645,645,645,645,645,193,194,195,196,645,645,645,645,645,645,645,533,534,535,645,645,645,629,630,631,645,645,645,645,645,645,645,645,437,438,439,440,193,50,51,52,49,50,51,208,645,645,645,645,645,645,645,645,645,645,645,645,
645,645,645,645,645,645,645,645,645,645,645,593,594,595,596,645,645,645,645,645,645,645,673,674,675,676,645,645,645,645,645,645,645,645,641,642,643,644,645,645,645,645,645,645,645,645,645,645,645,645,645,213,214,215,216,193,194,195,196,645,645,645,645,645,645,645,645,645,645,645,645,717,718,719,720,645,645,645,693,694,695,696,645,645,645,645,645,645,645,645,645,645,645,645,645,645,645,693,694,695,696,645,645,645,645,645,645,645,645,645,645,645,645,645,645,161,104,104,104,105,116,364,365,365,368,645,645,645,645,645,645,645,645,645,645,645,645,645,645,181,182,183,184,645,629,630,631,645,645,645,645,645,645,645,645,645,645,645,161,258,259,260,645,661,662,663,664,645,645,645,645,645,653,654,655,656,645,645,645,645,693,694,695,696,645,645,645,677,678,679,645,645,645,645,645,681,682,683,684,645,645,645,645,645,225,226,227,132,645,645,645,645,645,645,645,565,566,567,645,645,645,645,645,657,658,659,645,645,645,645,645,645,469,470,471,472,225,82,83,84,81,82,83,208,645,645,645,645,645,645,645,645,645,645,645,645,
645,645,645,645,645,645,645,645,645,645,645,625,626,627,628,645,645,645,645,645,645,645,705,706,707,708,645,645,645,645,645,645,645,645,673,674,675,676,645,645,645,645,645,645,645,645,645,645,645,645,645,245,246,247,248,225,226,227,228,645,677,678,679,645,645,645,645,645,645,645,645,749,750,751,752,645,645,645,725,726,727,728,645,645,645,645,645,645,645,645,645,645,645,645,645,645,645,725,726,727,728,645,645,645,645,645,645,645,645,645,645,645,645,645,645,193,136,136,136,137,112,513,514,516,517,518,519,520,521,522,523,524,645,645,645,645,645,645,645,213,214,215,216,645,645,645,645,645,645,645,645,645,645,645,645,645,645,645,129,18,19,20,392,393,394,395,396,397,398,392,393,394,395,396,397,398,392,393,394,395,396,397,398,392,393,394,395,396,397,398,392,393,394,395,396,397,398,392,393,394,395,396,397,398,17,18,19,132,645,645,645,645,645,645,645,597,598,599,645,645,645,645,645,689,690,691,692,645,405,406,407,408,501,502,503,504,225,114,115,116,361,361,362,368,645,645,645,645,645,645,645,645,645,645,645,645,
645,645,645,645,645,645,645,645,645,645,645,645,645,645,645,645,645,645,645,645,645,645,645,645,645,645,645,645,645,645,645,645,645,645,705,706,707,708,645,645,645,645,645,645,645,645,645,641,642,643,644,277,278,279,280,257,258,259,260,645,709,710,711,645,645,645,645,645,645,645,645,645,645,645,645,645,645,645,757,758,759,760,645,645,645,645,645,645,533,534,535,645,645,645,645,645,645,757,758,759,760,645,645,645,645,645,645,529,530,531,532,645,645,645,645,225,168,168,168,169,112,545,546,548,549,550,551,552,553,554,555,556,645,645,645,645,645,645,645,245,246,247,248,645,645,645,645,645,645,645,645,645,645,645,645,645,645,645,129,50,51,52,424,425,426,427,428,429,430,424,425,426,427,428,429,430,424,425,426,427,428,429,430,424,425,426,427,428,429,430,424,425,426,427,428,429,430,424,425,426,427,428,429,430,49,50,51,132,645,645,645,645,645,645,645,629,630,631,645,645,645,645,645,721,722,723,724,645,437,438,439,440,5,10,11,11,17,18,19,176,645,645,649,650,651,652,645,645,645,645,645,645,645,645,645,645,
645,645,645,645,645,645,645,645,645,645,645,645,645,645,645,645,645,645,645,645,645,645,645,645,645,645,645,645,645,645,645,645,645,645,645,645,645,645,645,645,645,645,645,645,645,645,645,673,674,675,676,85,86,87,88,65,66,67,68,645,645,645,645,645,645,645,645,645,645,645,645,645,645,645,645,645,645,645,645,645,645,645,645,645,645,645,645,645,565,566,567,645,645,645,645,645,645,645,645,645,645,645,645,645,645,645,645,561,562,563,564,645,645,645,645,257,200,200,200,201,112,577,578,580,581,582,583,584,585,586,587,588,645,645,645,645,645,645,645,277,278,279,280,645,645,645,645,645,645,645,645,645,645,645,645,645,645,645,161,82,83,84,456,457,458,459,460,461,462,456,457,458,459,460,461,462,456,457,458,459,460,461,462,456,457,458,459,460,461,462,456,457,458,459,460,461,462,456,457,458,459,460,461,462,81,82,83,164,645,645,645,529,530,531,532,645,645,645,645,645,645,645,645,645,645,645,645,645,469,470,471,472,193,50,51,52,49,50,51,176,645,645,681,682,683,684,645,645,645,645,645,645,645,645,645,645,
645,645,645,645,645,645,645,645,645,645,645,645,645,645,645,645,645,645,645,645,645,645,645,645,645,645,645,645,645,645,645,645,645,645,645,645,645,645,645,645,529,530,531,532,645,645,645,705,706,707,708,117,118,119,120,97,98,99,100,645,645,645,645,645,645,645,645,645,645,645,645,645,645,645,645,645,645,645,645,645,645,645,645,645,645,645,645,645,597,598,599,645,645,645,645,653,654,655,656,645,645,645,645,645,645,645,645,593,594,595,596,645,645,645,645,289,232,232,232,233,144,609,610,612,613,614,615,616,617,618,619,620,645,645,645,645,645,645,645,309,310,311,312,529,530,531,532,645,645,645,645,645,645,645,645,645,645,645,485,489,490,490,490,490,490,491,492,493,494,488,489,490,491,492,493,494,488,489,490,491,492,493,494,488,489,490,491,492,493,494,488,489,490,491,492,493,494,488,489,490,491,492,488,488,488,488,489,368,645,645,645,561,562,563,564,645,645,645,645,645,645,645,645,645,645,645,645,645,501,502,503,504,225,82,83,84,81,82,83,208,645,645,713,714,715,716,645,645,645,645,645,645,645,645,645,645,
645,645,645,645,645,645,645,645,645,645,645,645,645,645,645,645,645,645,645,645,645,645,645,645,645,645,645,645,645,677,678,679,645,645,645,645,645,645,645,645,561,562,563,564,645,645,645,645,645,645,645,149,150,151,152,129,130,131,132,645,645,645,645,645,645,645,645,645,645,645,645,645,645,645,645,645,645,645,645,645,645,645,645,645,645,645,645,645,629,630,631,645,645,645,645,685,686,687,688,645,645,645,645,645,645,645,645,625,626,627,628,645,645,645,645,65,72,72,72,73,20,10,11,11,16,645,645,645,645,645,649,650,651,652,645,645,645,645,645,341,342,343,344,561,562,563,564,645,645,645,641,642,643,644,645,645,645,645,645,645,645,645,645,645,645,645,645,645,645,645,645,645,645,645,645,645,645,645,645,645,645,645,645,645,645,645,645,645,645,645,645,645,645,645,645,645,645,645,645,645,645,645,645,645,645,645,645,645,645,645,645,593,594,595,596,645,645,645,645,533,534,535,645,645,645,645,645,645,645,645,645,645,225,114,115,116,361,361,362,368,645,645,745,746,747,748,645,645,645,645,645,645,645,645,645,645,
645,645,645,645,645,645,645,641,642,643,644,645,645,645,645,645,645,645,677,678,679,645,645,645,645,645,645,645,645,709,710,711,645,645,645,645,645,645,645,645,593,594,595,596,645,645,645,645,645,645,645,181,182,183,184,161,162,163,164,645,645,645,645,645,645,645,645,645,645,645,645,645,645,645,645,645,645,645,645,645,645,645,645,677,678,679,645,645,645,645,645,645,645,645,645,717,718,719,720,645,645,645,645,645,645,645,645,645,645,645,645,645,645,645,645,97,104,104,104,105,106,72,73,74,228,645,645,645,645,645,681,682,683,684,645,645,645,645,645,373,374,375,376,593,594,595,596,645,645,645,673,674,675,676,645,645,645,645,645,645,645,645,645,645,645,645,645,645,645,645,645,645,645,645,645,645,645,645,645,645,645,645,657,658,659,645,645,645,645,645,645,645,645,645,645,645,645,645,645,645,645,645,645,645,645,645,645,645,645,645,645,625,626,627,628,645,645,645,645,565,566,567,645,645,645,645,645,645,5,10,10,10,17,18,19,176,534,535,645,645,645,645,645,645,645,645,645,645,645,645,645,645,645,645,645,645,
645,645,645,645,645,645,645,673,674,675,676,645,645,645,645,645,645,645,709,710,711,645,645,645,645,645,645,645,645,645,645,645,645,645,645,645,645,645,645,645,625,626,627,628,645,645,645,645,645,645,645,213,214,215,216,193,194,195,196,645,645,645,645,645,645,645,657,658,659,645,645,645,645,645,645,645,645,645,645,645,645,645,645,709,710,711,645,645,645,645,645,645,645,645,645,749,750,751,752,645,645,645,645,645,645,645,645,645,645,645,645,645,645,645,645,129,136,136,136,137,138,72,73,74,260,645,645,645,645,645,713,714,715,716,645,645,645,645,645,645,645,645,645,625,626,627,628,645,645,645,705,706,707,708,645,645,645,645,645,645,645,645,645,653,654,655,656,645,645,645,645,645,533,534,535,645,645,645,645,645,645,645,689,690,691,692,645,645,645,645,645,645,645,645,661,662,663,664,645,645,645,645,645,645,533,534,535,645,645,645,645,645,645,645,645,645,645,645,645,597,598,599,645,645,645,645,645,645,193,50,51,52,49,50,51,176,566,567,645,645,645,645,645,645,645,645,645,645,645,645,645,645,645,645,645,645,
645,645,645,645,645,645,645,705,706,707,708,645,645,645,645,645,645,645,645,645,645,645,645,645,645,645,645,645,645,645,645,645,645,645,645,645,645,645,645,645,645,645,645,645,645,645,645,645,645,645,645,245,246,247,248,225,226,227,228,645,645,529,530,531,532,645,689,690,691,692,645,645,645,645,645,645,645,645,645,645,645,645,645,645,645,645,645,645,645,645,645,645,645,533,534,535,645,645,645,645,645,645,645,645,645,645,645,645,645,645,645,645,645,645,645,161,168,168,168,169,170,72,73,74,292,645,645,645,645,645,745,746,747,748,645,645,645,645,645,645,645,645,645,645,645,645,645,645,645,645,645,645,645,645,645,645,645,645,645,645,645,645,645,685,686,687,688,645,645,645,645,645,565,566,567,645,645,645,645,645,645,645,721,722,723,724,645,645,645,645,645,645,645,645,693,694,695,696,645,645,645,645,645,645,565,566,567,645,645,645,645,645,645,645,645,645,645,645,645,629,630,631,645,645,645,645,645,645,225,82,83,84,81,82,83,208,598,599,645,645,645,645,645,645,645,661,662,663,664,645,645,645,645,645,645,645,
645,645,645,645,645,645,645,645,645,645,645,645,645,645,645,645,645,645,645,645,645,645,645,645,645,645,645,645,645,645,645,645,645,645,645,645,645,645,645,645,645,645,645,645,645,645,645,645,645,645,645,277,278,279,280,257,258,259,260,645,645,561,562,563,564,645,721,722,723,724,645,645,645,645,645,645,645,645,645,645,645,645,645,645,645,645,645,645,645,645,645,645,645,565,566,567,645,645,645,645,645,645,645,645,645,645,645,645,645,645,645,645,645,645,645,193,200,200,200,201,202,72,73,74,68,645,645,645,645,645,645,645,645,645,645,645,645,645,645,645,645,645,645,645,645,645,645,645,645,645,645,645,645,645,645,645,645,645,645,645,645,645,645,717,718,719,720,645,645,645,645,645,597,598,599,645,645,645,645,645,645,645,645,645,645,645,645,645,645,645,645,645,645,645,725,726,727,728,645,645,645,645,645,645,597,598,599,645,645,645,645,645,645,645,645,645,645,645,645,645,645,645,645,645,645,533,534,535,225,114,115,116,361,361,362,496,630,631,645,645,645,645,645,645,645,693,694,695,696,645,645,645,645,645,645,645,
645,645,645,645,645,645,645,645,645,645,645,645,645,645,645,645,645,645,645,645,645,645,645,645,529,530,531,532,645,645,645,645,645,645,645,645,645,645,645,645,645,641,642,643,644,645,645,645,645,645,645,85,86,87,88,65,66,67,68,645,645,645,594,595,645,645,645,645,645,645,645,645,645,645,529,530,645,645,645,645,645,645,645,645,645,645,645,645,645,645,645,645,645,597,598,599,645,645,529,530,531,532,645,645,645,645,645,645,645,645,645,645,645,645,645,225,232,232,232,233,234,72,73,74,68,645,645,645,645,645,645,645,645,645,645,657,658,659,645,645,645,645,645,645,645,645,645,645,645,645,645,645,645,645,645,645,645,645,645,645,645,645,645,749,750,751,752,645,645,645,645,645,629,630,631,645,645,645,645,645,645,645,645,645,645,645,645,645,645,645,645,645,645,645,757,758,759,760,645,645,645,645,645,645,629,630,631,645,645,645,645,645,645,645,645,645,645,645,645,645,645,645,645,645,645,565,566,567,97,98,99,100,645,645,645,645,645,645,645,645,645,645,645,645,645,725,726,727,728,645,645,645,645,645,645,645,
645,645,645,645,645,645,645,645,645,645,645,645,645,645,645,645,645,645,645,645,645,645,645,645,561,562,563,564,645,645,645,645,645,645,645,645,645,645,645,645,645,673,674,675,676,645,645,645,645,645,645,117,118,119,120,97,98,99,100,645,645,645,645,645,645,645,645,645,645,645,645,645,645,645,561,562,563,645,645,645,645,645,645,645,645,645,657,658,659,645,645,645,645,629,630,631,645,645,561,562,563,564,645,645,645,645,645,645,645,645,645,645,645,645,645,485,363,364,113,73,74,104,105,106,100,645,645,645,645,645,645,645,645,645,645,689,690,691,692,645,645,645,645,645,645,645,645,645,645,645,645,645,645,645,661,662,663,664,645,645,645,645,645,645,645,645,645,645,645,645,645,645,645,645,645,645,645,645,645,645,645,533,534,535,645,645,645,645,645,645,645,645,645,645,645,645,645,645,645,645,645,645,677,678,679,645,645,645,645,645,645,645,645,645,645,645,645,645,645,645,645,645,645,645,645,597,598,599,129,130,131,132,645,645,645,645,641,642,643,644,645,645,645,645,645,757,758,759,760,645,533,534,535,645,645,645,
645,645,645,645,645,645,645,645,645,645,645,645,645,645,645,645,645,645,645,645,645,645,645,645,593,594,595,596,645,645,645,645,645,645,645,645,645,645,645,645,645,705,706,707,708,645,645,645,645,645,645,149,150,151,152,129,130,131,132,645,645,645,645,645,645,645,645,645,645,645,645,645,645,645,593,594,595,533,534,535,645,645,645,645,645,645,689,690,691,692,645,645,645,645,645,645,645,645,593,594,595,596,645,645,645,645,645,513,514,515,516,517,518,519,520,521,523,524,101,105,106,136,137,138,132,645,645,645,645,645,645,645,645,645,645,721,722,723,724,645,645,645,645,645,645,645,645,645,645,645,645,645,645,645,693,694,695,696,645,645,645,645,645,645,645,645,645,645,645,645,645,645,645,645,645,645,645,645,645,645,645,565,566,567,645,645,645,645,645,645,645,645,645,645,645,645,645,645,645,645,645,645,709,710,711,645,645,645,645,645,645,645,645,645,645,645,645,645,645,645,645,645,645,645,645,629,630,631,161,162,163,164,645,645,645,645,673,674,675,676,645,645,645,645,645,645,645,645,645,645,565,566,567,645,645,645,
645,645,645,645,645,645,645,645,645,645,645,645,645,645,645,645,645,645,645,645,645,645,645,645,625,626,627,628,645,645,645,645,645,645,645,645,645,645,645,645,645,645,645,645,645,645,645,645,645,645,645,181,182,183,184,161,162,163,164,645,645,645,645,645,645,645,645,645,645,645,645,645,645,645,625,626,627,565,566,567,645,645,645,645,645,645,721,722,723,724,645,645,645,645,645,645,645,645,625,626,627,628,645,645,645,533,534,545,546,547,548,549,550,551,552,553,555,556,101,137,138,168,169,170,164,692,645,645,645,645,645,645,645,645,645,645,645,645,645,645,645,645,645,645,645,645,645,645,645,645,645,645,645,645,725,726,727,728,645,645,645,645,645,645,645,645,533,534,535,645,645,645,645,645,645,645,645,645,645,645,645,597,598,599,645,645,645,645,645,645,645,645,645,645,645,645,645,645,645,661,662,663,664,645,645,645,645,645,645,645,645,645,645,645,645,645,645,645,645,645,645,645,645,645,645,645,645,645,193,194,195,196,645,645,645,645,705,706,707,708,645,645,645,645,645,645,645,645,645,645,597,598,599,645,645,645,
645,645,645,645,645,645,645,645,645,645,645,645,645,645,645,645,645,645,645,645,645,645,645,645,645,645,645,645,645,645,645,645,645,645,645,645,645,645,645,645,645,645,645,645,645,645,645,645,645,645,645,213,214,215,216,193,194,195,196,645,645,645,645,645,645,645,645,645,645,645,645,645,645,645,645,645,645,597,598,599,645,645,645,645,645,645,645,645,405,406,407,408,645,645,645,645,645,645,645,645,645,645,645,645,645,565,566,577,578,579,580,581,582,583,584,585,587,588,101,169,170,200,201,202,196,724,645,645,645,645,645,645,645,645,645,645,645,645,645,645,645,645,645,645,645,645,645,645,645,645,645,645,645,645,757,758,759,405,406,407,408,645,645,645,645,645,565,566,567,645,645,645,677,678,679,645,645,645,645,645,645,629,630,631,645,645,645,645,645,645,645,645,645,645,645,645,645,645,645,693,694,695,696,645,645,645,645,533,534,535,645,645,645,645,645,645,645,645,645,645,645,645,645,645,645,645,645,645,225,226,227,228,645,645,645,645,645,645,645,645,645,645,645,645,645,645,645,645,645,645,629,630,631,645,645,645,
645,645,645,645,645,645,645,529,530,531,532,645,645,645,645,645,645,645,645,645,645,645,645,645,645,645,645,645,645,645,645,645,529,530,531,532,645,645,645,645,645,645,645,645,645,645,645,645,645,645,645,245,246,247,248,225,226,227,228,645,645,645,645,645,645,645,645,645,645,645,645,645,645,645,645,645,645,629,630,631,645,645,645,645,645,645,645,645,437,438,439,440,645,645,645,645,645,677,678,679,645,645,645,645,645,597,598,609,610,611,612,613,614,615,616,617,619,620,101,201,202,72,73,74,228,645,645,645,649,650,651,652,645,645,645,645,645,645,645,641,642,643,644,645,645,645,645,529,530,531,532,645,645,645,645,645,645,437,438,439,440,645,645,645,645,645,597,598,599,645,645,645,709,710,711,645,645,645,645,645,645,645,645,645,645,645,645,645,645,653,654,655,656,645,645,645,645,645,645,725,726,727,728,645,645,645,645,565,566,567,645,645,645,645,677,678,679,645,645,645,645,645,645,645,645,645,645,645,257,258,259,260,645,645,645,645,645,645,645,645,645,645,645,645,533,534,535,645,645,645,645,645,645,645,645,645,
645,645,645,645,645,645,645,561,562,563,564,645,645,645,645,645,645,645,645,645,645,645,645,645,645,645,645,645,645,645,645,645,561,562,563,564,645,645,645,645,645,645,645,645,645,645,645,645,645,645,645,277,278,279,280,257,258,259,260,645,645,645,645,645,645,645,645,645,645,645,645,645,645,645,645,645,645,645,645,645,645,645,645,645,645,645,645,645,469,470,471,472,645,645,645,645,645,709,710,711,645,645,645,645,645,629,630,631,645,645,645,645,593,594,595,1,9,10,17,233,234,104,105,106,68,645,645,645,681,682,683,684,645,645,645,645,645,645,645,673,674,675,676,645,645,645,645,561,562,563,564,645,645,645,645,645,645,469,470,471,472,645,645,645,645,645,629,630,631,645,645,645,645,645,645,645,645,645,645,645,645,645,645,645,645,645,645,645,645,685,686,687,688,645,645,645,645,645,645,757,758,759,760,645,645,645,645,597,598,599,645,645,645,645,709,710,711,533,534,535,645,645,645,645,645,645,645,645,129,130,131,132,533,534,535,645,645,645,645,645,645,645,645,645,565,566,567,645,645,645,645,645,645,645,645,645,
645,645,645,645,645,645,645,593,594,595,596,645,645,645,645,645,645,645,645,645,645,645,645,645,645,645,645,645,645,645,645,645,593,594,595,596,645,645,645,513,514,515,516,517,518,519,520,521,522,523,524,309,310,311,312,65,66,67,68,645,645,645,645,645,645,645,645,645,645,645,645,645,645,645,645,645,645,645,645,645,645,645,645,645,645,649,650,651,501,502,503,504,645,645,645,645,645,645,645,645,645,645,645,645,645,645,645,645,645,645,645,645,625,626,627,65,72,72,72,72,72,136,137,138,20,394,395,396,397,393,394,395,396,397,392,393,394,395,396,397,392,393,394,395,396,397,400,593,594,595,596,645,645,645,645,645,645,501,502,503,504,645,645,645,645,645,645,645,645,645,645,645,645,645,645,645,645,645,645,645,645,645,645,645,677,678,679,645,645,717,718,719,720,645,645,645,645,645,645,645,645,645,645,645,645,645,645,629,630,631,645,645,645,645,645,645,645,565,566,567,645,645,645,645,645,649,650,651,161,162,163,164,565,566,567,645,645,645,645,645,645,645,645,645,597,598,599,645,645,645,645,645,645,645,645,645,
525,526,527,528,525,526,527,528,528,525,526,527,525,526,527,525,526,527,525,526,527,528,525,526,527,528,525,526,527,528,525,526,527,528,525,526,527,528,645,545,546,547,548,549,550,551,552,553,554,555,556,85,86,87,88,97,98,99,100,645,645,645,645,645,645,645,645,645,645,645,645,645,645,645,645,645,645,645,645,645,645,645,645,645,645,681,682,683,684,645,645,645,645,645,645,645,645,645,645,645,645,645,645,645,645,645,645,645,645,645,645,645,645,645,645,97,104,104,104,104,104,168,169,170,49,50,51,52,424,425,426,427,428,429,424,425,426,427,428,429,424,425,426,427,428,429,432,625,626,627,628,645,645,645,645,645,645,645,645,645,645,645,657,658,659,645,645,645,645,645,645,645,645,645,645,645,645,645,645,645,645,645,645,645,709,710,711,645,645,749,750,751,752,645,645,645,645,645,645,645,645,645,645,645,645,645,645,645,645,645,645,645,645,645,645,645,645,597,598,599,645,645,645,645,645,681,682,683,193,194,195,196,597,598,599,645,645,645,645,645,645,645,645,645,629,630,631,645,657,658,659,645,645,645,645,645,
557,558,559,560,557,558,559,560,560,557,558,559,557,558,559,557,558,559,557,558,559,560,557,558,559,560,557,558,559,560,557,558,559,560,557,558,559,560,645,577,578,579,580,581,582,583,584,585,586,587,588,117,118,119,120,129,130,131,132,645,645,645,645,645,645,645,645,529,530,531,532,645,645,645,645,645,645,645,645,645,645,645,645,645,645,713,714,715,716,645,645,645,645,645,645,645,645,645,645,533,534,535,645,645,645,645,645,645,645,645,645,645,645,645,645,129,136,136,136,136,136,200,201,202,81,82,83,84,456,457,458,459,460,461,456,457,458,459,460,461,456,457,458,459,460,461,464,645,645,533,534,535,645,645,645,645,645,645,645,645,645,645,689,690,691,692,645,645,645,645,645,645,645,645,645,645,645,657,658,659,645,645,645,645,645,645,645,645,645,645,645,645,645,645,645,645,645,645,645,645,645,645,645,645,645,649,650,651,652,645,645,661,662,663,664,645,645,629,630,631,645,645,645,645,645,713,714,715,225,226,227,228,629,630,631,645,645,645,645,645,645,645,645,645,645,645,645,645,689,690,691,692,645,645,645,645,
589,590,591,592,589,590,591,592,592,589,590,591,589,590,591,589,590,591,589,590,591,592,589,590,591,592,589,590,591,592,589,590,591,592,589,590,591,592,645,609,610,611,612,613,614,615,616,617,618,619,620,149,150,151,152,161,162,163,164,679,645,645,645,645,645,645,645,561,562,563,564,645,645,645,645,645,645,645,645,645,645,645,645,645,645,745,746,747,748,645,645,645,645,645,645,645,645,645,645,565,566,567,645,645,645,645,645,645,645,645,645,645,645,645,645,161,168,168,168,168,168,232,233,234,116,489,490,490,490,489,490,491,492,493,488,489,490,491,492,493,488,489,490,491,492,493,496,645,645,565,566,567,645,645,645,645,645,645,645,645,645,645,721,722,723,724,645,645,645,645,645,645,645,645,645,645,645,689,690,691,692,645,645,645,645,645,645,645,645,645,645,645,645,645,645,645,645,645,645,645,645,645,645,645,645,681,682,683,684,645,645,693,694,695,696,645,645,645,645,645,645,645,645,645,645,745,746,747,257,258,259,260,645,645,645,645,645,645,645,645,645,645,645,645,645,645,645,645,721,722,723,724,645,645,645,645,
621,622,623,624,621,622,623,624,624,621,622,623,621,622,623,621,622,623,621,622,623,624,621,622,623,624,621,622,623,624,621,622,623,624,621,622,623,624,645,645,645,645,645,645,645,645,645,645,645,645,645,181,182,183,184,193,194,195,196,711,645,645,645,645,645,645,645,593,594,595,596,645,645,645,645,645,645,645,645,645,645,645,645,645,645,645,645,645,645,645,645,645,645,645,645,645,645,645,645,597,598,599,645,645,645,645,645,645,645,645,645,645,645,645,645,193,200,200,200,200,200,232,233,234,196,645,645,645,645,645,645,645,645,657,658,659,645,645,645,645,645,645,645,645,645,645,645,645,645,597,598,599,645,645,645,641,642,643,644,645,645,645,645,645,645,645,645,645,645,645,645,533,534,535,645,645,645,721,722,723,724,645,645,645,645,645,645,645,661,662,663,664,645,645,645,645,645,641,642,643,644,645,645,645,645,713,714,715,716,645,645,725,726,727,728,645,645,645,645,645,645,645,645,645,645,645,645,645,97,98,99,100,645,645,645,645,645,645,645,649,650,651,652,645,645,645,645,645,645,645,645,645,645,645,645,645,
645,645,645,673,674,675,676,645,645,645,645,645,645,645,645,645,749,750,751,752,645,641,642,643,644,645,645,645,645,645,645,645,645,645,525,526,527,528,645,645,645,645,645,645,645,645,645,645,645,645,645,213,214,215,216,225,226,227,228,645,645,661,662,663,664,645,645,625,626,627,628,645,645,645,645,645,645,645,645,645,645,645,645,645,645,645,645,645,645,645,645,645,645,645,657,658,659,645,645,629,630,631,645,645,645,645,645,645,645,645,645,645,645,645,645,225,232,232,232,232,232,232,233,234,228,645,645,645,645,645,645,645,645,689,690,691,692,645,645,645,645,645,645,645,645,645,645,645,645,629,630,631,645,645,645,673,674,675,676,645,645,645,645,645,645,645,645,645,645,645,645,565,566,567,645,645,645,645,645,645,645,645,645,645,645,645,645,645,693,694,695,696,645,645,645,645,645,673,674,675,676,645,645,645,645,745,746,747,748,645,645,757,758,759,760,645,645,645,645,645,645,645,645,645,645,645,645,645,129,130,131,132,645,645,645,645,645,645,645,681,682,683,684,645,645,645,645,645,645,645,645,645,645,645,645,645,
645,645,645,705,706,707,708,645,645,645,645,645,645,645,645,645,645,645,645,645,645,673,674,675,676,645,645,645,641,642,643,644,645,645,557,558,559,560,645,645,645,645,645,645,645,645,645,645,645,645,645,85,86,87,88,257,258,259,260,645,645,693,694,695,696,645,645,645,645,645,645,645,645,645,645,645,645,645,645,645,645,645,645,645,645,645,645,645,645,645,645,645,645,645,689,690,691,692,645,645,645,645,645,645,645,645,645,645,645,645,645,645,645,645,645,65,71,72,73,74,75,76,77,78,260,692,645,645,645,645,645,645,645,721,722,723,724,645,645,645,645,645,645,645,645,645,645,645,645,645,645,645,645,645,645,705,706,707,708,645,645,645,645,645,645,645,645,645,645,645,645,597,598,599,645,645,645,645,645,645,645,645,645,645,645,645,645,645,725,726,727,728,645,645,645,645,645,705,706,707,708,645,645,645,645,645,645,645,645,645,645,645,645,645,645,645,645,645,21,22,23,24,645,645,645,645,645,645,161,162,163,164,645,645,645,645,645,645,645,713,714,715,716,645,645,645,645,645,645,645,645,645,645,645,645,645,
645,645,645,645,645,525,526,527,525,526,527,528,525,526,527,528,525,526,527,528,525,526,527,528,708,645,645,645,673,674,675,676,645,645,589,590,591,592,654,655,656,645,645,645,645,645,645,645,529,530,531,117,118,119,120,65,66,67,68,645,645,725,726,727,728,645,645,645,645,645,645,645,645,645,645,645,645,645,645,645,645,645,645,645,645,645,645,645,645,645,645,645,645,645,721,722,723,724,645,645,645,645,645,645,645,645,645,645,645,645,645,645,645,645,645,97,103,104,105,106,107,108,109,110,68,724,645,645,645,645,645,645,645,645,645,645,645,645,645,677,678,679,645,645,645,645,645,645,645,645,645,645,645,645,645,645,645,645,645,645,645,645,645,645,529,530,531,532,645,645,645,629,630,631,645,645,645,645,645,645,645,645,645,645,645,645,645,645,757,758,759,760,645,645,645,645,645,645,645,645,645,645,645,645,645,533,534,535,645,645,645,645,645,645,645,645,645,645,53,54,55,56,645,645,645,645,645,645,193,194,195,196,659,645,645,645,645,645,645,745,746,747,748,645,645,645,645,645,645,645,645,645,645,645,645,645,
645,645,645,645,645,557,558,559,557,558,559,560,557,558,559,560,557,558,559,560,557,558,559,560,645,645,645,645,705,706,707,708,645,645,621,622,623,624,686,687,688,645,645,645,645,645,645,645,561,562,563,149,150,151,152,97,98,99,100,645,645,757,758,759,760,645,645,645,645,645,645,645,645,529,530,531,532,645,533,534,535,653,654,655,656,656,645,645,645,645,645,645,645,645,645,645,645,645,645,645,645,645,645,649,650,651,652,645,645,645,645,645,657,658,659,129,135,136,137,138,139,140,116,365,368,645,645,645,645,645,645,645,645,645,645,645,645,645,645,709,710,711,645,645,645,645,645,645,645,645,645,645,645,645,645,645,645,645,645,645,645,645,645,645,561,562,563,564,645,645,645,645,645,645,645,645,645,645,645,645,645,645,645,645,645,645,645,645,645,645,645,645,645,645,645,645,645,645,645,645,645,645,645,645,645,565,566,567,645,645,645,645,645,645,645,645,645,645,85,86,87,88,645,645,645,645,645,645,225,226,227,228,691,692,645,645,645,645,645,645,645,645,645,645,645,645,645,645,645,645,645,645,645,645,645,645,
645,645,645,645,645,589,590,591,589,590,591,592,589,590,591,592,589,590,591,592,589,590,591,592,645,645,645,645,645,645,645,645,645,645,525,526,527,528,718,719,720,645,645,645,645,645,645,645,593,594,595,181,182,183,184,129,130,131,132,645,645,645,645,645,645,645,645,645,645,645,645,645,645,561,562,563,564,645,565,566,567,685,686,687,688,688,645,645,645,645,645,645,645,645,645,645,645,645,645,645,645,645,645,681,682,683,684,645,645,645,645,645,689,690,691,161,167,168,169,170,171,172,112,513,514,516,517,518,519,520,521,522,523,524,645,645,645,645,645,645,645,645,645,645,645,645,645,645,645,645,645,645,645,645,645,645,645,645,645,645,645,645,645,645,593,594,595,596,645,645,645,641,642,643,644,645,645,645,645,645,645,645,645,645,645,645,645,645,645,645,645,645,645,645,645,645,645,645,645,645,645,645,645,645,645,597,598,599,645,645,645,645,645,645,645,645,645,645,117,118,119,120,645,645,645,645,645,645,257,258,259,260,723,724,645,645,645,645,645,645,645,645,645,645,645,645,645,645,645,645,645,645,645,645,645,645,
645,645,645,645,645,621,622,623,621,622,623,624,621,622,623,624,621,622,623,624,621,622,623,624,645,645,645,645,645,645,645,645,645,645,557,558,559,560,750,657,658,659,645,645,645,645,645,645,625,626,627,213,214,215,216,161,162,163,164,645,645,645,645,645,645,645,645,645,645,645,645,645,645,593,594,595,596,645,597,598,599,717,718,719,720,720,645,645,645,645,645,645,645,645,645,645,645,645,645,645,645,645,645,713,714,715,716,645,645,645,645,645,721,722,723,193,199,200,201,202,203,204,112,545,546,548,549,550,551,552,553,554,555,556,530,531,532,645,645,645,645,645,645,645,645,645,645,645,645,645,645,645,645,645,645,645,645,645,645,645,645,645,645,645,625,626,627,628,645,645,645,673,674,675,676,645,645,385,394,395,396,397,397,394,395,396,397,398,399,399,392,393,394,395,396,397,398,399,392,393,394,395,396,397,398,399,392,393,394,395,396,397,398,399,400,645,645,645,149,150,151,152,534,535,645,645,645,645,129,130,131,132,645,645,645,645,645,645,645,645,645,645,645,645,645,645,645,645,645,645,645,645,645,645,645,645,
525,526,527,528,528,525,526,527,528,655,656,645,645,645,645,645,645,645,645,645,525,526,527,528,525,526,527,528,645,645,645,645,645,645,589,590,591,592,645,689,690,691,692,645,645,645,645,645,645,645,645,245,246,247,248,193,194,195,196,645,645,645,645,645,645,645,645,645,645,645,645,645,645,625,626,627,628,645,629,630,631,749,750,751,752,752,645,645,645,645,645,645,645,645,645,645,645,645,645,645,645,645,645,745,746,747,748,645,645,645,645,645,721,722,723,225,231,232,233,234,235,236,112,577,578,580,581,582,583,584,585,586,587,588,562,563,564,645,645,645,645,645,645,645,645,645,645,645,645,645,649,650,651,652,645,645,645,645,645,645,645,645,645,645,645,645,645,645,645,645,645,705,706,707,708,645,645,129,50,51,52,424,425,426,427,428,429,430,431,431,424,425,426,427,428,429,430,431,424,425,426,427,428,429,430,431,424,425,426,427,428,429,430,431,432,645,645,645,181,182,183,184,566,567,645,645,645,645,161,162,163,164,645,645,645,645,645,645,645,645,645,645,645,645,645,645,645,645,645,533,534,535,645,645,645,645,
557,558,559,560,560,557,558,559,560,687,688,645,645,645,645,645,645,645,645,645,557,558,559,560,557,558,559,560,645,645,645,645,645,645,621,622,623,624,645,721,722,723,724,645,645,645,645,645,645,645,645,85,86,87,88,225,226,227,228,645,645,645,645,645,645,677,678,679,645,645,645,645,645,645,645,645,513,514,515,516,517,518,519,520,521,522,516,517,518,519,520,521,522,516,517,518,519,520,521,522,516,517,518,519,520,521,522,523,524,645,645,645,645,645,645,257,263,264,265,266,267,268,144,609,610,612,613,614,615,616,617,618,619,620,594,595,596,645,645,645,645,645,645,645,645,645,645,645,645,645,681,682,683,684,645,645,645,645,661,662,663,664,645,645,645,645,645,645,645,645,645,645,645,645,645,645,645,161,82,83,84,456,457,458,459,460,461,462,463,463,456,457,458,459,460,461,462,463,456,457,458,459,460,461,462,463,456,457,458,459,460,461,462,463,464,652,645,645,213,214,215,216,598,599,645,645,645,645,193,194,195,196,645,645,645,645,645,645,641,642,643,644,645,645,645,645,645,645,645,565,566,567,645,645,645,645,
589,590,591,592,592,589,590,591,592,719,720,645,645,645,645,645,645,645,645,645,589,590,591,592,589,590,591,592,531,532,645,645,645,645,621,622,623,624,645,645,645,645,645,645,645,645,645,645,645,645,645,117,118,119,120,257,258,259,260,645,645,645,645,645,645,709,710,711,645,645,645,645,645,645,645,645,545,546,547,548,549,550,551,552,553,554,548,549,550,551,552,553,554,548,549,550,551,552,553,554,548,549,550,551,552,553,554,555,556,645,645,645,645,645,645,289,295,296,297,298,299,300,20,10,4,645,645,645,645,645,645,645,645,625,626,627,628,645,645,645,645,645,645,645,645,657,658,659,645,645,713,714,715,716,645,645,645,645,693,694,695,696,645,645,645,645,645,645,645,645,645,645,645,645,645,645,645,193,114,115,116,488,489,490,491,492,493,494,495,495,488,489,490,491,492,493,494,495,488,489,490,491,492,493,494,495,488,489,490,491,492,493,494,495,496,684,645,645,245,246,247,248,630,631,645,645,645,645,225,226,227,228,645,645,645,645,645,645,673,674,675,676,645,645,645,645,645,645,645,597,598,599,645,645,645,645,
645,645,645,645,645,645,645,645,645,645,645,645,645,645,645,645,645,645,645,645,645,622,623,624,621,622,623,624,563,564,645,645,645,645,525,526,527,528,645,645,645,645,645,645,645,645,645,645,645,645,645,149,150,151,152,65,66,67,68,645,645,645,645,645,645,645,645,645,645,645,645,645,645,645,645,645,577,578,579,580,581,582,583,584,585,586,580,581,582,583,584,585,586,580,581,582,583,584,585,586,580,581,582,583,584,585,586,587,588,645,645,645,645,645,645,65,71,72,73,74,75,76,77,78,68,645,645,645,645,645,645,645,645,645,645,645,645,645,645,645,645,645,645,645,645,689,690,691,692,645,745,746,747,748,645,645,645,645,725,726,727,728,645,645,645,645,645,645,645,645,645,645,645,645,645,645,645,193,98,99,100,645,645,645,645,645,645,645,645,713,714,715,716,645,645,629,630,631,645,645,645,645,645,645,645,645,645,645,645,645,645,645,713,714,715,716,645,645,277,278,279,280,645,645,645,645,645,645,257,258,259,260,534,535,645,645,645,645,705,706,707,708,645,645,645,645,645,645,645,629,630,631,645,645,645,645,
645,645,645,645,645,645,645,645,645,645,645,645,645,645,645,645,645,645,645,645,645,645,645,645,525,526,527,528,595,596,645,645,645,645,557,558,559,560,645,645,645,645,645,645,661,662,663,664,645,645,645,181,182,183,184,97,98,99,100,645,645,645,645,645,645,645,645,645,645,645,645,645,645,645,645,645,609,610,611,612,613,614,615,616,617,618,612,613,614,615,616,617,618,612,613,614,615,616,617,618,612,613,614,615,616,617,618,619,620,645,645,645,645,645,645,97,103,104,105,106,107,108,109,110,68,645,645,645,645,645,645,645,645,645,645,645,645,645,645,645,645,645,645,645,645,721,722,723,724,645,645,645,645,645,645,645,645,645,757,758,759,760,645,645,533,534,535,645,645,645,645,645,641,642,643,644,645,193,130,131,132,645,645,645,645,645,645,645,645,745,746,747,748,645,645,645,645,645,645,645,645,645,645,645,645,645,645,645,645,645,645,645,745,746,747,748,645,645,309,310,311,312,661,662,663,664,645,645,97,98,99,100,566,567,645,645,645,645,645,645,645,645,645,645,645,645,645,645,645,645,645,645,645,645,645,645,
645,645,645,645,645,645,645,645,645,645,645,645,645,645,645,645,645,645,645,645,645,645,645,645,557,558,559,560,627,628,645,645,645,645,589,590,591,592,645,645,645,645,645,645,693,694,695,696,645,645,645,213,214,215,216,129,130,131,132,657,658,659,645,645,645,645,645,645,645,645,645,645,645,645,645,645,645,645,645,645,645,645,645,645,645,645,645,645,645,645,645,645,645,645,645,645,645,645,645,645,689,690,691,692,645,645,645,645,645,645,645,645,645,645,645,129,135,136,137,138,139,140,141,142,68,645,645,677,678,679,645,645,645,645,645,645,645,645,645,645,645,645,645,645,645,645,645,645,645,645,645,645,645,645,645,645,645,645,645,645,645,645,645,645,565,566,567,645,645,645,645,645,673,674,675,676,645,161,162,163,164,645,645,645,645,645,645,645,645,645,645,645,645,645,645,645,645,645,645,645,645,645,645,645,645,645,645,533,534,535,645,645,645,645,645,645,645,645,341,342,343,344,693,694,695,696,645,645,129,130,131,132,598,599,645,645,645,645,645,645,645,645,657,658,659,645,645,645,645,645,645,645,645,645,645,645,
645,645,645,645,645,645,645,645,645,645,645,645,645,645,645,645,645,645,645,645,645,645,645,645,589,590,591,592,645,645,645,645,645,645,621,622,623,624,645,645,645,645,645,645,725,726,727,728,645,645,645,245,246,247,248,161,162,163,164,689,690,691,692,645,645,645,645,645,645,645,645,645,645,405,406,407,408,389,392,393,394,395,396,397,393,394,395,396,397,392,393,394,395,396,397,393,394,395,396,397,392,393,394,395,396,397,392,393,394,395,396,393,394,395,396,17,167,168,169,170,171,172,173,174,68,645,645,709,710,711,645,645,645,645,645,529,530,531,532,645,645,645,645,645,645,645,645,645,645,645,645,645,645,645,645,645,645,645,645,645,645,645,645,645,597,598,599,645,645,645,645,645,705,706,707,708,645,193,194,195,196,645,645,645,645,533,534,535,645,645,645,645,645,645,645,645,645,645,645,645,645,645,645,645,645,645,645,565,566,567,645,645,645,645,645,645,645,645,373,374,375,376,725,726,727,728,645,645,161,162,163,164,630,631,645,645,645,645,645,645,645,645,689,690,691,692,645,645,645,645,645,645,645,645,645,645,
645,645,645,645,645,645,645,645,645,645,645,645,645,645,645,645,645,645,645,645,645,645,645,645,621,622,623,624,645,645,645,645,645,645,525,526,527,528,645,645,645,645,645,645,757,758,759,760,645,645,645,277,278,279,280,193,194,195,196,721,722,723,724,645,645,645,645,645,645,645,645,645,645,437,438,439,440,421,424,425,426,427,428,429,425,426,427,428,429,424,425,426,427,428,429,425,426,427,428,429,424,425,426,427,428,429,424,425,426,427,428,429,49,50,51,52,71,72,73,74,75,76,77,78,68,645,645,645,645,645,645,645,645,645,645,561,562,563,564,645,645,645,645,645,645,645,645,645,645,645,645,645,645,645,645,645,645,645,645,645,645,645,645,645,629,630,631,645,645,645,645,645,645,645,645,645,645,225,226,227,228,645,645,645,645,565,566,567,645,645,645,645,645,645,645,645,645,645,645,645,645,645,645,645,645,645,645,597,598,599,645,645,645,645,645,645,645,645,645,645,645,645,757,758,759,760,645,645,193,194,195,196,645,645,645,645,645,645,645,645,645,645,721,722,723,724,645,645,645,645,645,645,645,645,645,645,
645,645,645,645,557,558,559,560,557,558,559,560,557,558,559,560,557,558,559,560,645,645,645,645,525,526,527,528,645,645,645,645,645,645,557,558,559,560,645,645,645,645,645,645,645,645,645,645,645,645,645,309,310,311,312,225,226,227,228,645,645,645,645,645,645,645,645,645,645,645,645,645,645,469,470,471,472,453,456,457,458,459,460,461,457,458,459,460,461,456,457,458,459,460,461,457,458,459,460,461,456,457,458,459,460,461,456,457,458,459,460,461,81,82,83,84,103,104,105,106,107,108,109,110,100,645,645,645,645,645,645,645,645,645,645,593,594,595,596,645,645,645,645,645,645,645,645,645,645,645,645,645,645,533,534,535,645,645,645,645,645,645,645,645,645,645,645,645,645,645,645,645,645,645,645,645,645,257,258,259,260,645,645,645,645,597,598,599,645,645,645,645,645,645,645,645,645,645,677,678,679,645,645,645,645,645,645,629,630,631,645,645,645,645,645,645,641,642,643,644,645,645,645,645,645,645,645,645,225,226,227,228,645,645,645,645,645,645,645,645,645,645,645,645,645,645,645,645,645,645,645,645,645,645,645,645,
645,645,645,645,589,590,591,592,589,590,591,592,589,590,591,592,589,590,591,592,645,645,645,645,557,558,559,560,645,645,645,645,645,645,589,590,591,592,529,530,531,532,645,645,645,645,645,645,645,645,645,277,278,279,280,257,258,259,260,645,645,645,645,645,645,645,645,645,645,645,645,645,645,501,502,503,504,485,488,489,490,491,492,493,489,490,491,492,493,488,489,490,491,492,493,489,490,491,492,493,488,489,490,491,492,493,488,489,490,491,492,488,488,488,489,113,135,136,137,138,139,140,141,142,132,645,645,645,645,645,645,645,645,645,645,625,626,627,628,645,645,645,645,645,645,645,645,645,645,645,645,645,645,565,566,567,645,645,645,645,645,645,645,645,645,645,645,645,645,645,645,645,645,645,645,645,645,97,98,99,100,645,645,645,645,629,630,631,645,645,645,645,661,662,663,664,645,645,709,710,711,645,645,645,645,645,645,645,645,645,645,645,645,645,645,645,673,674,675,676,645,645,645,645,645,645,645,645,257,258,259,260,645,645,645,645,645,645,645,645,645,645,645,645,645,645,645,645,645,645,645,645,645,645,645,645,
645,645,645,645,621,622,623,624,621,622,623,624,621,622,623,624,621,622,623,624,645,645,645,645,589,590,645,645,645,645,645,645,645,645,621,622,623,624,561,562,563,564,645,645,645,645,645,645,645,645,645,85,86,87,88,65,66,67,68,645,645,645,645,645,529,530,531,532,645,645,645,645,645,645,645,645,645,645,645,645,645,629,630,631,645,645,645,645,645,645,645,645,645,645,645,645,645,645,645,645,645,645,645,645,561,562,563,564,645,645,645,721,722,723,724,289,167,168,169,170,171,172,173,174,164,645,645,645,645,645,645,657,658,659,645,645,645,645,645,645,661,662,663,664,645,645,645,645,645,645,645,645,645,597,598,599,645,645,645,645,645,645,645,645,645,645,645,645,645,645,645,645,645,645,645,645,645,129,130,131,132,645,645,645,645,645,645,645,645,645,645,645,693,694,695,696,645,645,645,645,645,645,645,645,645,645,645,645,645,645,645,645,645,645,645,645,705,706,707,708,645,645,645,645,645,645,645,645,97,98,99,100,645,645,645,645,645,645,645,645,645,645,645,645,645,645,645,645,645,645,645,645,645,645,645,645,
645,645,645,645,525,526,527,528,713,714,715,716,645,645,645,645,645,645,645,645,645,645,645,645,621,622,645,645,645,652,645,645,645,645,525,526,527,528,593,594,595,596,645,645,645,645,677,678,679,645,645,117,118,119,120,97,98,99,100,645,645,645,645,645,561,562,563,564,645,645,645,645,645,645,645,645,513,514,515,516,517,518,519,520,521,522,516,517,518,519,520,521,522,516,517,518,519,520,521,522,516,517,518,519,520,521,522,523,524,645,645,645,645,645,645,65,199,200,201,202,203,204,205,206,196,645,677,678,679,645,645,689,690,691,692,645,645,645,645,645,693,694,695,696,645,645,645,645,645,645,645,645,645,629,630,631,645,645,645,645,645,645,649,650,651,652,645,645,645,645,645,645,645,645,645,645,645,161,162,163,164,645,645,645,645,645,645,645,645,645,645,645,725,726,727,728,645,645,645,645,645,645,645,645,645,645,645,645,645,661,662,663,664,645,645,645,645,645,645,645,645,645,645,645,533,534,535,645,129,130,131,132,645,649,650,651,652,645,645,645,645,645,533,534,535,645,645,645,645,645,645,645,645,645,645,645,
645,645,645,645,557,558,559,560,745,746,747,748,645,645,645,645,645,645,645,645,645,645,645,645,645,645,645,645,645,645,645,645,645,645,557,558,559,560,625,626,627,628,645,645,645,645,709,710,711,645,645,149,150,151,152,129,130,131,132,645,645,645,645,645,593,594,595,596,645,645,645,645,645,645,645,645,545,546,547,548,549,550,551,552,553,554,548,549,550,551,552,553,554,548,549,550,551,552,553,554,548,549,550,551,552,553,554,555,556,645,645,645,645,645,645,97,231,232,233,234,235,236,237,238,228,645,709,710,711,645,645,721,722,723,724,645,645,645,645,645,725,726,727,728,645,645,645,645,645,645,645,645,645,645,645,645,645,645,645,645,645,645,681,682,683,684,645,645,645,645,645,645,645,645,645,645,645,193,194,195,196,532,645,645,645,645,645,645,645,645,645,645,757,758,759,760,645,645,533,534,535,645,645,645,645,645,645,645,645,693,694,695,696,645,645,645,645,645,645,645,645,645,645,645,565,566,567,645,161,162,163,164,645,681,682,683,684,645,645,645,645,645,565,566,567,645,645,645,645,677,678,679,645,645,645,645,
645,645,645,645,589,590,591,592,645,645,645,645,657,658,659,645,645,645,645,645,645,645,645,645,645,645,645,645,645,645,645,645,645,645,589,590,591,592,645,645,645,645,645,645,645,645,645,645,645,645,645,181,182,183,184,161,162,163,164,645,645,645,645,645,625,626,627,628,645,645,645,645,645,645,645,645,577,578,579,580,581,582,583,584,585,586,580,581,582,583,584,585,586,580,581,582,583,584,585,586,580,581,582,583,584,585,586,587,588,645,645,645,645,645,645,129,263,264,265,266,267,268,269,270,260,645,645,645,645,645,645,645,645,645,645,645,645,645,645,645,757,758,759,760,645,645,645,653,654,655,656,645,645,645,645,645,645,645,645,645,645,645,713,714,715,716,645,645,645,645,645,645,645,645,645,645,645,225,226,227,228,564,645,645,645,645,645,645,645,645,645,645,645,645,645,645,645,645,565,566,567,645,645,645,645,645,645,645,645,725,726,727,728,645,645,645,645,645,645,645,641,642,643,644,597,598,599,645,193,194,195,196,645,713,714,715,716,645,645,645,645,645,597,598,599,645,645,645,645,709,710,711,645,645,645,645,
645,645,645,645,621,622,623,624,645,645,645,645,689,690,691,692,645,645,645,645,645,645,645,645,645,645,645,645,645,645,525,526,527,528,525,526,527,528,645,645,645,645,645,645,645,645,645,645,645,645,645,213,214,215,216,193,194,195,196,645,645,645,645,645,645,645,645,645,645,645,645,645,645,645,645,645,609,610,611,612,613,614,615,616,617,618,612,613,614,615,616,617,618,612,613,614,615,616,617,618,612,613,614,615,616,617,618,619,620,645,645,645,645,645,645,161,295,296,297,298,299,300,301,302,68,645,645,645,645,645,645,645,645,645,645,645,645,645,645,645,645,645,645,645,645,645,645,685,686,687,688,645,645,645,645,645,645,645,645,645,645,645,745,746,747,748,645,645,645,645,645,645,645,645,645,645,645,257,258,259,260,596,645,645,645,645,645,645,645,645,645,645,645,645,645,645,645,645,597,598,599,645,645,645,645,645,645,645,645,757,758,759,760,645,645,645,645,645,645,645,673,674,675,676,629,630,631,645,225,226,227,228,645,745,746,747,748,645,645,645,645,645,629,630,631,645,645,645,645,645,645,645,645,645,645,645,
645,645,645,645,525,526,527,528,528,525,526,527,528,525,526,527,528,645,645,645,645,645,645,645,645,645,645,645,645,645,557,558,559,560,557,558,559,560,645,645,645,645,645,645,645,645,645,645,645,645,645,245,246,247,248,225,226,227,228,645,645,645,645,645,645,645,645,645,645,645,645,645,533,534,535,645,645,645,657,658,659,645,645,645,645,645,645,625,626,627,628,645,645,645,645,645,645,645,645,645,645,645,645,645,645,645,645,645,645,645,645,645,645,645,645,193,71,72,73,74,75,76,77,78,68,645,645,645,645,645,645,645,645,645,645,645,645,645,645,645,645,645,645,645,645,645,645,717,718,719,720,645,645,645,645,645,641,642,643,644,645,645,645,645,645,645,645,645,533,534,535,645,645,645,645,645,645,97,98,99,100,628,645,645,645,645,645,645,645,645,645,645,645,645,645,645,645,645,629,630,631,645,645,661,662,663,664,645,645,645,645,645,645,645,645,645,645,645,645,645,705,706,707,708,645,645,645,645,257,258,259,260,645,645,645,645,645,645,645,645,645,645,645,645,645,645,645,645,645,645,645,645,645,645,645,645,
645,645,645,645,557,558,559,560,560,557,558,559,560,557,558,559,560,645,645,645,645,645,645,645,645,645,645,645,645,645,589,590,591,592,589,590,591,592,645,645,645,645,645,645,645,645,645,645,645,645,645,85,86,87,88,257,258,259,260,645,645,645,645,645,645,645,645,645,645,645,645,645,565,566,567,645,645,645,689,690,691,692,645,645,645,645,645,645,645,645,645,645,645,645,645,645,645,645,645,645,645,645,645,645,645,645,645,645,645,645,645,645,645,645,645,225,103,104,105,106,107,108,109,110,68,645,529,530,531,532,645,645,645,645,645,645,645,645,645,645,645,645,645,645,645,645,645,749,750,751,752,645,645,645,645,645,673,674,675,676,645,645,645,645,645,645,645,645,565,566,567,645,645,645,645,645,645,129,130,131,132,645,645,645,645,645,645,645,645,641,642,643,644,645,645,645,645,645,645,645,645,645,645,693,694,695,696,645,645,645,645,645,645,645,645,645,645,533,534,535,645,645,645,645,645,645,645,645,97,98,99,100,645,645,645,645,645,645,645,645,645,645,657,658,659,645,645,645,645,645,645,645,645,645,645,645,
645,645,645,645,589,590,591,592,592,589,590,591,592,589,590,591,592,645,645,645,645,645,645,645,645,645,645,645,645,645,621,622,623,624,621,622,623,624,645,645,645,645,645,645,645,645,645,645,645,645,645,117,118,119,120,65,66,67,68,645,645,645,645,645,645,645,645,645,645,645,645,645,597,598,599,645,645,645,721,722,723,724,645,645,645,645,645,645,645,645,645,645,645,645,645,645,645,645,645,645,645,645,645,645,645,645,645,645,645,645,645,645,645,645,645,257,135,136,137,138,139,140,141,142,68,645,561,562,563,564,645,645,645,645,645,645,645,645,645,645,645,645,645,645,645,645,645,645,645,645,645,645,645,645,645,645,705,706,707,708,645,645,645,645,645,645,645,645,597,598,599,645,645,645,645,645,645,161,162,163,164,645,645,645,645,645,645,645,645,673,674,675,676,645,645,645,645,645,645,645,645,645,645,725,726,727,728,645,645,645,645,645,645,645,645,645,645,565,566,567,645,645,645,645,645,645,645,645,129,130,131,132,645,645,645,645,645,645,645,645,645,645,689,690,691,692,645,645,645,645,645,645,645,645,645,645,
645,645,645,645,621,622,623,624,624,621,622,623,624,621,622,623,624,645,645,645,645,645,645,645,645,645,645,525,526,527,528,526,527,528,721,722,723,724,645,645,645,645,645,645,645,645,645,645,645,645,645,149,150,151,152,97,98,99,100,645,645,645,645,645,645,645,645,645,645,645,645,645,629,630,631,645,645,645,645,645,645,645,645,645,645,645,645,645,645,645,645,645,645,645,645,645,645,645,645,645,645,645,645,645,645,645,645,645,645,645,645,645,645,645,645,65,167,168,169,170,171,172,173,174,68,645,593,594,595,596,645,645,405,406,407,408,645,645,677,678,679,645,645,645,645,645,645,645,645,645,645,645,645,645,645,645,645,645,645,645,645,645,645,645,645,645,645,645,629,630,631,645,645,645,645,645,645,193,194,195,196,645,645,645,645,645,645,645,645,705,706,707,708,645,645,645,645,645,645,645,645,645,645,757,758,759,760,645,645,645,645,645,645,645,645,645,645,597,598,599,645,645,645,645,645,645,645,645,161,162,163,164,645,645,533,534,535,645,645,645,645,645,721,722,723,724,645,645,645,645,645,645,645,645,645,645,
645,645,645,645,645,645,645,645,645,645,645,645,645,525,526,527,528,525,526,527,528,645,645,645,645,645,645,557,558,559,560,558,559,560,645,645,645,645,645,645,645,645,645,529,530,531,532,645,645,645,645,181,182,183,184,129,130,131,132,645,645,645,645,645,645,645,645,645,645,645,645,645,645,645,645,645,645,645,645,645,645,645,645,661,662,663,664,645,645,645,645,645,645,645,645,645,645,645,645,645,645,645,645,645,529,530,531,532,645,645,645,645,645,645,645,97,199,200,201,202,203,204,205,206,68,645,625,626,627,628,645,645,437,438,439,440,645,645,709,710,711,645,645,645,645,645,645,645,645,645,645,645,645,645,645,645,645,645,645,645,645,645,645,645,645,645,645,645,645,645,645,645,645,641,642,643,644,225,226,227,228,645,645,645,645,645,645,645,645,645,645,645,645,645,645,645,645,645,653,654,655,656,645,645,645,645,645,645,645,645,645,645,645,645,645,645,645,629,630,631,645,645,645,645,645,645,645,645,193,194,195,196,645,645,565,566,567,645,645,645,645,645,645,645,645,645,645,645,645,645,657,658,659,645,645,645,
645,645,645,645,645,645,645,645,645,645,645,645,645,557,558,559,560,557,558,559,560,645,645,645,645,645,645,589,590,591,592,590,591,592,644,645,645,645,645,645,645,645,645,561,562,563,564,645,645,645,645,213,214,215,216,161,162,163,164,645,645,645,645,645,645,645,645,645,645,645,645,645,645,645,645,645,645,645,645,645,645,645,645,693,694,695,696,645,645,645,645,645,645,645,645,645,645,645,645,645,645,645,645,645,561,562,563,564,645,645,645,645,645,645,645,129,231,232,233,234,235,236,237,238,68,645,645,645,645,645,645,645,469,470,471,472,645,645,645,645,645,645,645,645,645,645,645,645,645,645,645,645,645,645,645,645,645,645,645,645,645,645,645,645,645,645,645,645,645,645,645,645,645,673,674,675,676,257,258,259,260,645,645,645,645,645,645,645,645,645,645,645,645,645,645,645,645,645,685,686,687,688,645,645,645,645,645,645,645,645,645,645,645,645,645,645,645,645,645,645,645,645,645,645,645,645,645,645,225,226,227,228,645,645,597,598,599,645,645,645,645,645,645,645,645,645,645,645,645,645,689,690,691,692,645,645,
645,645,645,645,645,645,645,645,645,645,645,645,645,645,590,591,592,589,590,591,592,645,645,645,645,645,645,621,622,623,624,622,623,624,676,645,645,645,645,645,645,645,645,593,594,595,596,645,645,645,645,85,86,87,88,193,194,195,196,645,645,645,645,645,645,645,645,645,645,645,645,645,645,645,529,530,531,532,645,645,645,645,645,725,726,727,728,645,645,645,645,645,645,645,645,645,645,645,645,645,645,645,645,645,593,594,595,596,645,645,645,645,645,645,645,161,263,264,265,266,267,268,269,270,68,645,645,645,645,645,645,645,501,502,503,504,645,645,645,645,645,645,645,645,645,645,645,645,645,645,645,645,645,645,645,645,645,645,645,645,645,645,645,645,645,645,645,645,645,645,645,645,645,705,706,707,708,97,98,99,100,645,645,645,645,645,645,645,645,645,645,645,645,645,645,645,645,645,717,718,719,720,645,645,645,645,645,645,645,645,645,645,645,677,678,679,645,645,645,645,645,645,645,645,645,645,645,677,257,258,259,260,645,645,629,630,631,645,645,645,645,645,645,645,645,645,645,645,645,645,721,722,723,724,645,645,
645,645,645,645,645,645,645,645,645,645,645,645,645,645,645,623,624,621,622,623,624,530,531,532,645,645,645,525,526,527,528,705,706,707,708,645,645,645,645,645,645,645,645,625,626,627,628,645,645,645,645,117,118,119,120,225,226,227,228,645,645,645,645,645,645,645,645,645,645,645,645,645,645,645,561,562,563,564,645,533,534,535,645,757,758,759,760,645,645,645,645,645,645,645,645,645,645,645,645,645,645,645,645,645,625,626,627,628,645,645,645,645,657,658,659,193,295,296,297,298,299,300,301,302,68,645,645,645,645,645,645,645,645,645,645,645,645,645,645,645,645,645,645,645,645,645,645,645,645,645,645,645,645,645,529,530,531,532,645,645,645,645,645,645,645,645,645,645,645,645,645,645,645,645,645,645,645,129,130,131,132,645,645,645,645,645,645,645,645,645,533,534,535,645,645,645,645,645,749,750,751,752,645,645,645,645,645,645,645,645,645,645,645,709,710,711,645,645,645,645,645,645,645,645,645,645,645,709,97,98,99,100,645,645,645,645,645,645,645,645,645,645,645,645,645,645,645,645,645,645,645,645,645,645,645,645,
645,645,645,645,645,645,645,645,645,645,645,645,645,645,645,653,654,525,526,527,528,562,563,564,645,645,645,557,558,559,560,645,645,645,645,645,645,645,645,645,645,645,645,645,645,645,645,645,645,645,645,149,150,151,152,257,258,259,260,645,645,645,645,645,645,645,645,645,645,529,530,531,532,645,593,594,595,596,645,565,566,567,645,645,645,645,645,645,645,645,645,645,645,645,645,645,645,645,645,645,645,645,645,645,645,645,645,645,645,645,645,645,689,690,691,225,71,72,73,74,75,76,77,78,68,645,645,645,645,645,645,645,645,645,645,645,645,645,645,645,645,645,645,645,645,645,645,645,645,645,645,645,645,645,561,562,563,564,645,645,645,645,645,645,645,645,645,645,645,645,645,645,645,645,645,645,645,161,162,163,164,645,645,645,645,645,645,645,645,645,565,566,567,645,645,645,645,645,645,645,645,645,645,645,645,645,645,645,645,645,645,645,645,645,645,645,645,645,645,645,645,645,645,645,645,645,645,645,129,130,131,132,645,645,645,645,645,641,642,643,644,645,645,645,645,645,645,645,645,645,645,645,645,645,645,645,
525,526,527,528,527,528,525,526,527,528,645,645,645,645,645,685,686,557,558,559,560,594,595,596,645,645,645,589,590,591,592,645,645,657,658,659,645,645,645,645,645,645,645,645,645,645,645,645,645,645,645,181,182,183,184,65,66,67,68,645,645,645,645,645,645,645,645,645,645,561,562,563,564,645,625,626,627,628,645,597,598,599,645,645,645,645,645,645,645,645,645,645,645,645,645,645,641,642,643,644,645,645,645,645,645,645,645,645,645,645,645,645,721,722,723,257,103,104,105,106,107,108,109,110,68,645,645,645,645,645,645,645,645,645,645,645,645,645,529,530,531,532,645,645,645,645,645,645,645,645,645,645,645,645,593,594,595,596,645,645,645,645,529,530,531,532,645,645,645,645,645,645,645,645,645,645,645,193,194,195,196,645,645,645,645,645,645,645,645,645,597,598,599,645,645,645,645,645,645,645,645,645,645,645,645,657,658,659,645,645,645,645,645,645,645,645,645,645,645,645,645,645,645,645,645,645,645,645,161,162,163,164,645,645,645,645,645,673,674,675,676,645,645,645,645,645,645,645,645,645,645,645,645,645,645,645,
557,558,559,560,559,560,557,558,559,560,645,645,645,645,645,717,718,589,590,591,592,626,627,628,645,645,645,621,622,623,624,645,645,689,690,691,692,645,645,645,645,645,645,645,645,645,645,645,645,645,645,213,214,215,216,97,98,99,100,645,645,645,645,645,645,645,645,645,645,593,594,595,596,645,645,645,645,645,645,629,630,631,645,645,645,645,645,645,645,645,645,653,654,655,656,645,673,674,675,676,645,645,645,645,645,645,645,645,645,645,645,645,645,645,645,289,135,136,137,138,139,140,141,142,68,645,645,645,645,645,645,645,649,650,651,652,645,645,561,562,563,564,645,645,645,645,529,530,531,532,645,645,645,645,625,626,627,628,645,645,645,645,561,562,563,564,645,645,645,645,645,645,645,645,645,645,533,225,226,227,228,645,529,530,531,532,645,645,645,645,629,630,631,645,645,657,658,659,645,645,645,645,645,645,645,689,690,691,692,645,645,645,645,645,645,645,645,645,645,645,645,645,645,645,645,645,645,645,193,194,195,196,645,645,645,645,645,705,706,707,708,645,645,645,645,645,645,645,645,645,645,645,645,645,645,645,
589,590,591,592,591,592,589,590,591,592,645,645,645,645,645,749,750,621,622,623,624,645,645,645,645,645,645,525,526,527,528,645,645,721,722,723,724,645,645,645,645,645,645,645,645,645,645,645,645,645,645,245,246,247,248,129,130,131,132,645,645,645,645,645,645,645,645,645,645,625,626,627,628,645,645,645,645,645,645,645,645,645,645,645,645,645,645,645,645,645,645,685,686,687,688,645,705,706,707,708,645,645,645,645,645,645,645,645,645,645,645,645,645,645,645,65,167,168,169,170,171,172,173,174,68,645,645,645,645,645,645,645,681,682,683,684,645,645,593,594,595,596,645,645,645,645,561,562,563,564,645,645,645,645,645,645,645,645,645,645,645,645,593,594,595,596,645,645,645,645,645,645,645,645,645,645,565,257,258,259,260,645,561,562,563,564,645,645,645,645,645,645,645,645,645,689,690,691,692,645,645,645,645,645,645,721,722,723,724,645,645,645,645,645,645,645,645,649,650,651,652,645,645,645,645,645,645,645,225,226,227,228,645,645,645,645,645,645,645,645,645,645,645,645,645,645,645,645,645,645,645,645,645,645,645,645,
621,622,623,624,623,624,621,622,623,624,645,645,645,645,645,645,645,525,526,527,528,645,645,645,645,645,645,557,558,559,560,645,645,645,645,645,645,645,645,645,645,645,645,645,645,645,645,641,642,643,644,277,278,279,280,161,162,163,164,645,645,645,645,645,645,645,645,645,645,645,645,645,645,645,645,645,645,645,645,645,645,645,645,645,645,645,645,645,645,645,645,717,718,719,720,645,645,645,645,645,645,645,645,645,645,645,645,645,645,649,650,651,652,645,645,97,199,200,201,202,203,204,205,206,68,645,645,645,645,645,645,645,713,714,715,716,645,645,625,626,627,628,645,645,645,645,593,594,595,596,645,645,645,645,645,645,645,645,645,645,645,645,625,626,627,628,645,645,645,645,645,645,645,645,645,645,597,97,98,99,100,645,593,594,595,596,645,645,645,645,645,645,645,645,645,721,722,723,724,645,645,645,645,645,645,645,645,645,645,645,645,645,645,645,645,645,645,681,682,683,684,645,645,645,645,645,661,662,257,258,259,260,645,645,645,645,645,645,645,645,645,645,645,645,645,645,645,645,645,645,645,645,645,645,645,645,
645,645,645,645,645,645,525,526,527,528,525,526,527,645,645,645,645,557,558,559,560,645,645,645,645,645,645,589,590,591,592,645,645,645,645,645,645,645,645,645,645,645,645,645,645,645,645,673,674,675,676,309,310,311,312,193,194,195,196,645,645,657,658,659,645,645,645,645,645,645,645,645,677,678,679,645,645,645,645,645,645,645,645,645,645,645,645,645,645,645,645,749,750,751,752,645,645,645,645,645,645,645,645,645,645,645,645,645,645,681,682,683,684,645,645,129,231,232,233,234,235,236,237,238,100,645,645,645,645,645,645,645,745,746,747,748,645,645,645,645,645,645,645,645,645,645,625,626,627,628,645,645,645,645,645,645,645,645,645,645,645,645,645,645,645,645,645,645,645,645,645,645,645,645,645,645,629,129,130,131,132,645,625,626,627,628,645,645,645,645,645,645,645,645,645,645,645,645,533,534,535,645,645,645,645,645,645,645,645,645,645,645,645,645,645,645,645,713,714,715,716,645,645,645,645,645,693,694,129,130,131,132,645,645,645,645,645,645,645,645,645,645,645,645,645,645,645,645,645,645,645,645,645,645,645,645,
645,645,645,645,645,645,557,558,559,560,557,558,559,645,645,645,645,589,590,591,592,645,645,645,645,645,645,621,622,623,624,645,645,645,645,645,645,645,645,645,645,645,645,645,645,645,645,705,706,707,708,341,342,343,344,225,226,227,164,645,645,689,690,691,692,645,645,645,645,645,645,645,709,710,711,645,645,645,645,645,645,645,645,645,645,645,645,645,645,645,645,645,645,645,645,645,645,645,645,645,645,645,645,645,645,645,645,645,645,713,714,715,716,645,645,161,263,264,265,266,267,268,269,270,132,645,645,645,645,645,645,645,645,645,645,645,645,645,645,645,645,645,645,645,645,645,645,645,645,645,645,645,645,645,645,645,645,645,645,645,645,645,645,645,645,645,645,645,645,645,645,645,645,645,645,645,645,161,162,163,164,645,645,645,645,645,645,645,645,645,645,645,645,645,645,645,645,645,565,566,567,645,645,645,645,645,645,645,645,645,645,645,645,645,645,645,645,745,746,747,748,645,645,645,645,645,725,726,161,162,163,164,645,645,645,645,645,645,645,645,645,645,645,645,645,645,645,677,678,679,645,645,645,645,645,645,
645,645,645,645,645,653,589,590,591,592,589,590,591,645,645,645,645,621,622,623,624,663,664,645,645,645,645,645,645,645,645,645,645,645,645,645,645,645,645,645,645,645,645,645,645,645,645,645,645,645,645,373,374,375,376,257,258,259,164,645,645,721,722,723,724,645,645,645,645,645,645,645,645,645,645,645,645,645,645,645,645,645,645,645,645,645,645,645,533,534,535,645,645,645,645,645,645,645,645,645,645,645,645,645,645,645,645,645,645,745,746,747,748,645,645,193,295,296,297,298,299,300,301,302,164,645,645,533,534,535,645,645,645,645,645,645,645,645,645,645,645,645,645,645,645,645,645,645,645,645,645,645,661,662,663,664,645,645,645,645,645,645,645,645,645,645,645,645,645,645,645,645,645,645,645,645,645,193,194,195,196,645,645,645,645,645,645,645,645,645,645,533,534,535,645,645,645,645,597,598,599,645,645,645,645,645,645,645,645,645,645,645,645,645,645,645,533,534,535,645,645,645,645,645,645,645,757,758,193,194,195,196,645,645,645,645,645,645,645,645,645,645,645,645,645,645,645,709,710,711,645,645,645,645,645,645,
645,645,645,645,645,685,621,622,623,624,621,622,623,645,645,645,645,525,526,527,528,695,696,645,389,393,394,395,396,397,398,393,394,395,396,397,398,393,394,395,396,397,398,393,394,395,396,397,398,393,394,395,396,397,398,17,18,19,164,645,645,645,645,645,645,645,645,645,645,645,645,645,645,645,645,645,645,645,645,645,645,645,645,645,645,645,645,645,565,566,567,645,645,645,645,645,645,645,645,645,645,645,645,645,645,677,678,679,645,645,645,645,645,645,645,225,71,72,73,74,75,76,77,78,196,645,645,565,566,567,645,645,645,645,645,645,645,645,645,645,645,645,645,645,645,645,645,645,645,645,645,645,693,694,695,696,645,645,645,645,645,645,645,645,645,645,645,645,645,645,645,661,662,663,664,645,645,225,226,227,228,645,645,645,645,645,645,645,645,645,645,565,566,567,645,645,645,645,629,630,631,645,645,645,645,645,645,533,534,535,645,645,645,645,645,645,565,566,567,645,645,645,645,645,645,645,645,645,225,226,227,228,645,645,645,649,650,651,652,645,645,645,645,645,645,645,645,645,645,645,645,645,645,645,645,645,
645,645,645,645,645,717,525,526,527,528,525,526,527,645,645,645,645,557,558,559,560,727,728,645,421,425,426,427,428,429,430,425,426,427,428,429,430,425,426,427,428,429,430,425,426,427,428,429,430,425,426,427,428,429,430,49,50,51,164,645,645,645,645,645,645,645,645,645,645,645,645,645,645,645,645,645,645,645,645,645,645,645,529,530,531,532,645,645,597,598,599,645,645,645,645,645,645,645,645,645,645,645,645,645,645,709,710,711,645,645,645,645,645,645,645,257,103,104,105,106,107,108,109,110,228,645,645,597,598,599,645,645,645,645,645,645,645,645,645,645,645,645,645,645,645,645,645,645,645,645,645,645,725,726,727,728,645,645,645,653,654,655,656,645,645,645,645,645,645,645,645,693,694,695,696,645,645,257,258,259,260,645,645,645,645,645,645,645,645,645,645,597,598,599,645,645,645,645,645,645,645,645,645,645,645,645,645,565,566,567,645,645,645,645,645,645,597,598,599,645,645,645,645,645,645,645,645,645,257,258,259,132,645,645,645,681,682,683,684,645,645,645,645,645,645,645,645,645,645,645,645,645,645,645,645,645,
645,645,645,645,645,749,557,558,559,560,557,558,559,645,645,645,645,589,590,591,592,759,760,645,453,457,458,459,460,461,462,457,458,459,460,461,462,457,458,459,460,461,462,457,458,459,460,461,462,457,458,459,460,461,462,81,82,83,196,645,645,645,645,645,645,645,645,645,645,645,645,645,645,645,645,645,645,645,645,645,645,645,561,562,563,564,645,645,629,630,631,645,645,645,649,650,651,652,645,645,645,645,645,645,645,645,645,645,645,645,645,645,645,645,645,65,135,136,137,138,139,140,141,142,20,394,395,396,397,393,394,395,396,397,398,392,393,394,395,396,397,398,392,392,393,394,395,396,397,398,392,393,394,395,396,397,398,392,393,394,395,396,397,398,392,393,394,395,396,397,398,392,393,394,395,396,397,17,18,19,20,392,393,394,395,396,392,393,394,395,396,397,392,393,394,395,396,397,392,393,394,395,396,397,397,392,393,394,395,396,397,392,393,394,395,396,397,392,393,394,395,396,392,393,394,395,396,397,17,18,19,132,645,645,645,713,714,715,716,645,645,645,645,645,645,645,645,645,645,645,645,645,645,645,645,645,
645,645,645,645,645,645,645,645,645,645,645,645,645,645,645,645,644,621,622,623,624,645,645,645,485,489,490,491,492,493,494,489,490,491,492,493,494,489,490,491,492,493,494,489,490,491,492,493,494,489,490,491,492,493,494,488,488,489,368,645,645,645,645,645,645,645,645,645,645,645,645,645,645,645,657,657,658,659,645,645,645,645,593,594,595,596,645,645,645,645,645,645,645,645,681,682,683,684,645,645,645,645,645,645,657,658,659,645,645,645,645,645,645,645,645,97,167,168,169,170,171,172,173,174,49,50,51,52,424,425,426,427,428,429,430,424,425,426,427,428,429,430,424,424,425,426,427,428,429,430,424,425,426,427,428,429,430,424,425,426,427,428,429,430,424,425,426,427,428,429,430,424,425,426,427,428,429,49,50,51,52,424,425,426,427,428,424,425,426,427,428,429,424,425,426,427,428,429,424,425,426,427,428,429,429,424,425,426,427,428,429,424,425,426,427,428,429,424,425,426,427,428,424,425,426,427,428,429,49,50,51,132,645,645,645,745,746,747,748,645,645,645,645,645,645,645,645,645,645,645,645,645,645,645,645,645,
645,645,645,645,645,645,645,645,645,645,645,645,645,645,645,645,676,525,526,527,528,645,645,645,645,645,645,645,645,645,645,645,645,645,645,645,645,749,750,751,752,645,645,645,645,645,593,594,595,596,645,645,645,645,689,690,691,692,645,645,529,530,531,532,645,645,645,645,645,645,645,645,645,645,689,689,690,691,692,645,645,645,625,626,627,628,645,645,645,645,645,645,645,645,713,714,715,716,645,645,645,645,645,645,689,690,691,692,645,645,645,645,645,645,645,129,199,200,201,202,203,204,205,206,81,82,83,84,456,457,458,459,460,461,462,456,457,458,459,460,461,462,456,456,457,458,459,460,461,462,456,457,458,459,460,461,462,456,457,458,459,460,461,462,456,457,458,459,460,461,462,456,457,458,459,460,461,81,82,83,84,456,457,458,459,460,456,457,458,459,460,461,456,457,458,459,460,461,456,457,458,459,460,461,461,456,457,458,459,460,461,456,457,458,459,460,461,456,457,458,459,460,456,457,458,459,460,461,81,82,83,132,645,645,645,645,645,645,645,645,645,645,645,645,645,645,645,645,645,533,534,535,645,645,645,645,
645,645,645,645,645,645,645,645,645,645,645,645,645,645,645,645,708,557,558,559,560,645,645,645,645,645,645,645,645,645,645,645,645,645,645,645,645,645,645,645,645,645,645,645,645,645,625,626,627,628,645,645,645,645,721,722,723,724,645,645,561,562,563,564,645,645,645,645,645,645,645,645,645,645,721,721,722,723,724,645,645,645,645,645,645,645,645,645,645,645,645,645,645,645,745,746,747,748,645,645,645,645,645,645,721,722,723,724,645,645,645,645,645,645,645,161,231,232,233,234,235,236,237,238,116,490,490,490,490,489,490,491,492,493,494,488,489,490,491,492,493,494,488,488,489,490,491,492,493,494,488,489,490,491,492,493,494,488,489,490,491,492,493,494,488,489,490,491,492,493,494,488,489,490,491,492,493,113,114,115,116,488,489,490,491,492,488,489,490,491,492,493,488,489,490,491,492,493,488,489,490,491,492,493,493,488,489,490,491,492,493,488,489,490,491,492,493,488,489,490,491,492,488,489,490,491,492,493,113,114,115,132,645,645,645,645,645,645,645,645,645,645,645,645,645,645,645,645,645,565,566,567,645,645,645,645,
645,645,645,645,645,645,645,645,645,645,645,645,645,645,645,645,645,589,590,591,592,645,645,645,645,645,645,645,645,645,645,645,645,645,645,645,645,645,645,645,645,645,645,645,645,645,645,645,645,645,645,645,645,645,645,645,645,645,645,645,593,594,595,596,645,645,645,645,645,645,645,645,645,645,645,645,645,645,645,645,645,645,645,645,645,645,645,645,645,645,645,645,645,645,645,645,645,645,645,645,645,645,645,645,645,645,645,645,645,645,645,645,645,645,645,193,263,264,265,266,267,268,269,270,164,684,645,645,645,645,645,709,710,711,645,645,645,645,752,645,645,645,645,645,645,645,645,593,594,595,596,645,645,645,645,645,645,645,645,645,645,645,645,645,645,645,645,645,645,645,645,645,645,593,594,595,596,161,162,163,164,645,645,645,645,645,645,645,645,645,561,562,563,564,645,645,645,645,645,645,645,645,645,645,645,645,645,645,645,645,645,645,645,645,645,645,645,645,645,645,645,645,645,645,645,645,645,645,97,98,99,164,645,645,645,645,645,645,645,645,645,645,645,645,645,645,645,645,645,597,598,599,645,645,645,645,
645,645,645,645,645,645,645,645,645,645,645,645,645,645,645,645,645,621,622,623,624,645,645,645,645,645,645,645,645,645,645,645,645,645,645,645,645,645,645,645,645,645,645,645,645,645,645,645,645,645,645,645,645,645,645,645,645,645,645,645,625,626,627,628,645,645,645,645,645,645,645,645,645,645,645,645,645,645,645,645,645,645,645,645,645,645,645,645,645,645,645,661,662,663,664,645,645,645,645,645,641,642,643,644,645,645,645,645,645,645,645,645,645,645,645,225,295,296,297,298,299,300,301,302,196,716,645,645,645,645,645,645,645,645,645,645,645,645,645,645,645,645,645,645,645,645,645,625,626,627,628,645,645,645,645,645,645,645,645,645,645,645,645,645,645,645,645,645,645,645,645,645,645,625,626,627,628,129,130,131,132,645,645,645,645,645,645,645,645,645,593,594,595,596,645,645,645,645,645,645,645,645,645,645,645,645,645,645,645,645,645,645,645,645,645,645,645,645,645,645,645,645,645,645,645,645,645,645,129,130,131,132,645,645,645,645,645,657,658,659,645,645,645,645,645,645,645,645,645,629,630,631,645,645,645,645,
645,645,645,645,645,525,526,527,528,525,526,527,528,525,526,527,528,525,526,527,528,526,527,528,525,526,527,528,525,526,527,528,525,526,527,528,525,526,527,528,525,526,527,528,645,645,645,645,645,645,645,645,645,645,645,645,645,645,645,645,645,645,645,645,645,645,645,645,645,529,530,531,532,645,645,645,645,645,645,645,645,645,645,645,645,645,533,534,535,645,645,693,694,695,696,645,645,645,645,645,673,674,675,676,645,645,645,645,645,645,645,645,645,645,645,257,71,72,73,74,75,76,77,78,68,748,645,645,645,645,645,645,645,645,645,645,653,654,655,656,645,645,645,645,645,645,645,645,645,645,645,645,645,645,645,645,645,645,645,645,529,530,531,532,645,645,645,645,645,645,645,645,645,645,645,645,645,161,162,163,164,645,645,645,645,645,645,645,645,645,625,626,627,628,645,645,645,645,645,645,645,645,645,645,645,677,678,679,645,645,645,645,645,645,645,645,645,645,645,645,645,645,645,645,645,645,645,645,161,162,163,164,645,645,645,645,645,689,690,691,692,645,645,645,645,645,645,645,657,658,659,645,645,645,645,645,
645,645,645,645,645,557,558,559,560,557,558,559,560,557,558,559,560,557,558,559,560,558,559,560,557,558,559,560,557,558,559,560,557,558,559,560,557,558,559,560,557,558,559,560,645,645,645,645,645,645,645,645,645,645,645,645,645,649,650,651,652,645,645,645,645,645,645,645,645,561,562,563,564,645,645,645,645,645,645,645,677,678,679,645,645,645,565,566,567,645,645,725,726,727,728,645,645,645,645,645,705,706,707,708,645,645,645,645,529,530,531,532,645,645,645,65,103,104,105,106,107,108,109,110,100,645,645,645,645,645,645,645,645,645,645,645,685,686,687,688,645,645,645,645,645,645,645,645,645,645,645,645,645,645,645,645,645,645,645,645,561,562,563,564,645,645,645,645,645,645,645,645,645,645,645,645,645,161,162,163,164,645,645,645,645,645,645,645,645,645,645,645,645,645,645,645,645,645,645,645,645,645,645,645,645,709,710,711,645,645,645,645,645,645,645,645,645,645,645,645,645,641,642,643,644,645,645,645,193,194,195,196,645,645,645,645,645,721,722,723,724,645,645,645,645,645,645,645,689,690,691,692,645,645,645,645,
645,645,645,645,645,589,590,591,592,589,590,591,592,589,590,591,592,589,590,591,592,590,591,592,589,590,591,592,589,590,591,592,589,590,591,592,589,590,591,592,589,590,591,592,645,645,645,645,645,645,645,645,645,645,645,645,645,681,682,683,684,645,645,645,645,645,645,645,645,593,594,595,596,645,645,645,645,645,645,645,709,710,711,645,645,645,597,598,599,645,645,757,758,759,760,645,645,645,645,645,645,645,645,645,645,645,645,645,561,562,563,564,645,645,645,97,135,136,137,138,139,140,141,142,132,663,664,645,645,645,645,645,645,645,645,645,717,718,719,720,645,645,645,645,645,529,530,531,532,645,645,645,645,645,645,645,645,645,645,645,593,594,595,596,645,645,645,645,645,645,645,645,645,645,645,645,645,129,130,131,132,641,642,643,644,645,645,645,645,645,645,645,645,645,645,645,645,645,645,645,645,645,645,645,645,645,645,645,645,645,645,645,645,645,645,645,645,645,645,645,645,673,674,675,676,645,645,645,225,226,227,228,645,645,645,645,645,645,645,645,645,645,645,645,645,645,645,645,721,722,723,724,645,645,645,645,
645,645,645,645,645,645,645,645,645,645,645,645,645,645,645,645,645,645,645,645,645,645,645,645,645,645,645,645,645,645,645,645,645,645,645,645,645,645,645,645,621,622,623,624,645,645,645,645,645,645,645,645,645,645,645,645,645,713,714,715,716,645,645,645,645,645,645,645,645,625,626,627,628,645,645,645,645,645,645,645,645,645,645,645,645,645,629,630,631,645,645,645,645,645,645,645,645,645,645,645,645,645,645,645,645,645,645,645,593,594,595,596,645,645,645,129,167,168,169,170,171,172,173,174,164,695,696,645,645,645,645,645,645,645,645,645,749,750,751,752,645,645,645,645,645,561,562,563,564,645,645,645,645,645,645,645,645,645,645,645,625,626,627,628,645,645,645,645,645,653,654,655,656,645,645,645,645,161,162,163,164,673,674,675,676,645,645,645,645,645,645,645,645,645,645,645,641,642,643,644,645,645,645,645,645,645,645,645,645,645,645,645,645,645,645,645,645,645,645,645,645,705,706,707,708,645,645,645,257,258,259,260,645,645,645,645,645,645,645,645,645,645,645,645,645,645,645,645,645,645,645,645,645,645,645,645,
645,645,645,645,645,645,645,645,645,645,645,645,645,645,645,645,645,645,645,645,645,645,645,645,645,645,645,645,645,645,645,645,645,645,645,645,645,645,645,645,525,526,527,528,525,526,527,528,525,526,527,528,645,645,645,645,645,745,746,747,748,645,645,645,645,645,645,645,645,645,645,645,645,645,645,645,645,645,645,645,645,645,645,645,645,645,645,645,645,645,645,645,645,645,645,645,645,645,645,645,645,645,645,645,645,645,645,645,625,626,627,628,645,645,645,161,199,200,201,202,203,204,205,206,196,727,728,645,645,645,645,645,645,645,645,645,645,645,645,645,645,645,645,645,645,593,594,595,596,645,645,645,645,645,645,645,645,661,662,663,664,645,645,645,645,645,645,645,645,685,686,687,688,645,645,645,645,193,194,195,196,705,706,707,708,645,645,645,645,645,645,645,645,645,645,645,673,674,675,676,645,645,645,645,645,645,645,645,645,645,661,662,663,664,645,645,645,645,645,645,645,645,645,645,645,645,645,645,97,98,99,100,645,645,645,645,645,645,645,645,641,642,643,644,645,645,645,645,645,645,645,645,645,645,645,645,
645,645,645,645,645,645,645,645,645,645,645,645,645,645,645,645,645,645,645,645,645,645,645,645,645,645,645,645,645,645,645,645,645,645,645,645,645,645,645,645,645,645,559,560,557,558,559,560,557,558,559,560,645,645,645,645,645,645,645,645,645,645,645,645,645,645,645,645,645,645,645,645,645,645,645,645,645,645,645,645,645,645,645,645,645,645,645,645,645,645,645,645,645,645,645,645,645,645,645,645,645,645,645,645,645,645,645,645,645,645,645,645,645,645,645,193,231,232,233,234,235,236,237,238,228,759,760,645,645,645,645,645,645,645,645,645,645,645,645,645,645,645,645,645,645,625,626,627,628,645,645,645,645,645,645,645,645,693,694,695,696,645,645,645,645,533,534,535,645,717,718,719,720,645,645,645,645,225,226,227,228,645,645,645,645,645,645,645,645,645,645,645,645,645,645,645,705,706,707,708,645,645,645,645,645,645,645,645,645,645,693,694,695,696,645,645,645,533,534,535,645,645,645,645,645,645,645,645,129,130,131,132,645,645,645,645,645,645,645,645,673,674,675,676,645,645,645,645,645,645,645,645,645,645,645,645,
645,645,645,645,645,645,645,645,645,645,645,645,645,645,645,645,645,645,645,645,645,645,645,645,645,645,645,645,645,645,645,645,645,645,645,645,645,645,645,645,645,645,645,645,589,590,591,592,589,590,591,592,661,662,663,664,645,645,645,645,645,645,645,645,645,645,645,645,645,645,645,645,645,661,662,663,664,645,645,645,645,645,645,645,645,645,645,645,645,645,645,653,654,655,656,645,645,645,645,645,645,645,645,645,645,645,645,645,645,645,645,645,645,645,645,65,263,264,265,266,267,268,269,270,260,645,645,645,645,645,645,645,645,645,645,645,645,645,645,645,645,645,645,645,645,645,645,645,645,645,645,645,645,645,645,645,645,725,726,727,728,645,645,645,645,565,566,567,645,749,750,751,752,645,645,645,645,257,258,259,260,645,645,645,645,645,645,645,645,645,645,645,645,645,645,645,645,645,645,645,645,645,645,533,534,535,645,645,645,645,725,726,727,728,645,645,645,565,566,567,645,645,645,645,645,645,645,645,161,162,163,164,645,645,645,645,645,645,645,645,705,706,707,708,645,645,645,645,645,645,645,645,645,645,645,645,
645,645,645,645,645,645,645,645,645,645,645,645,645,645,645,645,645,645,645,645,645,645,645,645,645,645,645,645,645,645,645,645,645,645,645,645,645,645,645,645,645,645,645,645,621,622,623,624,621,622,623,624,693,694,695,696,645,645,645,645,645,645,645,645,645,645,645,645,645,645,645,645,645,693,694,695,696,645,645,645,645,645,645,645,645,645,645,645,645,645,645,685,686,687,688,645,645,645,645,645,645,645,645,645,645,645,645,645,645,645,645,645,645,645,645,97,295,296,297,298,299,300,301,302,68,645,529,530,531,532,645,645,645,645,645,645,645,645,645,645,645,645,645,645,645,645,645,645,645,645,645,645,645,645,645,645,645,757,758,759,760,645,645,645,645,597,598,599,645,645,645,645,645,645,645,645,645,97,98,99,100,645,645,645,645,645,645,645,645,645,645,645,645,645,645,645,645,645,645,645,645,645,645,565,566,567,645,645,645,645,757,758,759,760,645,645,645,597,598,599,645,645,645,645,645,645,645,645,193,194,195,196,656,533,534,535,645,645,645,645,645,645,645,645,645,645,645,645,645,645,645,645,645,645,645,645,
525,526,527,528,525,526,527,528,525,526,527,528,525,526,527,528,525,526,527,528,525,526,527,528,525,526,527,528,525,526,527,528,525,526,527,528,645,645,645,645,645,645,645,645,645,645,645,645,525,526,527,528,725,726,727,728,645,645,645,645,645,645,645,645,645,645,645,645,645,645,645,645,645,725,726,727,728,645,645,645,645,645,645,645,645,645,645,645,645,645,645,717,718,719,720,645,645,645,645,645,677,678,679,645,645,645,645,645,645,645,645,645,645,645,645,65,71,72,73,74,75,76,77,78,68,645,561,562,563,564,645,645,645,645,645,645,645,645,645,645,645,645,645,645,645,645,645,645,645,645,645,645,645,645,645,645,645,645,645,645,645,645,645,645,645,629,630,631,645,645,645,645,645,645,645,645,645,129,130,131,132,645,645,529,530,531,532,645,645,645,645,645,645,645,645,645,645,645,645,645,645,645,645,597,598,599,645,645,645,645,645,645,645,645,645,645,645,629,630,631,645,645,645,645,645,645,645,645,225,226,227,228,688,565,566,567,645,645,645,645,645,645,645,645,645,645,645,645,645,645,645,645,645,645,645,645,
557,558,559,560,557,558,559,560,557,558,559,560,557,558,559,560,557,558,559,560,557,558,559,560,557,558,559,560,557,558,559,560,557,558,559,560,645,645,645,645,645,645,645,645,645,645,645,645,557,558,559,560,757,758,759,760,645,645,645,645,645,645,645,645,645,677,678,679,645,645,645,645,645,757,758,759,760,645,645,645,645,529,530,531,532,645,645,645,645,645,645,749,750,751,752,645,645,645,645,645,709,710,711,645,645,645,645,645,645,645,645,645,645,645,645,97,103,104,105,106,107,108,109,110,100,645,593,594,595,596,645,645,645,645,645,649,650,651,652,645,645,645,645,645,645,645,645,645,645,645,645,645,645,645,645,645,645,645,645,645,645,645,645,645,645,645,645,645,645,645,645,645,645,645,645,645,645,161,162,163,164,645,645,561,562,563,564,645,645,645,645,645,645,641,642,643,644,645,645,645,645,645,645,629,630,631,645,645,645,645,645,645,645,645,649,650,651,652,645,645,645,645,645,645,645,645,645,645,257,258,259,260,720,597,598,599,645,645,645,645,645,645,645,645,645,645,645,645,645,645,645,645,645,645,645,645,
589,590,591,592,589,590,591,592,589,590,591,592,589,590,591,592,589,590,591,592,589,590,591,592,589,590,591,592,589,590,591,592,589,590,591,592,645,645,645,645,645,645,645,645,645,645,645,645,589,590,591,592,645,645,645,645,645,645,645,645,645,645,645,645,645,709,710,711,645,645,645,645,645,645,645,645,645,645,645,645,645,561,562,563,564,645,645,645,645,645,645,645,645,645,645,645,645,645,645,645,645,645,645,645,645,645,645,645,645,645,645,645,645,645,645,129,135,136,137,138,139,140,141,142,132,645,625,626,627,628,645,645,645,645,645,681,682,683,684,645,645,645,645,645,645,645,645,645,645,645,645,645,645,645,645,645,645,645,645,645,645,657,658,659,645,645,645,645,645,645,645,645,645,645,649,650,651,193,194,195,196,645,645,593,594,595,596,645,645,645,645,645,645,673,674,675,676,645,645,645,645,645,645,645,645,645,645,645,645,645,645,645,645,645,681,682,683,684,645,645,645,645,661,662,663,664,645,645,97,98,99,100,752,629,630,631,645,645,645,645,645,645,645,645,645,645,645,645,645,645,645,645,645,645,645,645,
621,622,623,624,621,622,623,624,621,622,623,624,621,622,623,624,621,622,623,624,621,622,623,624,621,622,623,624,621,622,623,624,621,622,623,624,645,645,645,645,645,645,645,645,645,645,645,645,621,622,623,624,645,645,645,645,645,645,645,645,645,645,645,645,645,645,645,645,645,645,645,645,645,645,645,645,645,645,645,645,645,593,594,595,596,645,645,533,534,535,645,645,645,645,645,645,645,645,645,645,645,645,645,645,645,645,645,645,645,645,645,645,645,645,645,161,167,168,169,170,171,172,173,174,164,645,645,645,645,645,645,645,645,645,645,713,714,715,716,645,645,645,645,645,645,645,653,654,655,656,645,645,645,645,645,645,645,645,645,645,645,689,690,691,692,645,645,645,645,645,645,645,645,645,681,682,683,225,226,227,228,645,645,625,626,627,628,645,645,645,645,645,645,705,706,707,708,645,645,645,645,645,645,645,645,645,645,645,645,645,645,645,645,645,713,714,715,716,645,645,645,645,693,694,695,696,645,645,129,130,131,132,663,664,645,645,645,645,645,645,645,645,645,645,645,645,645,645,645,661,662,663,664,645,645,645,
645,645,645,645,645,645,645,645,645,645,645,645,645,645,645,645,645,645,645,645,645,561,562,563,564,645,645,705,706,707,708,693,525,526,527,528,525,526,527,528,525,526,527,528,645,645,645,645,589,590,591,592,645,645,645,645,645,645,645,645,661,662,663,664,645,645,645,645,645,645,645,645,645,645,645,645,645,645,645,645,645,625,626,627,628,645,645,565,566,567,645,645,645,645,645,645,645,645,645,645,645,645,645,645,645,645,645,645,645,645,645,645,645,645,645,193,199,200,201,202,203,204,205,206,196,645,645,645,645,645,645,645,645,645,645,745,746,747,748,645,645,645,645,645,645,645,685,686,687,688,645,645,645,645,645,645,645,645,645,645,645,721,722,723,724,645,645,645,645,645,645,645,645,645,713,714,715,257,258,259,260,645,645,645,645,645,645,645,645,645,645,645,645,645,645,645,645,645,645,645,645,645,645,645,645,645,645,645,645,645,645,645,645,645,745,746,747,748,645,645,645,645,725,726,727,728,645,645,161,162,163,164,695,696,645,645,645,645,645,645,645,645,645,645,645,645,645,645,645,693,694,695,696,645,645,645,
645,645,645,645,645,645,645,645,645,645,645,645,645,645,645,645,645,645,645,645,645,593,594,595,596,645,645,645,645,645,645,725,557,558,559,560,557,558,559,560,557,558,559,560,645,661,662,663,621,622,623,624,645,645,645,645,645,645,645,645,693,694,695,696,645,645,645,645,645,645,529,530,531,532,645,645,645,645,645,645,645,645,645,645,645,645,645,597,598,599,645,645,645,645,645,645,645,645,645,645,645,645,645,645,645,645,645,645,645,645,645,645,645,645,645,225,231,232,233,234,235,236,237,238,228,645,645,645,645,645,645,645,645,645,645,645,645,645,645,645,645,645,645,645,645,645,717,718,719,720,645,645,645,645,645,645,645,645,645,645,645,645,645,645,645,645,645,645,645,645,645,645,645,645,745,746,747,65,66,67,68,645,645,645,645,645,645,645,645,645,645,645,645,645,645,645,645,645,645,529,530,531,532,645,645,645,645,645,645,645,645,645,645,645,645,645,645,645,645,645,645,645,757,758,759,760,645,645,193,194,195,196,727,728,645,645,645,645,645,645,645,645,645,645,645,645,645,645,645,725,726,727,728,645,645,645,
645,645,645,645,645,645,645,645,645,645,645,645,645,645,645,645,645,645,645,645,645,625,626,627,628,645,645,645,645,645,645,757,589,590,591,592,645,645,645,645,645,645,645,645,645,645,694,695,525,526,527,528,530,531,532,645,645,645,645,645,725,726,727,728,645,645,645,645,645,645,561,562,563,564,645,645,645,645,645,645,645,645,645,645,645,645,645,629,630,631,645,645,645,645,645,645,645,645,645,645,645,645,645,645,645,645,645,645,645,649,650,651,652,645,645,257,263,264,265,266,267,268,269,270,260,645,645,645,645,645,645,645,645,645,645,645,645,645,645,645,645,645,645,645,645,645,749,750,751,752,645,645,645,645,645,645,645,645,645,645,645,645,645,645,645,645,529,530,531,532,645,645,645,645,645,645,645,97,98,99,100,645,645,645,645,645,645,645,645,645,645,645,645,645,645,645,645,645,645,561,562,563,564,645,645,645,645,645,641,642,643,644,645,645,645,645,645,645,645,645,645,645,645,645,645,645,645,645,225,226,227,228,759,760,645,645,645,645,645,645,645,645,645,645,645,645,645,645,645,757,758,759,760,645,645,645,
645,645,645,645,645,645,645,645,645,645,645,645,645,641,642,645,645,645,645,645,645,645,645,645,645,645,645,645,645,645,645,645,621,622,623,624,645,645,645,645,645,645,645,645,645,645,726,727,557,558,559,560,562,563,564,645,645,645,645,645,757,758,759,760,645,645,645,645,645,645,593,594,595,596,645,645,645,645,645,645,645,645,645,645,645,645,645,645,645,645,645,645,645,645,677,678,679,645,645,645,645,645,645,645,645,645,645,645,645,681,682,683,684,645,645,289,295,296,297,298,299,300,301,302,292,645,645,645,645,645,645,645,661,662,663,664,645,645,645,645,645,645,645,645,645,645,645,645,645,645,645,645,645,645,529,530,531,532,645,645,645,645,645,645,645,645,561,562,563,564,645,645,645,645,645,645,645,129,130,131,132,645,645,645,645,645,645,645,645,661,662,663,664,645,645,645,645,645,645,593,594,595,596,645,645,645,645,645,673,674,675,676,645,645,645,645,645,645,645,533,534,535,645,645,645,641,642,643,257,258,259,260,645,645,645,645,645,657,658,659,645,645,645,645,645,645,645,645,645,645,645,645,645,645,645,645,
645,645,645,645,645,645,645,645,645,645,645,645,645,673,674,645,645,645,645,645,645,645,645,645,645,645,645,645,645,645,645,645,525,526,527,528,645,645,645,645,645,645,645,645,645,757,758,759,589,590,591,592,594,595,596,645,645,645,645,645,645,645,645,645,645,645,645,645,645,645,625,626,627,628,645,645,645,645,645,645,645,645,645,645,645,645,645,645,645,645,645,645,645,645,709,710,711,645,645,645,645,645,645,645,645,645,645,645,645,713,714,715,716,645,645,357,360,361,113,18,19,116,360,361,368,645,645,645,645,645,645,645,693,694,695,696,645,645,645,645,645,645,645,645,645,645,645,645,645,645,645,645,645,645,561,562,563,564,645,645,645,645,645,645,645,645,593,594,595,596,645,645,645,645,645,645,645,161,162,163,164,645,645,645,645,645,645,645,645,693,694,695,696,645,645,645,645,645,645,625,626,627,628,645,645,645,645,645,705,706,707,708,645,645,645,645,645,645,645,565,566,567,645,645,645,673,674,675,97,98,99,100,645,645,645,645,645,689,690,691,692,645,645,645,645,645,641,642,643,644,645,645,645,645,645,645,
557,558,559,560,557,558,559,560,557,558,559,560,645,705,706,707,557,558,559,560,557,558,559,560,557,558,559,560,649,650,651,652,557,558,559,560,645,641,642,643,644,645,645,645,645,645,645,645,621,622,623,624,626,627,628,645,645,645,645,645,645,645,645,645,645,645,645,645,645,645,645,645,645,645,645,645,645,645,645,645,645,645,645,645,645,645,645,645,645,645,661,662,663,664,645,645,645,645,645,645,645,645,645,645,645,645,645,645,645,745,746,747,748,645,645,645,645,645,161,50,51,208,645,529,530,531,532,645,645,645,645,645,725,726,727,728,645,645,645,645,645,645,645,645,645,645,645,645,645,645,645,645,645,645,593,594,595,596,645,645,645,645,645,645,645,645,625,626,627,628,645,645,645,645,645,645,645,193,194,195,196,645,645,645,645,645,645,645,645,725,726,727,728,645,645,645,645,645,645,645,645,645,645,645,645,645,645,645,645,645,645,645,645,645,645,645,645,645,645,597,598,599,645,645,645,705,706,707,129,130,131,132,645,645,645,645,645,721,722,723,724,645,645,645,645,645,673,674,675,676,645,645,645,645,645,645,
589,590,591,592,589,590,591,592,589,590,591,592,645,645,645,645,589,590,591,592,589,590,591,592,589,590,591,592,681,682,683,684,589,590,591,592,645,673,674,675,676,645,645,645,645,645,645,645,525,526,527,528,645,645,645,645,645,645,645,645,645,645,645,645,645,645,645,645,645,645,645,645,645,645,645,645,645,645,645,645,645,645,645,645,645,645,645,645,645,645,693,694,695,696,645,645,645,645,645,645,645,645,645,645,645,645,645,645,645,645,645,645,645,645,645,645,645,645,193,82,83,164,645,561,562,563,564,645,645,645,645,645,757,758,759,760,645,645,645,645,645,645,645,529,530,531,532,645,645,645,645,645,645,645,625,626,627,628,645,645,645,645,645,645,645,645,645,645,645,645,645,645,645,645,645,645,645,225,226,227,228,645,645,645,645,645,645,645,645,757,758,759,760,645,645,645,645,645,645,645,645,645,645,645,645,645,645,645,645,645,645,645,645,645,645,645,645,645,645,629,630,631,645,645,645,645,645,645,161,162,163,164,645,645,645,645,645,645,645,645,645,645,645,645,645,645,705,706,707,708,645,645,645,645,645,645,
621,622,623,624,621,622,623,624,621,622,623,624,645,645,645,645,621,622,623,624,621,622,623,624,621,622,623,624,713,714,715,716,621,622,623,624,645,705,706,707,525,526,527,528,525,526,527,528,557,558,559,560,525,526,527,528,525,526,527,528,525,526,527,528,525,526,527,528,525,526,527,528,525,526,527,528,525,526,527,528,525,526,527,528,525,526,527,528,525,526,527,528,727,728,645,645,645,645,645,645,645,645,645,645,645,645,645,645,645,645,645,645,645,645,645,661,662,663,193,114,115,164,645,593,594,595,596,645,645,645,645,645,645,645,645,645,645,645,645,645,645,645,645,561,562,563,564,645,645,645,645,645,645,645,645,645,645,645,645,645,645,645,645,645,645,645,645,645,645,645,645,645,645,645,645,645,645,257,258,259,260,645,645,645,645,645,645,645,645,645,645,645,645,645,645,645,645,645,645,645,645,645,645,645,645,645,645,645,645,645,645,645,645,645,677,678,679,645,645,645,645,645,645,645,645,645,645,645,193,194,195,196,645,645,645,645,645,645,645,645,645,645,645,645,645,645,645,645,645,645,645,645,645,645,645,645,
525,526,527,528,645,645,645,645,645,645,645,645,645,645,645,645,525,526,527,528,645,645,645,645,525,526,527,528,745,746,747,748,525,526,527,528,645,645,645,645,557,558,559,560,557,558,559,560,589,590,591,592,557,558,559,560,557,558,559,560,557,558,559,560,557,558,559,560,557,558,559,560,557,558,559,560,557,558,559,560,557,558,559,560,557,558,559,560,557,558,559,560,645,645,645,645,645,645,645,645,529,530,531,532,645,645,645,645,645,645,645,645,645,645,645,693,694,695,193,66,67,68,645,625,626,627,628,645,645,645,645,645,645,645,645,645,645,645,645,645,645,645,645,593,594,595,596,645,645,645,645,645,645,645,645,645,645,645,645,645,645,645,645,645,645,645,645,645,645,645,645,645,645,645,645,645,645,65,66,67,68,530,531,532,645,645,645,645,645,645,645,645,645,645,529,530,531,532,645,645,645,645,645,645,645,533,534,535,645,645,645,645,645,645,709,710,711,645,645,645,645,645,645,645,645,645,645,645,225,226,227,228,645,645,645,645,645,645,645,645,645,645,645,645,645,645,645,645,645,645,645,645,645,645,645,645,
557,558,559,560,653,654,655,656,645,645,645,645,645,645,645,645,557,558,559,560,645,645,645,645,557,558,559,560,645,645,645,645,557,558,559,560,645,645,645,645,589,590,591,592,589,590,591,592,621,622,623,624,589,590,591,592,589,590,591,592,589,590,591,592,589,590,591,592,589,590,591,592,589,590,591,592,589,590,591,592,589,590,591,592,589,590,591,592,589,590,591,592,645,645,645,645,645,645,645,645,561,562,563,564,645,645,21,22,23,24,645,645,645,645,645,725,726,727,193,98,99,100,645,645,645,645,645,645,645,645,645,645,645,645,645,645,645,645,645,645,645,645,645,625,626,627,628,645,645,645,645,645,661,662,663,664,645,645,645,645,645,645,645,645,645,645,645,645,645,645,645,661,662,663,664,645,645,97,98,99,100,562,563,564,645,645,645,645,645,645,645,645,645,645,561,562,563,564,645,645,645,645,645,645,645,565,566,567,645,645,645,645,645,645,645,645,645,645,645,645,645,645,645,657,658,659,645,645,257,258,259,260,652,645,645,645,645,645,645,645,645,645,645,645,645,645,645,645,645,645,645,645,645,645,645,645,
589,590,591,592,685,686,687,688,645,645,645,645,645,645,645,645,589,590,591,592,645,645,645,645,589,590,591,592,645,645,645,645,589,590,591,592,645,645,645,645,621,622,623,624,621,622,623,624,621,622,623,624,621,622,623,624,621,622,623,624,621,622,623,624,621,622,623,624,621,622,623,624,621,622,623,624,621,622,623,624,621,622,623,624,621,622,623,624,621,622,623,624,645,645,645,645,645,645,645,645,593,594,595,596,645,645,53,54,55,56,645,645,645,645,645,757,758,759,193,130,131,132,645,645,645,645,645,645,645,645,645,645,645,645,645,645,645,645,645,645,645,645,645,645,645,645,645,645,645,645,645,645,693,694,695,696,645,645,645,645,645,645,657,658,659,645,645,645,645,645,645,693,694,695,696,645,645,129,130,131,132,594,595,596,645,645,645,645,645,645,645,645,645,645,593,594,595,596,645,645,645,645,645,645,645,597,598,599,645,645,645,645,645,645,645,645,645,645,645,645,645,645,645,689,690,691,692,645,353,354,355,356,645,645,645,645,645,645,645,645,645,645,645,645,645,645,645,645,645,645,645,645,645,645,645,645,
621,622,623,624,717,718,719,720,645,645,645,645,645,649,650,651,621,622,623,624,645,645,645,645,621,622,623,624,645,645,645,645,645,645,645,645,645,645,645,645,621,622,623,624,645,645,645,645,645,645,645,645,645,645,645,645,649,650,651,652,645,645,645,645,645,645,645,645,645,645,645,645,645,645,645,645,645,645,645,645,645,645,645,645,645,645,645,645,525,526,527,528,645,645,645,645,645,645,645,645,625,626,627,628,645,645,85,86,87,88,645,645,645,645,645,645,645,645,161,162,163,164,645,645,645,657,658,659,645,645,645,645,645,645,645,657,658,659,645,645,645,645,645,645,645,645,645,645,645,645,645,645,725,726,727,728,645,645,645,645,645,645,689,690,691,692,645,645,645,645,645,725,726,727,728,645,645,161,162,163,164,626,627,628,645,645,645,645,645,645,645,645,645,645,625,626,627,628,645,645,405,406,407,408,645,629,630,631,645,645,645,645,645,645,645,645,645,645,645,645,645,645,645,721,722,723,724,645,645,645,645,645,645,645,645,645,645,645,645,645,645,645,645,645,645,645,645,645,645,645,645,645,645,645,645,645,
525,526,527,528,525,526,527,528,525,526,527,528,645,681,682,683,684,645,645,645,645,645,645,645,525,526,527,528,645,645,645,645,645,645,645,645,645,645,645,645,525,526,527,528,645,645,645,645,645,645,645,645,645,645,645,645,681,682,683,684,645,645,645,645,645,645,645,645,645,645,645,645,645,645,645,645,645,645,645,645,645,645,645,645,645,645,645,645,525,526,527,528,657,658,659,645,645,645,645,645,645,645,645,645,645,645,117,118,119,120,645,645,645,645,645,645,645,645,129,194,195,196,645,645,645,689,690,691,692,645,645,645,645,645,645,689,690,691,692,645,645,645,645,645,645,645,645,645,645,645,645,645,757,758,759,760,645,645,645,645,645,645,721,722,723,724,645,645,645,645,645,757,758,759,760,645,645,193,194,195,196,645,645,645,645,645,645,645,645,645,645,645,645,645,645,645,645,645,645,645,437,438,439,440,645,645,645,645,645,645,645,661,662,663,664,645,645,645,645,645,645,645,645,645,645,645,645,645,645,745,645,645,748,645,645,645,645,645,645,645,645,645,677,678,679,645,645,645,645,645,533,534,535,645,645,645,
557,558,559,560,557,558,559,560,557,558,559,560,645,713,714,715,716,645,645,645,645,645,645,645,557,558,559,560,645,645,645,645,645,645,645,645,645,645,645,645,557,558,559,560,645,645,645,653,654,655,656,645,645,645,645,645,713,714,715,716,645,645,645,645,645,645,645,645,645,645,645,645,645,645,645,645,645,645,645,645,645,645,645,645,645,641,642,643,557,558,559,560,689,690,691,692,645,645,645,645,645,645,645,645,645,645,149,150,151,152,645,645,645,645,645,645,645,645,129,226,227,228,645,645,645,721,722,723,724,645,645,645,645,645,645,721,722,723,724,645,645,645,645,645,645,645,645,645,645,645,645,645,645,645,645,645,645,645,645,645,645,645,645,645,645,645,645,645,645,645,645,645,645,645,645,645,645,225,226,227,228,645,645,645,645,645,645,645,645,645,645,645,645,645,645,645,645,645,645,645,469,470,471,472,645,645,645,645,645,645,645,693,694,695,696,645,645,645,645,645,645,645,645,645,645,645,645,645,645,645,645,645,645,645,645,645,645,645,645,645,645,645,709,710,711,645,645,645,645,645,565,566,567,645,645,645,
589,590,591,592,589,590,591,592,589,590,591,592,645,745,746,747,748,645,645,645,645,645,645,645,589,590,591,592,645,645,645,645,645,645,645,645,645,645,645,645,589,590,591,592,645,645,645,685,686,687,688,645,645,645,645,645,745,746,747,748,645,645,645,645,645,645,645,645,645,653,654,655,656,645,645,645,645,645,645,645,645,645,645,645,645,673,674,675,589,590,591,592,721,722,723,724,645,645,645,645,645,645,645,645,645,645,181,182,183,184,645,645,645,645,641,642,643,644,129,258,259,260,645,645,645,645,645,645,645,645,645,645,645,645,645,645,645,645,645,645,645,645,661,662,663,664,645,645,645,645,645,645,645,645,645,645,645,645,645,645,645,645,645,645,645,645,645,645,645,645,645,645,645,645,645,645,645,257,258,259,132,645,645,645,645,645,645,645,645,645,645,645,645,645,645,645,645,645,645,645,501,502,503,504,645,645,645,645,645,645,645,725,726,727,728,645,645,641,642,643,644,645,645,645,645,645,645,645,645,645,645,645,645,645,645,645,645,645,645,645,645,645,645,645,645,645,645,645,645,645,597,598,599,645,645,645,
621,622,623,624,621,622,623,624,621,622,623,624,645,645,645,645,645,645,645,645,645,645,645,645,621,622,623,624,645,645,645,645,645,645,645,645,645,645,645,645,621,622,623,624,645,645,645,717,525,526,527,528,645,645,645,645,645,645,645,645,645,645,645,645,645,645,645,645,645,685,686,687,688,645,645,645,645,645,645,645,645,645,645,645,645,705,706,707,621,622,623,624,645,645,645,645,645,645,645,645,645,645,645,645,645,645,213,214,215,216,645,645,645,645,673,674,675,676,129,18,19,20,392,393,394,395,396,397,392,393,394,395,396,397,392,393,394,395,396,397,392,393,394,395,396,397,392,393,394,395,396,397,392,393,394,395,396,397,392,393,394,395,396,397,397,392,393,394,395,396,397,392,393,394,395,396,397,17,18,19,132,645,645,645,645,645,645,645,645,645,645,645,645,645,645,645,645,645,645,645,645,645,645,645,645,645,645,645,645,645,645,757,758,759,760,645,645,673,674,675,676,645,645,645,645,645,645,645,645,645,657,658,659,645,645,645,645,645,645,645,645,645,645,645,645,645,645,645,645,645,629,630,631,645,645,645,
525,526,527,528,645,645,645,645,525,526,527,528,645,645,645,645,645,645,645,645,653,654,655,656,525,526,527,528,645,645,645,645,525,526,527,528,645,645,645,645,525,526,527,528,645,645,645,645,557,558,559,560,645,645,645,645,645,645,645,645,645,645,645,645,645,645,645,645,645,717,718,719,720,645,645,645,645,645,645,645,645,645,645,645,645,645,645,645,525,526,527,528,645,645,645,645,645,645,645,645,645,645,645,645,645,645,245,246,247,248,645,645,645,645,705,706,707,708,161,50,51,52,424,425,426,427,428,429,424,425,426,427,428,429,424,425,426,427,428,429,424,425,426,427,428,429,424,425,426,427,428,429,424,425,426,427,428,429,424,425,426,427,428,429,429,424,425,426,427,428,429,424,425,426,427,428,429,49,50,51,132,645,645,645,645,645,645,645,645,645,661,662,663,664,645,645,645,645,645,645,645,645,645,649,650,651,652,645,645,645,645,645,645,645,645,645,645,705,706,707,708,645,645,645,645,645,645,645,645,645,689,690,691,692,645,645,645,645,645,645,645,645,645,645,645,645,661,662,663,664,645,645,645,645,645,645,
557,558,559,560,645,645,645,645,557,558,559,560,645,645,645,645,645,645,645,645,685,686,687,688,557,558,559,560,645,645,645,645,557,558,559,560,641,645,645,645,557,558,559,560,645,645,645,645,589,590,591,592,645,645,645,645,645,645,645,645,645,645,645,645,645,645,645,645,645,749,750,751,752,645,645,645,645,645,645,645,645,645,645,645,645,645,645,645,557,558,559,560,645,645,645,645,645,645,645,645,645,645,645,645,645,645,277,278,279,280,645,645,645,645,645,645,645,645,193,82,83,84,456,457,458,459,460,461,456,457,458,459,460,461,456,457,458,459,460,461,456,457,458,459,460,461,456,457,458,459,460,461,456,457,458,459,460,461,456,457,458,459,460,461,461,456,457,458,459,460,461,456,457,458,459,460,461,81,82,83,164,645,645,645,641,642,643,644,645,645,693,694,695,696,645,645,645,645,645,645,645,645,645,681,682,683,684,645,645,645,645,645,645,645,645,645,645,645,645,645,645,645,645,645,645,645,645,645,645,645,721,722,723,724,645,645,645,645,645,645,645,645,645,645,645,645,693,694,695,696,645,645,645,645,645,645,
589,590,591,592,645,645,645,645,589,590,591,592,645,645,645,645,645,645,645,645,717,718,719,720,589,590,591,592,645,645,645,645,589,590,591,592,645,645,645,645,589,590,591,592,645,645,645,645,621,622,623,624,145,146,147,148,645,645,645,645,645,645,645,645,645,645,645,645,645,645,645,645,645,645,645,645,645,645,645,645,645,645,645,645,645,645,645,645,589,590,591,592,645,645,645,645,645,645,645,645,649,650,651,652,645,645,309,310,311,312,645,645,645,645,645,645,645,645,485,489,490,490,490,490,490,491,492,493,488,489,490,491,492,493,488,489,490,491,492,493,488,489,490,491,492,493,488,489,490,491,492,493,488,489,490,491,492,493,488,489,490,491,492,493,493,488,489,490,491,492,493,488,489,490,491,492,488,488,488,489,484,645,645,645,673,674,675,676,645,645,725,726,727,728,645,645,645,645,645,645,645,645,645,713,714,715,716,645,645,645,645,645,645,645,533,534,535,645,645,645,645,645,645,645,645,645,645,645,645,645,645,645,645,645,645,645,645,645,645,645,645,645,645,645,645,645,725,726,727,728,645,645,645,645,645,645,
621,622,623,624,642,643,645,645,621,622,623,624,645,645,645,645,645,645,645,645,749,750,751,752,621,622,623,624,645,645,645,645,621,622,623,624,645,645,645,645,621,622,623,624,645,645,645,645,525,526,527,528,177,178,179,180,645,645,645,645,645,645,645,645,645,645,645,645,645,645,645,645,645,645,645,645,645,645,645,645,645,645,645,645,645,645,645,645,621,622,623,624,645,645,645,645,645,645,645,645,681,682,683,684,645,645,341,342,343,344,645,645,645,645,645,645,645,645,645,645,645,645,645,645,645,645,645,757,758,759,760,645,645,645,649,650,651,652,645,645,645,645,645,645,645,645,645,645,645,645,645,645,645,645,645,645,645,693,694,695,696,645,645,645,645,645,645,645,645,645,645,645,645,645,661,662,663,664,645,645,645,645,645,645,705,706,707,708,645,645,757,758,759,760,645,645,645,645,645,645,645,645,645,745,746,747,748,645,645,645,645,645,645,645,565,566,567,645,645,645,645,645,645,645,645,645,645,645,645,645,645,645,645,645,645,645,645,645,645,645,645,645,645,645,645,645,757,758,759,760,645,645,645,645,645,645,
525,526,527,528,525,526,527,528,525,526,527,528,645,645,645,645,645,645,645,645,645,645,645,645,525,526,527,528,645,645,645,645,525,526,527,528,525,526,527,528,525,526,527,528,645,645,645,645,525,526,527,528,209,210,211,212,531,532,532,532,532,532,532,532,532,532,532,532,532,532,532,532,532,532,532,532,532,532,532,532,532,532,532,532,532,645,645,645,525,526,527,528,643,644,645,645,645,645,645,645,713,714,715,716,645,645,373,374,375,376,645,645,645,645,645,645,645,645,645,645,645,645,645,645,645,645,645,645,645,645,645,645,645,645,681,682,683,684,645,645,645,645,645,645,645,645,645,661,662,663,664,645,645,645,645,645,645,725,726,727,728,645,645,645,645,645,645,645,645,645,645,645,645,645,693,694,695,696,645,645,645,645,645,645,645,645,645,645,645,645,645,645,645,645,645,645,645,645,645,645,645,645,645,645,645,645,645,645,645,645,645,645,645,645,597,598,599,645,645,645,645,645,645,645,645,645,645,645,645,645,645,645,645,645,645,645,645,533,534,535,645,645,645,645,645,645,645,645,645,645,645,645,645,645,645,645,
557,558,559,560,557,558,559,560,557,558,559,560,645,645,645,645,645,645,645,645,645,645,645,645,557,558,559,560,645,645,645,645,557,558,559,560,557,558,559,560,557,558,559,560,645,645,645,645,557,558,559,560,241,242,243,244,645,564,564,564,564,564,564,564,564,564,564,564,564,564,564,564,564,564,564,564,564,564,564,564,564,564,564,564,564,645,645,645,557,558,559,560,675,676,645,645,645,645,645,645,745,746,747,748,645,645,645,645,645,645,645,645,645,645,645,645,645,645,645,645,645,657,658,659,645,645,645,645,645,645,645,645,645,645,713,714,715,716,645,645,645,645,645,645,645,645,645,693,694,695,696,645,645,645,645,645,645,757,758,759,760,645,645,645,645,645,645,645,645,645,645,645,645,645,725,726,727,728,645,645,645,645,645,645,645,645,645,645,645,645,645,645,645,645,645,645,645,645,645,645,645,645,645,645,645,645,645,645,645,645,645,645,645,645,629,630,631,645,645,645,645,645,645,645,645,645,645,645,645,645,645,645,645,645,645,645,645,565,566,567,645,645,645,645,645,645,645,645,645,645,645,645,645,645,645,645,
589,590,591,592,589,590,591,592,589,590,591,592,645,645,645,645,645,645,645,645,645,645,645,645,589,590,591,592,645,645,645,645,589,590,591,592,589,590,591,592,589,590,591,592,645,645,645,645,589,590,591,592,273,274,275,276,645,596,596,596,596,596,596,596,596,596,596,596,596,596,596,596,596,596,596,596,596,596,596,596,596,596,596,596,596,645,645,645,589,590,591,592,707,708,645,645,645,645,645,645,645,645,645,645,645,645,645,645,645,645,645,645,645,645,645,645,645,645,645,645,645,689,690,691,692,645,645,645,645,645,645,645,645,645,745,746,747,748,645,645,645,645,645,645,645,645,645,725,726,727,728,645,645,645,645,645,645,645,645,645,645,645,645,645,645,645,645,645,645,645,645,645,645,645,757,758,759,760,645,645,645,645,645,645,645,645,645,645,645,645,645,645,645,645,645,645,645,645,645,645,645,645,645,645,645,645,645,645,645,645,645,645,645,645,645,645,645,645,645,645,645,645,645,645,645,645,645,645,645,645,645,645,645,645,645,645,645,597,598,599,645,645,645,645,645,645,645,645,645,645,645,645,645,645,645,645,
621,622,623,624,621,622,623,624,621,622,623,624,645,645,645,645,645,645,645,645,645,645,645,645,621,622,623,624,645,645,645,645,621,622,623,624,621,622,623,624,621,622,623,624,645,645,645,645,621,622,623,624,305,306,307,308,627,628,628,628,628,628,628,628,628,628,628,628,628,628,628,628,628,628,628,628,628,628,628,628,628,628,628,628,628,645,645,645,621,622,623,624,645,645,645,645,645,645,645,645,645,645,645,645,645,645,645,645,645,645,645,645,645,645,645,645,645,645,645,645,645,721,722,723,724,645,645,645,645,645,645,645,645,645,645,645,645,645,645,645,645,645,645,645,645,645,645,757,758,759,760,645,645,645,645,645,645,645,645,645,645,645,645,645,645,645,645,645,645,645,645,645,645,645,645,645,645,645,645,645,645,645,645,645,645,645,645,645,645,645,645,645,645,645,645,645,645,645,645,645,645,645,645,645,645,645,645,645,645,645,645,645,645,645,645,645,645,645,645,645,645,645,645,645,645,645,645,645,645,645,645,645,645,645,645,645,645,629,630,631,645,645,645,645,645,645,645,645,645,645,645,645,645,645,645,645
</data>
 </layer>
</map>
